(G-CODE GENERATED BY FLATCAM v8.994 - www.flatcam.org - Version Date: 2020/11/7)

(Name: PasaBajosActivos-B_Cu.gbr_ncc_cnc)
(Type: G-code from Geometry)
(Units: MM)

(Created on Monday, 30 September 2024 at 16:08)

(This preprocessor is the default preprocessor used by FlatCAM.)
(It is made to work with MACH3 compatible motion controllers.)

(TOOL DIAMETER: 0.2241 mm)
(Feedrate_XY: 45.0 mm/min)
(Feedrate_Z: 25.0 mm/min)
(Feedrate rapids 1500.0 mm/min)

(Z_Cut: -0.045 mm)
(Z_Move: 2.0 mm)
(Z Start: None mm)
(Z End: 15.0 mm)
(X,Y End: None mm)
(Steps per circle: 64)
(Preprocessor Geometry: default)

(X range:  -11.0782 ...   10.0474  mm)
(Y range:  -11.2836 ...   11.4682  mm)

(Spindle Speed: 1000.0 RPM)
G21
G90
G94

G01 F45.00

M5
G00 Z15.0000
G00 X0.0000 Y0.0000
T1
M6    
(MSG, Change to Tool Dia = 0.2241)
M0
G00 Z15.0000

M03 S1000.0
G01 F45.00
G00 X0.9469 Y0.9818
G01 F25.00
G01 Z-0.0450
G01 F45.00
G01 X0.9469 Y-0.5716
G01 X0.9484 Y-0.6021
G01 X0.9638 Y-0.7581
G01 X0.9654 Y-0.7684
G01 X0.9709 Y-0.7962
G01 X0.9742 Y-0.8102
G01 X0.9760 Y-0.8165
G01 X1.0175 Y-0.9532
G01 X1.0245 Y-0.9729
G01 X1.0354 Y-0.9990
G01 X1.0409 Y-1.0107
G01 X1.1120 Y-1.1437
G01 X1.1186 Y-1.1548
G01 X1.1343 Y-1.1784
G01 X1.1468 Y-1.1952
G01 X1.2434 Y-1.3126
G01 X1.2695 Y-1.3392
G01 X1.2811 Y-1.3498
G01 X1.3946 Y-1.4430
G01 X1.4081 Y-1.4532
G01 X1.4349 Y-1.4711
G01 X1.4460 Y-1.4777
G01 X1.5755 Y-1.5470
G01 X1.5907 Y-1.5544
G01 X1.6206 Y-1.5667
G01 X1.6327 Y-1.5711
G01 X1.7733 Y-1.6138
G01 X1.7897 Y-1.6180
G01 X1.8213 Y-1.6243
G01 X1.8341 Y-1.6262
G01 X1.9903 Y-1.6416
G01 X2.0194 Y-1.6429
G01 X2.7284 Y-1.6429
G01 X2.7388 Y-1.6424
G01 X2.7653 Y-1.6404
G01 X2.8563 Y-1.6285
G01 X2.8673 Y-1.6267
G01 X2.8782 Y-1.6243
G01 X2.9149 Y-1.6145
G01 X2.9283 Y-1.6103
G01 X2.9400 Y-1.6059
G01 X3.0127 Y-1.5758
G01 X3.0267 Y-1.5694
G01 X3.0366 Y-1.5641
G01 X3.0658 Y-1.5473
G01 X3.0810 Y-1.5376
G01 X3.1514 Y-1.4838
G01 X3.1652 Y-1.4723
G01 X3.1962 Y-1.4416
G01 X3.2074 Y-1.4293
G01 X3.2623 Y-1.3581
G01 X3.2705 Y-1.3466
G01 X3.2770 Y-1.3360
G01 X3.2953 Y-1.3043
G01 X3.3038 Y-1.2869
G01 X3.3392 Y-1.2011
G01 X3.3435 Y-1.1880
G01 X3.3540 Y-1.1485
G01 X3.3564 Y-1.1376
G01 X3.3582 Y-1.1266
G01 X3.3698 Y-1.0391
G01 X3.3710 Y-1.0263
G01 X3.3725 Y-1.0033
G01 X3.3726 Y0.8195
G01 X3.3721 Y0.8376
G01 X3.3506 Y1.1130
G01 X3.3492 Y1.1254
G01 X3.3456 Y1.1488
G01 X3.3423 Y1.1652
G01 X3.2809 Y1.4209
G01 X3.2764 Y1.4370
G01 X3.2690 Y1.4595
G01 X3.2651 Y1.4699
G01 X3.1640 Y1.7141
G01 X3.1589 Y1.7254
G01 X3.1481 Y1.7466
G01 X3.1400 Y1.7612
G01 X3.0019 Y1.9865
G01 X2.9958 Y1.9958
G01 X2.9819 Y2.0150
G01 X2.9715 Y2.0281
G01 X2.7976 Y2.2318
G01 X2.7819 Y2.2489
G01 X1.8409 Y3.1899
G01 X1.8215 Y3.2078
G01 X1.6125 Y3.3862
G01 X1.5879 Y3.4043
G01 X1.5762 Y3.4122
G01 X1.3509 Y3.5502
G01 X1.3401 Y3.5564
G01 X1.3190 Y3.5672
G01 X1.3038 Y3.5742
G01 X1.0597 Y3.6754
G01 X1.0492 Y3.6793
G01 X1.0254 Y3.6871
G01 X1.0106 Y3.6912
G01 X0.7549 Y3.7526
G01 X0.7427 Y3.7551
G01 X0.7151 Y3.7595
G01 X0.7027 Y3.7608
G01 X0.4357 Y3.7819
G01 X0.4125 Y3.7829
G01 X-1.3924 Y3.7828
G01 X-1.4124 Y3.7820
G01 X-1.6641 Y3.7633
G01 X-1.6758 Y3.7621
G01 X-1.6991 Y3.7587
G01 X-1.7134 Y3.7560
G01 X-1.9563 Y3.7011
G01 X-1.9665 Y3.6985
G01 X-1.9878 Y3.6920
G01 X-2.0027 Y3.6869
G01 X-2.2349 Y3.5968
G01 X-2.2445 Y3.5927
G01 X-2.2647 Y3.5832
G01 X-2.2787 Y3.5759
G01 X-2.4940 Y3.4532
G01 X-2.5073 Y3.4449
G01 X-2.5259 Y3.4324
G01 X-2.5343 Y3.4262
G01 X-2.7375 Y3.2664
G01 X-2.7528 Y3.2534
G01 X-3.9456 Y2.1643
G01 X-3.9610 Y2.1491
G01 X-4.1298 Y1.9718
G01 X-4.1454 Y1.9531
G01 X-4.1530 Y1.9433
G01 X-4.2890 Y1.7541
G01 X-4.2952 Y1.7450
G01 X-4.3062 Y1.7272
G01 X-4.3135 Y1.7144
G01 X-4.4221 Y1.5082
G01 X-4.4264 Y1.4994
G01 X-4.4353 Y1.4792
G01 X-4.4403 Y1.4666
G01 X-4.5190 Y1.2485
G01 X-4.5225 Y1.2381
G01 X-4.5292 Y1.2144
G01 X-4.5318 Y1.2037
G01 X-4.5796 Y0.9768
G01 X-4.5816 Y0.9660
G01 X-4.5845 Y0.9453
G01 X-4.5860 Y0.9307
G01 X-4.6023 Y0.6951
G01 X-4.6031 Y0.6774
G01 X-4.6031 Y-2.9844
G01 X-4.6021 Y-3.0115
G01 X-4.5838 Y-3.2383
G01 X-4.5817 Y-3.2553
G01 X-4.5778 Y-3.2792
G01 X-4.5754 Y-3.2904
G01 X-4.5193 Y-3.5174
G01 X-4.5104 Y-3.5444
G01 X-4.5053 Y-3.5579
G01 X-4.4177 Y-3.7638
G01 X-4.4104 Y-3.7793
G01 X-4.3991 Y-3.8008
G01 X-4.3926 Y-3.8118
G01 X-4.2731 Y-4.0011
G01 X-4.2667 Y-4.0105
G01 X-4.2514 Y-4.0310
G01 X-4.2414 Y-4.0432
G01 X-4.0931 Y-4.2109
G01 X-4.0853 Y-4.2192
G01 X-4.0646 Y-4.2391
G01 X-4.0550 Y-4.2475
G01 X-3.8790 Y-4.3916
G01 X-3.8643 Y-4.4029
G01 X-3.6776 Y-4.5323
G01 X-3.6569 Y-4.5455
G01 X-3.4323 Y-4.6771
G01 X-3.4228 Y-4.6823
G01 X-3.4012 Y-4.6929
G01 X-3.3876 Y-4.6988
G01 X-3.1509 Y-4.7929
G01 X-3.1369 Y-4.7979
G01 X-3.1074 Y-4.8067
G01 X-2.8553 Y-4.8650
G01 X-2.8447 Y-4.8671
G01 X-2.8222 Y-4.8706
G01 X-2.8061 Y-4.8724
G01 X-2.5438 Y-4.8922
G01 X-2.5233 Y-4.8929
G01 X-1.9459 Y-4.8929
G01 X-1.9169 Y-4.8913
G01 X-1.7686 Y-4.8767
G01 X-1.7479 Y-4.8736
G01 X-1.7202 Y-4.8680
G01 X-1.7050 Y-4.8641
G01 X-1.5659 Y-4.8219
G01 X-1.5474 Y-4.8153
G01 X-1.5212 Y-4.8044
G01 X-1.5096 Y-4.7989
G01 X-1.3800 Y-4.7297
G01 X-1.3654 Y-4.7211
G01 X-1.3419 Y-4.7054
G01 X-1.3251 Y-4.6930
G01 X-1.2116 Y-4.5998
G01 X-1.2020 Y-4.5911
G01 X-1.1792 Y-4.5682
G01 X-1.1679 Y-4.5556
G01 X-1.0748 Y-4.4420
G01 X-1.0671 Y-4.4317
G01 X-1.0491 Y-4.4048
G01 X-1.0406 Y-4.3902
G01 X-0.9703 Y-4.2585
G01 X-0.9648 Y-4.2465
G01 X-0.9545 Y-4.2217
G01 X-0.9480 Y-4.2032
G01 X-0.9053 Y-4.0626
G01 X-0.9022 Y-4.0501
G01 X-0.8966 Y-4.0223
G01 X-0.8936 Y-4.0017
G01 X-0.8782 Y-3.8430
G01 X-0.8774 Y-3.8204
G01 X-0.8774 Y-3.3868
G01 X-0.8784 Y-3.3656
G01 X-0.8984 Y-3.1118
G01 X-0.8996 Y-3.1007
G01 X-0.9033 Y-3.0773
G01 X-0.9062 Y-3.0622
G01 X-0.9670 Y-2.8099
G01 X-0.9755 Y-2.7835
G01 X-0.9804 Y-2.7703
G01 X-1.0759 Y-2.5396
G01 X-1.0829 Y-2.5245
G01 X-1.0937 Y-2.5034
G01 X-1.0992 Y-2.4937
G01 X-1.2297 Y-2.2808
G01 X-1.2365 Y-2.2703
G01 X-1.2529 Y-2.2477
G01 X-1.2607 Y-2.2380
G01 X-1.4284 Y-2.0417
G01 X-1.4367 Y-2.0325
G01 X-1.8774 Y-1.5918
G01 X-1.8774 Y0.9818
G01 X-1.2521 Y1.6071
G01 X0.3216 Y1.6071
G01 X0.9469 Y0.9818
G01 X1.0477 Y1.0236
G01 X1.0477 Y-0.5704
G01 X1.0488 Y-0.5935
G01 X1.0634 Y-0.7418
G01 X1.0646 Y-0.7500
G01 X1.0717 Y-0.7845
G01 X1.1140 Y-0.9239
G01 X1.1166 Y-0.9317
G01 X1.1304 Y-0.9642
G01 X1.1990 Y-1.0927
G01 X1.2047 Y-1.1021
G01 X1.2230 Y-1.1290
G01 X1.3154 Y-1.2416
G01 X1.3208 Y-1.2478
G01 X1.3400 Y-1.2670
G01 X1.3481 Y-1.2744
G01 X1.4607 Y-1.3667
G01 X1.4899 Y-1.3866
G01 X1.4970 Y-1.3907
G01 X1.6255 Y-1.4594
G01 X1.6580 Y-1.4731
G01 X1.6658 Y-1.4758
G01 X1.8052 Y-1.5180
G01 X1.8132 Y-1.5200
G01 X1.8452 Y-1.5260
G01 X1.9963 Y-1.5409
G01 X2.0166 Y-1.5420
G01 X2.7248 Y-1.5420
G01 X2.7508 Y-1.5406
G01 X2.8477 Y-1.5278
G01 X2.8562 Y-1.5258
G01 X2.8931 Y-1.5158
G01 X2.9014 Y-1.5127
G01 X2.9795 Y-1.4802
G01 X2.9873 Y-1.4761
G01 X3.0203 Y-1.4569
G01 X3.0275 Y-1.4518
G01 X3.0946 Y-1.4001
G01 X3.1010 Y-1.3942
G01 X3.1280 Y-1.3670
G01 X3.1336 Y-1.3603
G01 X3.1850 Y-1.2930
G01 X3.1897 Y-1.2856
G01 X3.2059 Y-1.2576
G01 X3.2112 Y-1.2471
G01 X3.2446 Y-1.1662
G01 X3.2472 Y-1.1578
G01 X3.2563 Y-1.1237
G01 X3.2584 Y-1.1121
G01 X3.2698 Y-1.0259
G01 X3.2718 Y-0.9975
G01 X3.2718 Y0.8217
G01 X3.2711 Y0.8381
G01 X3.2501 Y1.1051
G01 X3.2490 Y1.1138
G01 X3.2443 Y1.1416
G01 X3.1829 Y1.3973
G01 X3.1805 Y1.4058
G01 X3.1714 Y1.4325
G01 X3.0708 Y1.6755
G01 X3.0671 Y1.6835
G01 X3.0540 Y1.7085
G01 X2.9166 Y1.9327
G01 X2.9117 Y1.9400
G01 X2.8948 Y1.9626
G01 X2.7209 Y2.1663
G01 X2.7114 Y2.1767
G01 X1.7681 Y3.1201
G01 X1.7560 Y3.1312
G01 X1.5501 Y3.3070
G01 X1.5297 Y3.3220
G01 X1.5224 Y3.3269
G01 X1.2982 Y3.4643
G01 X1.2905 Y3.4686
G01 X1.2652 Y3.4811
G01 X1.0168 Y3.5838
G01 X0.9955 Y3.5907
G01 X0.9871 Y3.5931
G01 X0.7314 Y3.6545
G01 X0.7228 Y3.6562
G01 X0.6948 Y3.6603
G01 X0.4234 Y3.6816
G01 X0.4093 Y3.6820
G01 X-1.3875 Y3.6820
G01 X-1.4050 Y3.6814
G01 X-1.6567 Y3.6627
G01 X-1.6830 Y3.6591
G01 X-1.6912 Y3.6576
G01 X-1.9329 Y3.6030
G01 X-1.9584 Y3.5956
G01 X-1.9662 Y3.5929
G01 X-2.1972 Y3.5033
G01 X-2.2214 Y3.4921
G01 X-2.2288 Y3.4883
G01 X-2.4440 Y3.3656
G01 X-2.4511 Y3.3612
G01 X-2.4708 Y3.3478
G01 X-2.6714 Y3.1902
G01 X-2.6832 Y3.1803
G01 X-3.8763 Y2.0910
G01 X-3.8880 Y2.0796
G01 X-4.0510 Y1.9086
G01 X-4.0561 Y1.9028
G01 X-4.0718 Y1.8835
G01 X-4.2071 Y1.6952
G01 X-4.2204 Y1.6742
G01 X-4.2243 Y1.6674
G01 X-4.3323 Y1.4623
G01 X-4.3446 Y1.4348
G01 X-4.4241 Y1.2143
G01 X-4.4265 Y1.2069
G01 X-4.4331 Y1.1829
G01 X-4.4809 Y0.9560
G01 X-4.4846 Y0.9314
G01 X-4.4854 Y0.9237
G01 X-4.5019 Y0.6842
G01 X-4.5023 Y0.6718
G01 X-4.5023 Y-2.9844
G01 X-4.5015 Y-3.0034
G01 X-4.4833 Y-3.2302
G01 X-4.4822 Y-3.2391
G01 X-4.4772 Y-3.2676
G01 X-4.4240 Y-3.4836
G01 X-4.4152 Y-3.5112
G01 X-4.4120 Y-3.5196
G01 X-4.3249 Y-3.7244
G01 X-4.3118 Y-3.7502
G01 X-4.3073 Y-3.7580
G01 X-4.1886 Y-3.9461
G01 X-4.1835 Y-3.9535
G01 X-4.1658 Y-3.9764
G01 X-4.0144 Y-4.1475
G01 X-3.9979 Y-4.1635
G01 X-3.9911 Y-4.1694
G01 X-3.8115 Y-4.3163
G01 X-3.7999 Y-4.3250
G01 X-3.6202 Y-4.4494
G01 X-3.6051 Y-4.4590
G01 X-3.3824 Y-4.5895
G01 X-3.3581 Y-4.6017
G01 X-3.3503 Y-4.6051
G01 X-3.1148 Y-4.6988
G01 X-3.0889 Y-4.7072
G01 X-3.0807 Y-4.7094
G01 X-2.8283 Y-4.7676
G01 X-2.7985 Y-4.7719
G01 X-2.5411 Y-4.7914
G01 X-2.5233 Y-4.7920
G01 X-1.9471 Y-4.7920
G01 X-1.9268 Y-4.7909
G01 X-1.7757 Y-4.7760
G01 X-1.7676 Y-4.7747
G01 X-1.7384 Y-4.7687
G01 X-1.5937 Y-4.7250
G01 X-1.5610 Y-4.7117
G01 X-1.5536 Y-4.7081
G01 X-1.4251 Y-4.6394
G01 X-1.3956 Y-4.6200
G01 X-1.3891 Y-4.6150
G01 X-1.2765 Y-4.5226
G01 X-1.2513 Y-4.4978
G01 X-1.2459 Y-4.4916
G01 X-1.1535 Y-4.3790
G01 X-1.1352 Y-4.3521
G01 X-1.1308 Y-4.3451
G01 X-1.0622 Y-4.2167
G01 X-1.0575 Y-4.2067
G01 X-1.0453 Y-4.1766
G01 X-1.0030 Y-4.0372
G01 X-1.0003 Y-4.0265
G01 X-0.9942 Y-3.9945
G01 X-0.9793 Y-3.8435
G01 X-0.9783 Y-3.8259
G01 X-0.9782 Y-3.3898
G01 X-0.9789 Y-3.3735
G01 X-0.9988 Y-3.1210
G01 X-1.0029 Y-3.0930
G01 X-1.0046 Y-3.0844
G01 X-1.0626 Y-2.8429
G01 X-1.0650 Y-2.8344
G01 X-1.0740 Y-2.8077
G01 X-1.1691 Y-2.5782
G01 X-1.1816 Y-2.5529
G01 X-1.1859 Y-2.5452
G01 X-1.3156 Y-2.3335
G01 X-1.3205 Y-2.3261
G01 X-1.3337 Y-2.3081
G01 X-1.5090 Y-2.1029
G01 X-1.9782 Y-1.6336
G01 X-1.9782 Y1.0236
G01 X-1.2938 Y1.7080
G01 X0.3633 Y1.7080
G01 X1.0477 Y1.0236
G01 X0.9735 Y-1.0986
G01 X1.0255 Y-1.1956
G01 X1.0341 Y-1.2098
G01 X1.0534 Y-1.2387
G01 X1.0684 Y-1.2586
G01 X1.1636 Y-1.3745
G01 X1.1802 Y-1.3924
G01 X1.2011 Y-1.4133
G01 X1.2133 Y-1.4245
G01 X1.3306 Y-1.5209
G01 X1.3325 Y-1.5225
G01 X1.3347 Y-1.5242
G01 X1.3357 Y-1.5250
G01 X1.3418 Y-1.5297
G01 X1.3533 Y-1.5379
G01 X1.3761 Y-1.5531
G01 X1.3942 Y-1.5643
G01 X1.5285 Y-1.6363
G01 X1.5429 Y-1.6434
G01 X1.5552 Y-1.6489
G01 X1.5843 Y-1.6608
G01 X1.6023 Y-1.6672
G01 X1.7502 Y-1.7121
G01 X1.7676 Y-1.7164
G01 X1.7996 Y-1.7229
G01 X1.8141 Y-1.7253
G01 X1.8282 Y-1.7270
G01 X1.9771 Y-1.7417
G01 X2.0040 Y-1.7434
G01 X2.0194 Y-1.7437
G01 X2.7254 Y-1.7437
G01 X2.7437 Y-1.7432
G01 X2.7763 Y-1.7407
G01 X2.8689 Y-1.7286
G01 X2.8857 Y-1.7258
G01 X2.9078 Y-1.7208
G01 X2.9423 Y-1.7116
G01 X2.9580 Y-1.7068
G01 X2.9786 Y-1.6991
G01 X3.0519 Y-1.6687
G01 X3.0687 Y-1.6611
G01 X3.0833 Y-1.6535
G01 X3.1185 Y-1.6333
G01 X3.1313 Y-1.6253
G01 X3.1448 Y-1.6159
G01 X3.2133 Y-1.5634
G01 X3.2266 Y-1.5526
G01 X3.2422 Y-1.5382
G01 X3.2679 Y-1.5125
G01 X3.2770 Y-1.5030
G01 X3.2924 Y-1.4846
G01 X3.3480 Y-1.4118
G01 X3.3615 Y-1.3912
G01 X3.3852 Y-1.3501
G01 X3.3914 Y-1.3378
G01 X3.3977 Y-1.3240
G01 X3.4323 Y-1.2400
G01 X3.4401 Y-1.2166
G01 X3.4511 Y-1.1761
G01 X3.4548 Y-1.1601
G01 X3.4576 Y-1.1440
G01 X3.4697 Y-1.0522
G01 X3.4716 Y-1.0340
G01 X3.4734 Y-1.0030
G01 X3.4735 Y0.8237
G01 X3.4722 Y0.8534
G01 X3.4510 Y1.1229
G01 X3.4482 Y1.1454
G01 X3.4443 Y1.1701
G01 X3.4410 Y1.1862
G01 X3.3788 Y1.4451
G01 X3.3723 Y1.4681
G01 X3.3645 Y1.4919
G01 X3.3585 Y1.5079
G01 X3.2569 Y1.7533
G01 X3.2480 Y1.7727
G01 X3.2314 Y1.8047
G01 X3.5960 Y1.4400
G01 X3.5962 Y-0.3305
G01 X3.5979 Y-0.3614
G01 X3.6127 Y-0.5116
G01 X3.6144 Y-0.5256
G01 X3.6169 Y-0.5402
G01 X3.6233 Y-0.5722
G01 X3.6280 Y-0.5907
G01 X3.6709 Y-0.7325
G01 X3.6754 Y-0.7459
G01 X3.6804 Y-0.7592
G01 X3.6913 Y-0.7856
G01 X3.7008 Y-0.8060
G01 X3.7720 Y-0.9394
G01 X3.7794 Y-0.9522
G01 X3.7860 Y-0.9626
G01 X3.8041 Y-0.9897
G01 X3.8148 Y-1.0041
G01 X3.9095 Y-1.1196
G01 X3.9239 Y-1.1360
G01 X3.9491 Y-1.1613
G01 X3.9594 Y-1.1710
G01 X3.9687 Y-1.1791
G01 X4.0847 Y-1.2742
G01 X4.1010 Y-1.2863
G01 X4.1341 Y-1.3083
G01 X4.1520 Y-1.3186
G01 X4.2870 Y-1.3906
G01 X4.3035 Y-1.3982
G01 X4.3343 Y-1.4108
G01 X4.3488 Y-1.4161
G01 X4.3657 Y-1.4213
G01 X4.3494 Y-1.4275
G01 X4.3342 Y-1.4342
G01 X4.2840 Y-1.4580
G01 X4.2626 Y-1.4697
G01 X4.2184 Y-1.4962
G01 X4.2022 Y-1.5068
G01 X4.1513 Y-1.5445
G01 X4.1322 Y-1.5604
G01 X4.0859 Y-1.6027
G01 X3.9296 Y-1.7590
G01 X3.9034 Y-1.7779
G01 X3.8877 Y-1.7903
G01 X3.6821 Y-1.9658
G01 X3.6624 Y-1.9838
G01 X2.9636 Y-2.6826
G01 X2.9456 Y-2.7024
G01 X2.7700 Y-2.9079
G01 X2.7576 Y-2.9236
G01 X2.7389 Y-2.9496
G01 X2.5842 Y-3.1044
G01 X2.5752 Y-3.1138
G01 X2.5393 Y-3.1533
G01 X2.5297 Y-3.1646
G01 X2.5214 Y-3.1753
G01 X2.4887 Y-3.2194
G01 X2.4757 Y-3.2392
G01 X2.4431 Y-3.2941
G01 X2.4350 Y-3.3100
G01 X2.4087 Y-3.3662
G01 X2.4022 Y-3.3829
G01 X2.3854 Y-3.4297
G01 X2.3812 Y-3.4425
G01 X2.3769 Y-3.4580
G01 X2.3627 Y-3.5149
G01 X2.3589 Y-3.5358
G01 X2.3515 Y-3.5855
G01 X2.3498 Y-3.5990
G01 X2.3485 Y-3.6156
G01 X2.3461 Y-3.6652
G01 X2.3458 Y-3.6794
G01 X2.3458 Y-7.1800
G01 X2.3461 Y-7.1948
G01 X2.3485 Y-7.2444
G01 X2.3498 Y-7.2610
G01 X2.3515 Y-7.2745
G01 X2.3588 Y-7.3236
G01 X2.3619 Y-7.3412
G01 X2.3780 Y-7.4065
G01 X2.3854 Y-7.4303
G01 X2.4024 Y-7.4777
G01 X2.4073 Y-7.4904
G01 X2.4132 Y-7.5039
G01 X2.4350 Y-7.5500
G01 X2.4407 Y-7.5615
G01 X2.4468 Y-7.5726
G01 X2.4774 Y-7.6237
G01 X2.4887 Y-7.6406
G01 X2.5146 Y-7.6756
G01 X2.5243 Y-7.6934
G01 X2.5321 Y-7.7067
G01 X2.5515 Y-7.7359
G01 X2.5601 Y-7.7480
G01 X2.5688 Y-7.7591
G01 X2.6706 Y-7.8830
G01 X2.6875 Y-7.9014
G01 X2.8460 Y-8.0600
G01 X2.8460 Y-8.2614
G01 X2.7934 Y-8.1633
G01 X2.7835 Y-8.1473
G01 X2.7616 Y-8.1150
G01 X2.7507 Y-8.1009
G01 X2.6559 Y-7.9855
G01 X2.6406 Y-7.9689
G01 X2.6204 Y-7.9487
G01 X2.6101 Y-7.9390
G01 X2.5993 Y-7.9297
G01 X2.4838 Y-7.8350
G01 X2.4685 Y-7.8237
G01 X2.4364 Y-7.8024
G01 X2.4181 Y-7.7917
G01 X2.2836 Y-7.7199
G01 X2.2685 Y-7.7129
G01 X2.2407 Y-7.7013
G01 X2.2172 Y-7.6928
G01 X2.0657 Y-7.6469
G01 X2.0507 Y-7.6433
G01 X2.0200 Y-7.6371
G01 X2.0078 Y-7.6350
G01 X1.9938 Y-7.6332
G01 X1.8412 Y-7.6182
G01 X1.8103 Y-7.6164
G01 X1.5188 Y-7.6163
G01 X1.4918 Y-7.6172
G01 X1.4771 Y-7.6183
G01 X1.3263 Y-7.6332
G01 X1.3141 Y-7.6347
G01 X1.2996 Y-7.6371
G01 X1.2676 Y-7.6436
G01 X1.2490 Y-7.6482
G01 X1.1067 Y-7.6914
G01 X1.0843 Y-7.6992
G01 X1.1059 Y-7.6774
G01 X1.1233 Y-7.6584
G01 X1.2982 Y-7.4536
G01 X1.3123 Y-7.4359
G01 X1.3289 Y-7.4129
G01 X1.3382 Y-7.3986
G01 X1.4763 Y-7.1733
G01 X1.4880 Y-7.1524
G01 X1.4999 Y-7.1288
G01 X1.5072 Y-7.1126
G01 X1.6085 Y-6.8679
G01 X1.6145 Y-6.8519
G01 X1.6223 Y-6.8281
G01 X1.6288 Y-6.8050
G01 X1.6908 Y-6.5468
G01 X1.6948 Y-6.5272
G01 X1.6996 Y-6.4959
G01 X1.7011 Y-6.4809
G01 X1.7222 Y-6.2134
G01 X1.7235 Y-6.1810
G01 X1.7234 Y-2.7112
G01 X1.7225 Y-2.6883
G01 X1.7214 Y-2.6741
G01 X1.6984 Y-2.4401
G01 X1.6952 Y-2.4178
G01 X1.6888 Y-2.3852
G01 X1.6856 Y-2.3714
G01 X1.6820 Y-2.3584
G01 X1.6145 Y-2.1360
G01 X1.6076 Y-2.1168
G01 X1.5912 Y-2.0777
G01 X1.5832 Y-2.0617
G01 X1.4733 Y-1.8562
G01 X1.4641 Y-1.8409
G01 X1.4471 Y-1.8153
G01 X1.4397 Y-1.8047
G01 X1.4320 Y-1.7946
G01 X1.2773 Y-1.6060
G01 X1.2655 Y-1.5925
G01 X1.2566 Y-1.5832
G01 X0.9735 Y-1.3000
G01 X0.9735 Y-1.0986
G01 X1.5198 Y-1.7433
G01 X1.5420 Y-1.7525
G01 X1.5598 Y-1.7593
G01 X1.5780 Y-1.7653
G01 X1.7180 Y-1.8078
G01 X1.7356 Y-1.8125
G01 X1.7515 Y-1.8161
G01 X1.7862 Y-1.8230
G01 X1.8100 Y-1.8265
G01 X1.9786 Y-1.8430
G01 X2.0025 Y-1.8442
G01 X2.0191 Y-1.8446
G01 X2.7257 Y-1.8446
G01 X2.7440 Y-1.8441
G01 X2.7682 Y-1.8426
G01 X2.7949 Y-1.8400
G01 X2.8827 Y-1.8284
G01 X2.9047 Y-1.8249
G01 X2.9320 Y-1.8187
G01 X2.9687 Y-1.8089
G01 X2.9847 Y-1.8041
G01 X2.9988 Y-1.7993
G01 X3.0138 Y-1.7936
G01 X3.1017 Y-1.7570
G01 X3.1160 Y-1.7502
G01 X3.1279 Y-1.7440
G01 X3.1669 Y-1.7218
G01 X3.1884 Y-1.7084
G01 X3.2106 Y-1.6926
G01 X3.2801 Y-1.6392
G01 X3.2940 Y-1.6276
G01 X3.3081 Y-1.6147
G01 X3.3431 Y-1.5798
G01 X3.3612 Y-1.5598
G01 X3.3734 Y-1.5447
G01 X3.4288 Y-1.4722
G01 X3.4382 Y-1.4587
G01 X3.4454 Y-1.4473
G01 X3.4692 Y-1.4065
G01 X3.4800 Y-1.3862
G01 X3.4904 Y-1.3635
G01 X3.5230 Y-1.2850
G01 X3.5308 Y-1.2640
G01 X3.5393 Y-1.2364
G01 X3.5495 Y-1.1981
G01 X3.5535 Y-1.1805
G01 X3.5580 Y-1.1546
G01 X3.5701 Y-1.0624
G01 X3.5719 Y-1.0447
G01 X3.5738 Y-1.0159
G01 X3.5743 Y-0.9954
G01 X3.5743 Y-0.7614
G01 X3.5798 Y-0.7782
G01 X3.5857 Y-0.7941
G01 X3.6000 Y-0.8285
G01 X3.6085 Y-0.8469
G01 X3.6824 Y-0.9856
G01 X3.6942 Y-1.0062
G01 X3.7185 Y-1.0432
G01 X3.7338 Y-1.0642
G01 X3.8361 Y-1.1890
G01 X3.8469 Y-1.2013
G01 X3.8580 Y-1.2128
G01 X3.8811 Y-1.2359
G01 X3.8956 Y-1.2492
G01 X4.0236 Y-1.3545
G01 X4.0440 Y-1.3695
G01 X4.0812 Y-1.3941
G01 X4.0988 Y-1.4044
G01 X4.1406 Y-1.4269
G01 X4.0944 Y-1.4610
G01 X4.0803 Y-1.4720
G01 X4.0658 Y-1.4845
G01 X4.0255 Y-1.5210
G01 X4.0131 Y-1.5329
G01 X3.8646 Y-1.6813
G01 X3.8391 Y-1.7000
G01 X3.8217 Y-1.7140
G01 X3.6164 Y-1.8893
G01 X3.5935 Y-1.9101
G01 X2.8973 Y-2.6062
G01 X2.8755 Y-2.6293
G01 X2.6927 Y-2.8432
G01 X2.6798 Y-2.8593
G01 X2.6616 Y-2.8842
G01 X2.5126 Y-3.0334
G01 X2.5005 Y-3.0460
G01 X2.4640 Y-3.0863
G01 X2.4514 Y-3.1011
G01 X2.4402 Y-3.1154
G01 X2.4038 Y-3.1649
G01 X2.3888 Y-3.1879
G01 X2.3623 Y-3.2321
G01 X2.3538 Y-3.2471
G01 X2.3438 Y-3.2669
G01 X2.3216 Y-3.3138
G01 X2.3141 Y-3.3311
G01 X2.3081 Y-3.3466
G01 X2.2906 Y-3.3954
G01 X2.2834 Y-3.4174
G01 X2.2792 Y-3.4328
G01 X2.2663 Y-3.4844
G01 X2.2631 Y-3.4985
G01 X2.2604 Y-3.5127
G01 X2.2515 Y-3.5726
G01 X2.2491 Y-3.5922
G01 X2.2480 Y-3.6082
G01 X2.2454 Y-3.6597
G01 X2.2449 Y-3.6791
G01 X2.2451 Y-7.1920
G01 X2.2479 Y-7.2503
G01 X2.2491 Y-7.2678
G01 X2.2514 Y-7.2871
G01 X2.2591 Y-7.3387
G01 X2.2619 Y-7.3554
G01 X2.2653 Y-7.3714
G01 X2.2825 Y-7.4394
G01 X2.2895 Y-7.4614
G01 X2.3075 Y-7.5120
G01 X2.3132 Y-7.5267
G01 X2.3191 Y-7.5406
G01 X2.3442 Y-7.5939
G01 X2.3512 Y-7.6080
G01 X2.3597 Y-7.6234
G01 X2.3797 Y-7.6568
G01 X2.3360 Y-7.6335
G01 X2.3175 Y-7.6244
G01 X2.2767 Y-7.6071
G01 X2.2530 Y-7.5984
G01 X2.0920 Y-7.5496
G01 X2.0722 Y-7.5448
G01 X2.0414 Y-7.5386
G01 X2.0132 Y-7.5340
G01 X1.8495 Y-7.5177
G01 X1.8326 Y-7.5165
G01 X1.8035 Y-7.5154
G01 X1.5074 Y-7.5156
G01 X1.4703 Y-7.5177
G01 X1.3675 Y-7.5278
G01 X1.3806 Y-7.5123
G01 X1.3905 Y-7.4996
G01 X1.4088 Y-7.4746
G01 X1.4198 Y-7.4582
G01 X1.5621 Y-7.2263
G01 X1.5744 Y-7.2048
G01 X1.5901 Y-7.1740
G01 X1.5993 Y-7.1537
G01 X1.7011 Y-6.9080
G01 X1.7100 Y-6.8843
G01 X1.7205 Y-6.8521
G01 X1.7267 Y-6.8292
G01 X1.7887 Y-6.5713
G01 X1.7916 Y-6.5578
G01 X1.7946 Y-6.5416
G01 X1.7991 Y-6.5123
G01 X1.8016 Y-6.4901
G01 X1.8227 Y-6.2211
G01 X1.8242 Y-6.1901
G01 X1.8243 Y-2.7164
G01 X1.8240 Y-2.6995
G01 X1.8227 Y-2.6756
G01 X1.7987 Y-2.4296
G01 X1.7963 Y-2.4106
G01 X1.7930 Y-2.3921
G01 X1.7864 Y-2.3592
G01 X1.7802 Y-2.3347
G01 X1.7101 Y-2.1038
G01 X1.7020 Y-2.0811
G01 X1.6886 Y-2.0487
G01 X1.6808 Y-2.0312
G01 X1.6727 Y-2.0153
G01 X1.5611 Y-1.8065
G01 X1.5463 Y-1.7823
G01 X1.5290 Y-1.7564
G01 X1.5198 Y-1.7433
G01 X2.3134 Y-2.5109
G01 X2.3004 Y-2.3798
G01 X2.2969 Y-2.3495
G01 X2.4514 Y-2.3492
G01 X2.3134 Y-2.5109
G01 X2.2277 Y-2.7478
G01 X2.2274 Y-2.6930
G01 X2.2260 Y-2.6620
G01 X2.2247 Y-2.6410
G01 X2.2232 Y-2.6244
G01 X2.2004 Y-2.3925
G01 X2.1998 Y-2.3867
G01 X2.1960 Y-2.3562
G01 X2.1911 Y-2.3263
G01 X2.1815 Y-2.2781
G01 X2.1745 Y-2.2480
G01 X2.6846 Y-2.2480
G01 X2.6044 Y-2.3287
G01 X2.5713 Y-2.3644
G01 X2.3861 Y-2.5810
G01 X2.3703 Y-2.6003
G01 X2.3550 Y-2.6200
G01 X2.2277 Y-2.7478
G01 X2.1269 Y-3.0365
G01 X2.1268 Y-2.7099
G01 X2.1264 Y-2.6917
G01 X2.1253 Y-2.6672
G01 X2.1228 Y-2.6341
G01 X2.0996 Y-2.3981
G01 X2.0967 Y-2.3742
G01 X2.0932 Y-2.3520
G01 X2.0835 Y-2.3019
G01 X2.0798 Y-2.2852
G01 X2.0797 Y-2.2848
G01 X2.0796 Y-2.2846
G01 X2.0790 Y-2.2818
G01 X2.0786 Y-2.2803
G01 X2.0778 Y-2.2767
G01 X2.0755 Y-2.2677
G01 X2.0685 Y-2.2429
G01 X2.0395 Y-2.1471
G01 X2.7432 Y-2.1469
G01 X2.7621 Y-2.1461
G01 X2.7889 Y-2.1445
G01 X2.8204 Y-2.1416
G01 X2.9231 Y-2.1283
G01 X2.9518 Y-2.1238
G01 X2.6821 Y-2.3935
G01 X2.6679 Y-2.4082
G01 X2.6514 Y-2.4261
G01 X2.6387 Y-2.4405
G01 X2.4627 Y-2.6466
G01 X2.4456 Y-2.6675
G01 X2.4307 Y-2.6873
G01 X2.2907 Y-2.8275
G01 X2.2750 Y-2.8443
G01 X2.2288 Y-2.8957
G01 X2.2166 Y-2.9103
G01 X2.2043 Y-2.9259
G01 X2.1635 Y-2.9807
G01 X2.1447 Y-3.0080
G01 X2.1269 Y-3.0365
G00 Z2.0000
G00 X-0.9040 Y-2.6911
G01 F25.00
G01 Z-0.0450
G01 F45.00
G01 X-0.9837 Y-2.4986
G01 X-0.9906 Y-2.4837
G01 X-1.0044 Y-2.4564
G01 X-1.0139 Y-2.4399
G01 X-1.1447 Y-2.2264
G01 X-1.1541 Y-2.2121
G01 X-1.1729 Y-2.1863
G01 X-1.1840 Y-2.1725
G01 X-1.3517 Y-1.9762
G01 X-1.3618 Y-1.9650
G01 X-1.7765 Y-1.5500
G01 X-1.7765 Y0.9400
G01 X-1.2103 Y1.5063
G01 X-1.0089 Y1.5063
G01 X-1.1058 Y1.4543
G01 X-1.1201 Y1.4456
G01 X-1.1490 Y1.4263
G01 X-1.1689 Y1.4113
G01 X-1.2838 Y1.3169
G01 X-1.3022 Y1.3000
G01 X-1.3235 Y1.2787
G01 X-1.3339 Y1.2673
G01 X-1.4352 Y1.1441
G01 X-1.4495 Y1.1244
G01 X-1.4659 Y1.0998
G01 X-1.4745 Y1.0856
G01 X-1.5465 Y0.9512
G01 X-1.5558 Y0.9321
G01 X-1.5706 Y0.8966
G01 X-1.5771 Y0.8786
G01 X-1.6233 Y0.7259
G01 X-1.6269 Y0.7110
G01 X-1.6329 Y0.6814
G01 X-1.6366 Y0.6580
G01 X-1.6521 Y0.5014
G01 X-1.6539 Y0.4668
G01 X-1.6539 Y-0.9025
G01 X-1.6519 Y-0.9359
G01 X-1.6288 Y-1.1705
G01 X-1.6257 Y-1.1921
G01 X-1.6187 Y-1.2275
G01 X-1.6125 Y-1.2516
G01 X-1.5446 Y-1.4752
G01 X-1.5386 Y-1.4920
G01 X-1.5262 Y-1.5222
G01 X-1.5201 Y-1.5357
G01 X-1.5137 Y-1.5483
G01 X-1.4026 Y-1.7559
G01 X-1.3940 Y-1.7701
G01 X-1.3766 Y-1.7963
G01 X-1.3695 Y-1.8063
G01 X-1.3608 Y-1.8175
G01 X-1.2078 Y-2.0040
G01 X-1.1960 Y-2.0175
G01 X-1.1871 Y-2.0268
G01 X-0.9040 Y-2.3100
G01 X-0.9040 Y-2.6911
G01 X-1.6757 Y-1.3908
G01 X-1.6394 Y-1.5098
G01 X-1.6318 Y-1.5306
G01 X-1.6165 Y-1.5675
G01 X-1.6757 Y-1.5083
G01 X-1.6757 Y-1.3908
G00 Z2.0000
G00 X-5.1074 Y-0.8946
G01 F25.00
G01 Z-0.0450
G01 F45.00
G01 X-5.1637 Y-0.6355
G01 X-5.1699 Y-0.6115
G01 X-5.1795 Y-0.5784
G01 X-5.1864 Y-0.5569
G01 X-5.1939 Y-0.5358
G01 X-5.2794 Y-0.3061
G01 X-5.2904 Y-0.2790
G01 X-5.2926 Y-0.2740
G01 X-5.2927 Y-0.2738
G01 X-5.2938 Y-0.2713
G01 X-5.2942 Y-0.2703
G01 X-5.2956 Y-0.2672
G01 X-5.3042 Y-0.2484
G01 X-5.3142 Y-0.2274
G01 X-5.3255 Y-0.2056
G01 X-5.4442 Y0.0121
G01 X-5.4549 Y0.0307
G01 X-5.4661 Y0.0489
G01 X-5.4841 Y0.0767
G01 X-5.4989 Y0.0981
G01 X-5.6499 Y0.3003
G01 X-5.6625 Y0.3166
G01 X-5.6760 Y0.3330
G01 X-5.7025 Y0.3635
G01 X-5.7256 Y0.3879
G01 X-5.9015 Y0.5643
G01 X-5.9244 Y0.5861
G01 X-5.9436 Y0.6034
G01 X-5.9057 Y0.6053
G01 X-5.6700 Y0.6240
G01 X-5.6490 Y0.6264
G01 X-5.6289 Y0.6292
G01 X-5.5959 Y0.6345
G01 X-5.5720 Y0.6391
G01 X-5.5528 Y0.6434
G01 X-5.3391 Y0.6947
G01 X-5.3194 Y0.6998
G01 X-5.2997 Y0.7055
G01 X-5.2581 Y0.7190
G01 X-5.2309 Y0.7289
G01 X-5.1023 Y0.7819
G01 X-5.1063 Y0.7126
G01 X-5.1074 Y0.6731
G01 X-5.1074 Y-0.8946
G01 X-5.5083 Y0.4467
G01 X-5.3117 Y0.4939
G01 X-5.3105 Y0.1799
G01 X-5.3266 Y0.2037
G01 X-5.3426 Y0.2259
G01 X-5.4879 Y0.4205
G01 X-5.5083 Y0.4467
G01 X-5.7141 Y0.5193
G01 X-5.6623 Y0.5235
G01 X-5.6305 Y0.5271
G01 X-5.5828 Y0.5344
G01 X-5.5456 Y0.5416
G01 X-5.3012 Y0.6003
G01 X-5.2806 Y0.6060
G01 X-5.2614 Y0.6118
G01 X-5.2300 Y0.6220
G01 X-5.2082 Y0.6297
G01 X-5.2082 Y-0.2159
G01 X-5.2219 Y-0.1866
G01 X-5.2354 Y-0.1603
G01 X-5.3551 Y0.0594
G01 X-5.3652 Y0.0771
G01 X-5.3759 Y0.0949
G01 X-5.3936 Y0.1227
G01 X-5.4061 Y0.1414
G01 X-5.4243 Y0.1669
G01 X-5.4246 Y0.1673
G01 X-5.4249 Y0.1676
G01 X-5.5678 Y0.3590
G01 X-5.5893 Y0.3866
G01 X-5.6181 Y0.4203
G01 X-5.6391 Y0.4436
G01 X-5.6539 Y0.4589
G01 X-5.7141 Y0.5193
G00 Z2.0000
G00 X-7.5685 Y2.1032
G01 F25.00
G01 Z-0.0450
G01 F45.00
G01 X-7.5426 Y2.0187
G01 X-7.5362 Y2.0020
G01 X-7.5259 Y1.9773
G01 X-7.5196 Y1.9632
G01 X-7.5137 Y1.9517
G01 X-7.4044 Y1.7473
G01 X-7.3925 Y1.7275
G01 X-7.3695 Y1.6937
G01 X-7.3593 Y1.6805
G01 X-7.2139 Y1.5035
G01 X-7.1994 Y1.4872
G01 X-7.1777 Y1.4654
G01 X-7.1674 Y1.4556
G01 X-7.1553 Y1.4451
G01 X-6.9797 Y1.3010
G01 X-6.9666 Y1.2908
G01 X-6.9327 Y1.2678
G01 X-6.9140 Y1.2564
G01 X-6.7080 Y1.1462
G01 X-6.6937 Y1.1391
G01 X-6.6813 Y1.1336
G01 X-6.6523 Y1.1216
G01 X-6.6343 Y1.1152
G01 X-6.4074 Y1.0464
G01 X-6.3889 Y1.0418
G01 X-6.3581 Y1.0356
G01 X-6.3424 Y1.0329
G01 X-6.3289 Y1.0312
G01 X-6.0967 Y1.0084
G01 X-6.0820 Y1.0073
G01 X-6.0538 Y1.0063
G01 X-5.9681 Y1.0063
G01 X-5.9409 Y1.0072
G01 X-5.7088 Y1.0255
G01 X-5.6899 Y1.0279
G01 X-5.6651 Y1.0319
G01 X-5.6532 Y1.0343
G01 X-5.4333 Y1.0870
G01 X-5.4168 Y1.0915
G01 X-5.3911 Y1.0998
G01 X-5.3705 Y1.1075
G01 X-5.1686 Y1.1911
G01 X-5.1530 Y1.1981
G01 X-5.1289 Y1.2103
G01 X-5.1085 Y1.2217
G01 X-4.9227 Y1.3356
G01 X-4.9028 Y1.3489
G01 X-4.8820 Y1.3640
G01 X-4.8687 Y1.3747
G01 X-4.6983 Y1.5202
G01 X-4.6730 Y1.5435
G01 X-4.2872 Y1.9293
G01 X-4.3737 Y1.8089
G01 X-4.3820 Y1.7963
G01 X-4.3963 Y1.7730
G01 X-4.4027 Y1.7614
G01 X-4.5116 Y1.5547
G01 X-4.5193 Y1.5388
G01 X-4.5309 Y1.5122
G01 X-4.6145 Y1.2811
G01 X-4.6191 Y1.2668
G01 X-4.6265 Y1.2408
G01 X-4.6304 Y1.2245
G01 X-4.6787 Y0.9953
G01 X-4.6813 Y0.9811
G01 X-4.6844 Y0.9592
G01 X-4.6865 Y0.9394
G01 X-4.7029 Y0.7020
G01 X-4.7040 Y0.6726
G01 X-4.7040 Y-2.9844
G01 X-4.7027 Y-3.0181
G01 X-4.6842 Y-3.2470
G01 X-4.6823 Y-3.2644
G01 X-4.6781 Y-3.2911
G01 X-4.6730 Y-3.3158
G01 X-4.6184 Y-3.5374
G01 X-4.6146 Y-3.5506
G01 X-4.6065 Y-3.5750
G01 X-4.5998 Y-3.5933
G01 X-4.5097 Y-3.8052
G01 X-4.5023 Y-3.8210
G01 X-4.4905 Y-3.8438
G01 X-4.4779 Y-3.8656
G01 X-4.3591 Y-4.0538
G01 X-4.3513 Y-4.0655
G01 X-4.3294 Y-4.0950
G01 X-4.3169 Y-4.1100
G01 X-4.1677 Y-4.2787
G01 X-4.1540 Y-4.2930
G01 X-4.1296 Y-4.3163
G01 X-4.1189 Y-4.3255
G01 X-3.9329 Y-4.4774
G01 X-3.9151 Y-4.4905
G01 X-3.7335 Y-4.6163
G01 X-7.8413 Y-4.6163
G01 X-7.8736 Y-4.6176
G01 X-8.1418 Y-4.6387
G01 X-8.1601 Y-4.6407
G01 X-8.1903 Y-4.6455
G01 X-8.2090 Y-4.6494
G01 X-8.4701 Y-4.7121
G01 X-8.4830 Y-4.7158
G01 X-8.5075 Y-4.7236
G01 X-8.5300 Y-4.7320
G01 X-8.7747 Y-4.8334
G01 X-8.7903 Y-4.8404
G01 X-8.8126 Y-4.8517
G01 X-8.8341 Y-4.8638
G01 X-9.0663 Y-5.0063
G01 X-9.0961 Y-5.0275
G01 X-9.1123 Y-5.0403
G01 X-9.3179 Y-5.2158
G01 X-9.3376 Y-5.2338
G01 X-9.7079 Y-5.6040
G01 X-9.7297 Y-5.6281
G01 X-9.7763 Y-5.6847
G01 X-9.7763 Y-5.4016
G01 X-6.4544 Y-3.2772
G01 X-6.4294 Y-3.2598
G01 X-6.2337 Y-3.1140
G01 X-6.2167 Y-3.1003
G01 X-6.1981 Y-3.0842
G01 X-6.1868 Y-3.0735
G01 X-6.0162 Y-2.9035
G01 X-6.0013 Y-2.8875
G01 X-5.9863 Y-2.8703
G01 X-5.9766 Y-2.8581
G01 X-5.8317 Y-2.6651
G01 X-5.8223 Y-2.6519
G01 X-5.8092 Y-2.6318
G01 X-5.7981 Y-2.6130
G01 X-5.6824 Y-2.4018
G01 X-5.6753 Y-2.3879
G01 X-5.6650 Y-2.3656
G01 X-5.6566 Y-2.3454
G01 X-5.5725 Y-2.1204
G01 X-5.5671 Y-2.1045
G01 X-5.5599 Y-2.0803
G01 X-5.5551 Y-2.0609
G01 X-5.5036 Y-1.8250
G01 X-5.5003 Y-1.8065
G01 X-5.4959 Y-1.7747
G01 X-5.4770 Y-1.5102
G01 X-5.4765 Y-1.4901
G01 X-5.4765 Y-1.3049
G01 X-5.4776 Y-1.2737
G01 X-5.4950 Y-1.0306
G01 X-5.4973 Y-1.0090
G01 X-5.5006 Y-0.9865
G01 X-5.5034 Y-0.9712
G01 X-5.5550 Y-0.7339
G01 X-5.5586 Y-0.7194
G01 X-5.5649 Y-0.6976
G01 X-5.5718 Y-0.6770
G01 X-5.6561 Y-0.4505
G01 X-5.6617 Y-0.4367
G01 X-5.6738 Y-0.4103
G01 X-5.6811 Y-0.3960
G01 X-5.7978 Y-0.1820
G01 X-5.8040 Y-0.1715
G01 X-5.8166 Y-0.1518
G01 X-5.8290 Y-0.1339
G01 X-5.9729 Y0.0587
G01 X-5.9825 Y0.0709
G01 X-5.9974 Y0.0881
G01 X-6.0122 Y0.1040
G01 X-6.1843 Y0.2766
G01 X-6.2070 Y0.2979
G01 X-7.5750 Y1.4867
G01 X-7.5685 Y2.1032
G00 Z2.0000
G00 X-7.6864 Y6.2224
G01 F25.00
G01 Z-0.0450
G01 F45.00
G01 X-7.6540 Y6.1900
G01 X-7.6540 Y6.1576
G01 X-7.6586 Y6.1685
G01 X-7.6648 Y6.1815
G01 X-7.6864 Y6.2224
G01 X-8.4989 Y7.0063
G01 X-8.4702 Y7.0063
G01 X-8.4407 Y6.9768
G01 X-8.4777 Y6.9965
G01 X-8.4989 Y7.0063
G01 X-10.6574 Y6.9674
G01 X-10.6389 Y7.0889
G01 X-10.5316 Y7.0315
G01 X-10.5708 Y7.0151
G01 X-10.6047 Y6.9982
G01 X-10.6255 Y6.9869
G01 X-10.6574 Y6.9674
G01 X-10.7898 Y6.7680
G01 X-10.7140 Y7.2657
G01 X-10.6592 Y7.2211
G01 X-10.6462 Y7.2118
G01 X-10.6159 Y7.1917
G01 X-10.5980 Y7.1814
G01 X-10.4630 Y7.1094
G01 X-10.4490 Y7.1029
G01 X-10.4217 Y7.0916
G01 X-10.4012 Y7.0839
G01 X-10.2476 Y7.0373
G01 X-10.2732 Y7.0289
G01 X-10.2891 Y7.0228
G01 X-10.2897 Y7.0226
G01 X-10.5192 Y6.9275
G01 X-10.5392 Y6.9184
G01 X-10.5638 Y6.9058
G01 X-10.5787 Y6.8974
G01 X-10.7898 Y6.7680
G01 X-10.9289 Y6.5242
G01 X-10.7847 Y7.4714
G01 X-10.7549 Y7.4356
G01 X-10.7313 Y7.4117
G01 X-10.7208 Y7.4019
G01 X-10.6003 Y7.3030
G01 X-10.5919 Y7.2968
G01 X-10.5684 Y7.2811
G01 X-10.5561 Y7.2735
G01 X-10.4209 Y7.2011
G01 X-10.4093 Y7.1956
G01 X-10.3794 Y7.1833
G01 X-10.3635 Y7.1777
G01 X-10.2229 Y7.1351
G01 X-10.2076 Y7.1314
G01 X-10.1735 Y7.1248
G01 X-10.1619 Y7.1233
G01 X-10.0124 Y7.1086
G01 X-9.9818 Y7.1071
G01 X-8.4284 Y7.1071
G01 X-7.5531 Y6.2318
G01 X-7.5531 Y2.6052
G01 X-7.5515 Y2.5734
G01 X-7.5276 Y2.3327
G01 X-7.5207 Y2.2961
G01 X-7.5169 Y2.2809
G01 X-7.4501 Y2.0603
G01 X-7.4445 Y2.0443
G01 X-7.4322 Y2.0145
G01 X-7.4254 Y2.0003
G01 X-7.3180 Y1.7994
G01 X-7.3072 Y1.7815
G01 X-7.2915 Y1.7580
G01 X-7.2838 Y1.7476
G01 X-7.1376 Y1.5694
G01 X-7.1263 Y1.5568
G01 X-7.1063 Y1.5367
G01 X-7.0909 Y1.5227
G01 X-6.9148 Y1.3782
G01 X-6.9022 Y1.3688
G01 X-6.8710 Y1.3481
G01 X-6.8608 Y1.3423
G01 X-6.6610 Y1.2355
G01 X-6.6421 Y1.2265
G01 X-6.6160 Y1.2157
G01 X-6.6038 Y1.2114
G01 X-6.3832 Y1.1444
G01 X-6.3629 Y1.1393
G01 X-6.3352 Y1.1339
G01 X-6.3224 Y1.1320
G01 X-6.0868 Y1.1087
G01 X-6.0603 Y1.1072
G01 X-5.9691 Y1.1071
G01 X-5.9469 Y1.1079
G01 X-5.7209 Y1.1257
G01 X-5.7056 Y1.1275
G01 X-5.6742 Y1.1329
G01 X-5.4575 Y1.1849
G01 X-5.4467 Y1.1878
G01 X-5.4229 Y1.1955
G01 X-5.4085 Y1.2009
G01 X-5.2066 Y1.2845
G01 X-5.1926 Y1.2910
G01 X-5.1643 Y1.3059
G01 X-4.9743 Y1.4222
G01 X-4.9650 Y1.4284
G01 X-4.9458 Y1.4423
G01 X-4.9327 Y1.4526
G01 X-4.7638 Y1.5969
G01 X-4.7480 Y1.6112
G01 X-2.2923 Y4.0669
G01 X1.1118 Y4.0669
G01 X3.6969 Y1.4818
G01 X3.6970 Y-0.3268
G01 X3.6985 Y-0.3534
G01 X3.7131 Y-0.5017
G01 X3.7161 Y-0.5223
G01 X3.7217 Y-0.5501
G01 X3.7249 Y-0.5626
G01 X3.7675 Y-0.7032
G01 X3.7730 Y-0.7192
G01 X3.7854 Y-0.7490
G01 X3.7909 Y-0.7607
G01 X3.8601 Y-0.8902
G01 X3.8686 Y-0.9048
G01 X3.8866 Y-0.9317
G01 X3.8943 Y-0.9420
G01 X3.9874 Y-1.0556
G01 X4.0015 Y-1.0711
G01 X4.0215 Y-1.0911
G01 X4.0332 Y-1.1015
G01 X4.1477 Y-1.1955
G01 X4.1581 Y-1.2032
G01 X4.1849 Y-1.2211
G01 X4.1995 Y-1.2297
G01 X4.3255 Y-1.2970
G01 X4.3444 Y-1.3060
G01 X4.3706 Y-1.3167
G01 X4.3827 Y-1.3211
G01 X4.5322 Y-1.3663
G01 X4.5686 Y-1.3738
G01 X4.5841 Y-1.3762
G01 X4.7353 Y-1.3911
G01 X4.7643 Y-1.3924
G01 X4.8092 Y-1.3924
G01 X4.8318 Y-1.3913
G01 X4.9854 Y-1.3762
G01 X4.9982 Y-1.3743
G01 X5.0259 Y-1.3689
G01 X5.0450 Y-1.3641
G01 X5.1830 Y-1.3223
G01 X5.2026 Y-1.3153
G01 X5.2288 Y-1.3044
G01 X5.2404 Y-1.2989
G01 X5.3700 Y-1.2297
G01 X5.3846 Y-1.2211
G01 X5.4114 Y-1.2032
G01 X5.4218 Y-1.1955
G01 X5.5354 Y-1.1023
G01 X5.5480 Y-1.0911
G01 X5.5680 Y-1.0711
G01 X5.5821 Y-1.0556
G01 X5.6767 Y-0.9401
G01 X5.6829 Y-0.9317
G01 X5.6987 Y-0.9082
G01 X5.7063 Y-0.8959
G01 X5.7786 Y-0.7607
G01 X5.7841 Y-0.7490
G01 X5.7950 Y-0.7229
G01 X5.8020 Y-0.7032
G01 X5.8435 Y-0.5664
G01 X5.8473 Y-0.5525
G01 X5.8541 Y-0.5184
G01 X5.8563 Y-0.5029
G01 X5.8711 Y-0.3521
G01 X5.8726 Y-0.3216
G01 X5.8726 Y2.5695
G01 X5.8716 Y2.5960
G01 X5.8506 Y2.8630
G01 X5.8492 Y2.8754
G01 X5.8449 Y2.9030
G01 X5.8423 Y2.9152
G01 X5.7809 Y3.1709
G01 X5.7764 Y3.1870
G01 X5.7690 Y3.2095
G01 X5.7651 Y3.2199
G01 X5.6635 Y3.4653
G01 X5.6589 Y3.4754
G01 X5.6481 Y3.4966
G01 X5.6400 Y3.5112
G01 X5.5019 Y3.7365
G01 X5.4933 Y3.7492
G01 X5.4743 Y3.7748
G01 X5.2976 Y3.9818
G01 X5.2803 Y4.0005
G01 X3.3726 Y5.9082
G01 X3.3726 Y8.2116
G01 X3.3711 Y8.2421
G01 X3.3553 Y8.4008
G01 X3.3484 Y8.4374
G01 X3.3447 Y8.4526
G01 X3.3020 Y8.5932
G01 X3.2965 Y8.6092
G01 X3.2841 Y8.6390
G01 X3.2786 Y8.6507
G01 X3.2094 Y8.7802
G01 X3.2008 Y8.7948
G01 X3.1829 Y8.8217
G01 X3.1752 Y8.8320
G01 X3.0821 Y8.9456
G01 X3.0708 Y8.9583
G01 X3.0480 Y8.9811
G01 X3.0384 Y8.9898
G01 X2.9198 Y9.0870
G01 X2.9114 Y9.0932
G01 X2.8879 Y9.1089
G01 X2.8735 Y9.1177
G01 X2.7440 Y9.1870
G01 X2.7251 Y9.1960
G01 X2.6989 Y9.2067
G01 X2.6868 Y9.2111
G01 X2.5462 Y9.2538
G01 X2.5298 Y9.2580
G01 X2.4957 Y9.2648
G01 X2.4814 Y9.2667
G01 X2.3331 Y9.2813
G01 X2.3227 Y9.2820
G01 X2.3001 Y9.2829
G01 X2.0129 Y9.2828
G01 X1.9864 Y9.2813
G01 X1.8289 Y9.2656
G01 X1.7924 Y9.2586
G01 X1.7771 Y9.2549
G01 X1.6365 Y9.2123
G01 X1.6206 Y9.2067
G01 X1.5907 Y9.1944
G01 X1.5791 Y9.1889
G01 X1.4495 Y9.1197
G01 X1.4349 Y9.1111
G01 X1.4081 Y9.0932
G01 X1.3977 Y9.0855
G01 X1.2841 Y8.9923
G01 X1.2715 Y8.9811
G01 X1.2487 Y8.9582
G01 X1.2400 Y8.9487
G01 X1.1468 Y8.8352
G01 X1.1380 Y8.8237
G01 X1.1201 Y8.7971
G01 X1.1120 Y8.7837
G01 X1.0421 Y8.6531
G01 X1.0338 Y8.6353
G01 X1.0230 Y8.6092
G01 X1.0186 Y8.5970
G01 X0.9749 Y8.4526
G01 X0.9717 Y8.4401
G01 X0.9661 Y8.4123
G01 X0.9631 Y8.3917
G01 X0.9479 Y8.2369
G01 X0.9469 Y8.2104
G01 X0.9469 Y6.1582
G01 X0.5716 Y5.7829
G01 X-3.2521 Y5.7829
G01 X-6.4113 Y8.9421
G01 X-6.4285 Y8.9578
G01 X-6.6321 Y9.1318
G01 X-6.6453 Y9.1421
G01 X-6.6645 Y9.1560
G01 X-6.6738 Y9.1622
G01 X-6.8991 Y9.3002
G01 X-6.9137 Y9.3084
G01 X-6.9348 Y9.3191
G01 X-6.9450 Y9.3237
G01 X-7.1891 Y9.4249
G01 X-7.2048 Y9.4306
G01 X-7.2274 Y9.4379
G01 X-7.2381 Y9.4409
G01 X-7.4951 Y9.5026
G01 X-7.5115 Y9.5058
G01 X-7.5349 Y9.5095
G01 X-7.5460 Y9.5107
G01 X-7.8143 Y9.5319
G01 X-7.8375 Y9.5329
G01 X-9.4498 Y9.5329
G01 X-7.0476 Y10.9114
G01 X-7.0517 Y10.8739
G01 X-7.0531 Y10.8433
G01 X-7.0531 Y10.1024
G01 X-7.0515 Y10.0734
G01 X-7.0287 Y9.8418
G01 X-7.0257 Y9.8212
G01 X-7.0201 Y9.7934
G01 X-7.0169 Y9.7809
G01 X-6.9481 Y9.5541
G01 X-6.9430 Y9.5406
G01 X-6.9290 Y9.5075
G01 X-6.8965 Y9.4464
G01 X-6.8909 Y9.4364
G01 X-6.8838 Y9.4256
G01 X-6.8763 Y9.4153
G01 X-6.8698 Y9.4074
G01 X-6.8164 Y9.3506
G01 X-6.8091 Y9.3435
G01 X-6.7995 Y9.3351
G01 X-6.7893 Y9.3272
G01 X-6.7788 Y9.3200
G01 X-6.6368 Y9.2330
G01 X-6.6108 Y9.2156
G01 X-6.6018 Y9.2091
G01 X-6.5772 Y9.1897
G01 X-6.3783 Y9.0198
G01 X-6.3625 Y9.0057
G01 X-6.3512 Y8.9948
G01 X-6.1109 Y8.7545
G01 X-6.1012 Y8.7455
G01 X-6.0890 Y8.7356
G01 X-6.0741 Y8.7253
G01 X-6.0156 Y8.6903
G01 X-6.0017 Y8.6830
G01 X-5.9850 Y8.6758
G01 X-5.9713 Y8.6712
G01 X-5.8770 Y8.6426
G01 X-5.8641 Y8.6396
G01 X-5.8379 Y8.6344
G01 X-5.8184 Y8.6315
G01 X-5.5868 Y8.6087
G01 X-5.5551 Y8.6071
G01 X-2.8767 Y8.6071
G01 X-2.8541 Y8.6080
G01 X-2.8437 Y8.6087
G01 X-2.6121 Y8.6315
G01 X-2.5978 Y8.6334
G01 X-2.5637 Y8.6402
G01 X-2.5485 Y8.6441
G01 X-2.3305 Y8.7102
G01 X-2.3120 Y8.7168
G01 X-2.2847 Y8.7281
G01 X-2.2706 Y8.7349
G01 X-2.0697 Y8.8423
G01 X-2.0518 Y8.8530
G01 X-2.0283 Y8.8688
G01 X-2.0157 Y8.8782
G01 X-1.8302 Y9.0304
G01 X-1.8214 Y9.0381
G01 X-1.5021 Y9.3571
G01 X1.9265 Y9.3571
G01 X1.9531 Y9.3582
G01 X1.9955 Y9.3618
G01 X2.0220 Y9.3626
G01 X2.2975 Y9.3626
G01 X2.3240 Y9.3618
G01 X2.3664 Y9.3582
G01 X2.3930 Y9.3571
G01 X4.6765 Y9.3571
G01 X4.7031 Y9.3582
G01 X4.7260 Y9.3603
G01 X4.7524 Y9.3621
G01 X4.7720 Y9.3626
G01 X4.7975 Y9.3626
G01 X4.8240 Y9.3618
G01 X4.8664 Y9.3582
G01 X4.8930 Y9.3571
G01 X8.0716 Y9.3571
G01 X9.9466 Y7.4821
G01 X9.9466 Y-1.9741
G01 X8.5752 Y-3.2671
G01 X8.0726 Y-3.2671
G01 X7.7041 Y-3.0287
G01 X7.6849 Y-3.0171
G01 X7.6738 Y-3.0111
G01 X7.6642 Y-3.0065
G01 X7.6517 Y-3.0014
G01 X7.6416 Y-2.9979
G01 X7.6301 Y-2.9946
G01 X7.5704 Y-2.9793
G01 X7.5559 Y-2.9761
G01 X7.5375 Y-2.9736
G01 X7.5174 Y-2.9726
G01 X6.2452 Y-2.9726
G01 X6.2216 Y-2.9696
G01 X6.1920 Y-2.9677
G01 X6.1003 Y-2.9676
G01 X6.0380 Y-2.9216
G01 X6.0281 Y-2.9154
G01 X5.9910 Y-2.8931
G01 X8.4074 Y-2.8931
G01 X8.4748 Y-2.8898
G01 X8.4864 Y-2.8884
G01 X8.5350 Y-2.8812
G01 X8.5542 Y-2.8774
G01 X8.6120 Y-2.8628
G01 X8.6231 Y-2.8592
G01 X8.6693 Y-2.8426
G01 X8.6802 Y-2.8384
G01 X8.7341 Y-2.8131
G01 X8.7514 Y-2.8038
G01 X8.8013 Y-2.7736
G01 X8.8109 Y-2.7669
G01 X8.8503 Y-2.7377
G01 X8.8635 Y-2.7271
G01 X8.9058 Y-2.6888
G01 X9.6668 Y-1.9278
G01 X9.7102 Y-1.8797
G01 X9.7174 Y-1.8706
G01 X9.7467 Y-1.8311
G01 X9.7577 Y-1.8148
G01 X9.7835 Y-1.7716
G01 X9.7893 Y-1.7615
G01 X9.8144 Y-1.7088
G01 X9.8191 Y-1.6981
G01 X9.8393 Y-1.6421
G01 X9.8450 Y-1.6233
G01 X9.8569 Y-1.5757
G01 X9.8594 Y-1.5643
G01 X9.8682 Y-1.5066
G01 X9.8702 Y-1.4871
G01 X9.8729 Y-1.4304
G01 X9.8729 Y2.5700
G01 X9.8721 Y2.5905
G01 X9.8721 Y3.5759
G01 X9.8711 Y3.6023
G01 X9.8506 Y3.8630
G01 X9.8492 Y3.8754
G01 X9.8456 Y3.8988
G01 X9.8423 Y3.9152
G01 X9.7806 Y4.1721
G01 X9.7768 Y4.1857
G01 X9.7671 Y4.2147
G01 X9.6635 Y4.4653
G01 X9.6589 Y4.4754
G01 X9.6475 Y4.4978
G01 X9.6400 Y4.5112
G01 X9.5019 Y4.7365
G01 X9.4933 Y4.7492
G01 X9.4743 Y4.7748
G01 X9.2976 Y4.9818
G01 X9.2796 Y5.0012
G01 X8.7520 Y5.5288
G01 X8.7363 Y5.5431
G01 X8.5673 Y5.6874
G01 X8.5576 Y5.6952
G01 X8.5350 Y5.7116
G01 X8.5257 Y5.7177
G01 X8.3393 Y5.8320
G01 X8.3247 Y5.8401
G01 X8.3036 Y5.8509
G01 X8.2934 Y5.8555
G01 X8.0903 Y5.9396
G01 X8.0798 Y5.9435
G01 X8.0573 Y5.9509
G01 X8.0412 Y5.9554
G01 X7.8258 Y6.0071
G01 X7.7944 Y6.0125
G01 X7.7791 Y6.0143
G01 X7.5416 Y6.0328
G01 X6.9979 Y6.0329
G01 X5.8726 Y7.1582
G01 X5.8726 Y8.2143
G01 X5.8711 Y8.2421
G01 X5.8560 Y8.3957
G01 X5.8536 Y8.4111
G01 X5.8466 Y8.4452
G01 X5.8435 Y8.4564
G01 X5.8008 Y8.5970
G01 X5.7965 Y8.6092
G01 X5.7841 Y8.6390
G01 X5.7768 Y8.6542
G01 X5.7075 Y8.7837
G01 X5.7008 Y8.7948
G01 X5.6852 Y8.8184
G01 X5.6735 Y8.8342
G01 X5.5821 Y8.9456
G01 X5.5680 Y8.9611
G01 X5.5480 Y8.9811
G01 X5.5384 Y8.9898
G01 X5.4249 Y9.0830
G01 X5.4114 Y9.0932
G01 X5.3846 Y9.1111
G01 X5.3700 Y9.1197
G01 X5.2404 Y9.1889
G01 X5.2287 Y9.1944
G01 X5.2015 Y9.2057
G01 X5.1830 Y9.2123
G01 X5.0424 Y9.2549
G01 X5.0298 Y9.2580
G01 X5.0021 Y9.2636
G01 X4.9827 Y9.2665
G01 X4.8319 Y9.2814
G01 X4.8001 Y9.2829
G01 X4.7654 Y9.2829
G01 X4.7403 Y9.2816
G01 X4.5881 Y9.2667
G01 X4.5674 Y9.2636
G01 X4.5397 Y9.2580
G01 X4.5271 Y9.2549
G01 X4.3865 Y9.2123
G01 X4.3680 Y9.2057
G01 X4.3407 Y9.1944
G01 X4.3291 Y9.1889
G01 X4.1984 Y9.1191
G01 X4.1816 Y9.1089
G01 X4.1581 Y9.0932
G01 X4.1477 Y9.0855
G01 X4.0341 Y8.9923
G01 X4.0187 Y8.9783
G01 X3.9987 Y8.9582
G01 X3.9900 Y8.9487
G01 X3.8968 Y8.8352
G01 X3.8843 Y8.8184
G01 X3.8686 Y8.7948
G01 X3.8620 Y8.7837
G01 X3.7927 Y8.6542
G01 X3.7843 Y8.6365
G01 X3.7730 Y8.6092
G01 X3.7686 Y8.5970
G01 X3.7260 Y8.4565
G01 X3.7217 Y8.4401
G01 X3.7150 Y8.4060
G01 X3.7131 Y8.3917
G01 X3.6985 Y8.2434
G01 X3.6969 Y8.2143
G01 X3.6969 Y7.5653
G01 X3.6979 Y7.5440
G01 X3.7193 Y7.2728
G01 X3.7207 Y7.2617
G01 X3.7246 Y7.2370
G01 X3.7305 Y7.2111
G01 X3.7314 Y7.1947
G01 X3.7325 Y7.1843
G01 X3.7456 Y7.0963
G01 X3.7486 Y7.0822
G01 X3.7701 Y6.9972
G01 X3.7737 Y6.9861
G01 X3.8016 Y6.9084
G01 X3.8077 Y6.8940
G01 X3.8423 Y6.8207
G01 X3.8484 Y6.8090
G01 X3.8552 Y6.7975
G01 X3.9095 Y6.6670
G01 X3.9220 Y6.6423
G01 X3.9295 Y6.6288
G01 X4.0676 Y6.4035
G01 X4.0737 Y6.3942
G01 X4.0876 Y6.3750
G01 X4.0980 Y6.3619
G01 X4.2719 Y6.1582
G01 X4.2899 Y6.1388
G01 X8.4466 Y1.9821
G01 X8.4466 Y-1.0921
G01 X8.4018 Y-1.1370
G01 X8.3912 Y-1.1492
G01 X8.3830 Y-1.1600
G01 X8.3730 Y-1.1757
G01 X8.3654 Y-1.1899
G01 X8.3589 Y-1.2046
G01 X8.3505 Y-1.2271
G01 X8.1768 Y-1.4007
G01 X8.1543 Y-1.4092
G01 X8.1445 Y-1.4134
G01 X8.1301 Y-1.4206
G01 X8.1187 Y-1.4273
G01 X8.1054 Y-1.4364
G01 X8.0948 Y-1.4449
G01 X8.0850 Y-1.4538
G01 X8.0718 Y-1.4669
G01 X4.6585 Y-1.4669
G01 X4.5911 Y-1.4702
G01 X4.5795 Y-1.4716
G01 X4.5309 Y-1.4788
G01 X4.5116 Y-1.4826
G01 X4.4628 Y-1.4948
G01 X4.4516 Y-1.4979
G01 X4.3966 Y-1.5174
G01 X4.3857 Y-1.5216
G01 X4.3329 Y-1.5464
G01 X4.3225 Y-1.5517
G01 X4.2724 Y-1.5815
G01 X4.2625 Y-1.5877
G01 X4.2146 Y-1.6230
G01 X4.2003 Y-1.6347
G01 X4.1564 Y-1.6749
G01 X3.9935 Y-1.8377
G01 X3.9805 Y-1.8464
G01 X3.9614 Y-1.8604
G01 X3.9526 Y-1.8674
G01 X3.7480 Y-2.0422
G01 X3.7323 Y-2.0565
G01 X3.0376 Y-2.7511
G01 X3.0219 Y-2.7682
G01 X2.8471 Y-2.9729
G01 X2.8402 Y-2.9816
G01 X2.8262 Y-3.0008
G01 X2.8175 Y-3.0138
G01 X2.6510 Y-3.1804
G01 X2.6153 Y-3.2197
G01 X2.6077 Y-3.2285
G01 X2.5690 Y-3.2805
G01 X2.5612 Y-3.2926
G01 X2.5360 Y-3.3347
G01 X2.5302 Y-3.3449
G01 X2.5046 Y-3.3987
G01 X2.4976 Y-3.4157
G01 X2.4777 Y-3.4718
G01 X2.4745 Y-3.4831
G01 X2.4626 Y-3.5307
G01 X2.4591 Y-3.5472
G01 X2.4508 Y-3.6037
G01 X2.4493 Y-3.6205
G01 X2.4466 Y-3.6800
G01 X2.4466 Y-7.1800
G01 X2.4499 Y-7.2487
G01 X2.4513 Y-7.2603
G01 X2.4591 Y-7.3128
G01 X2.4623 Y-7.3281
G01 X2.4745 Y-7.3769
G01 X2.4802 Y-7.3958
G01 X2.4971 Y-7.4432
G01 X2.5014 Y-7.4540
G01 X2.5266 Y-7.5080
G01 X2.5353 Y-7.5242
G01 X2.5633 Y-7.5708
G01 X2.5721 Y-7.5837
G01 X2.6001 Y-7.6215
G01 X2.6159 Y-7.6504
G01 X2.6366 Y-7.6817
G01 X2.6468 Y-7.6952
G01 X2.7452 Y-7.8151
G01 X2.7528 Y-7.8239
G01 X2.9469 Y-8.0182
G01 X2.9469 Y-9.7451
G01 X2.9472 Y-9.7579
G01 X2.9488 Y-9.7809
G01 X2.9617 Y-9.8795
G01 X2.9637 Y-9.8905
G01 X2.9665 Y-9.9026
G01 X2.9760 Y-9.9380
G01 X2.9813 Y-9.9538
G01 X3.0180 Y-10.0420
G01 X3.0242 Y-10.0543
G01 X3.0447 Y-10.0897
G01 X3.0507 Y-10.0991
G01 X3.0580 Y-10.1092
G01 X3.1059 Y-10.1717
G01 X3.1138 Y-10.1813
G01 X3.1233 Y-10.1916
G01 X3.1472 Y-10.2155
G01 X3.1604 Y-10.2277
G01 X3.2340 Y-10.2843
G01 X3.2431 Y-10.2907
G01 X3.2537 Y-10.2973
G01 X3.2855 Y-10.3155
G01 X3.2978 Y-10.3218
G01 X3.3795 Y-10.3559
G01 X3.3912 Y-10.3603
G01 X3.4018 Y-10.3637
G01 X3.4384 Y-10.3736
G01 X3.4522 Y-10.3767
G01 X3.4645 Y-10.3787
G01 X3.5610 Y-10.3911
G01 X3.5843 Y-10.3926
G01 X3.5947 Y-10.3929
G01 X5.1446 Y-10.3927
G01 X5.1677 Y-10.3913
G01 X5.1804 Y-10.3900
G01 X5.3232 Y-10.3712
G01 X5.3342 Y-10.3694
G01 X5.3451 Y-10.3670
G01 X5.3846 Y-10.3564
G01 X5.4004 Y-10.3512
G01 X5.5350 Y-10.2955
G01 X5.5523 Y-10.2869
G01 X5.5841 Y-10.2687
G01 X5.5971 Y-10.2605
G01 X5.6072 Y-10.2532
G01 X5.7216 Y-10.1652
G01 X5.7318 Y-10.1559
G01 X5.7577 Y-10.1301
G01 X5.7699 Y-10.1168
G01 X5.8587 Y-10.0014
G01 X5.8669 Y-9.9899
G01 X5.8734 Y-9.9793
G01 X5.8917 Y-9.9476
G01 X5.8992 Y-9.9326
G01 X5.9550 Y-9.7981
G01 X5.9587 Y-9.7876
G01 X5.9623 Y-9.7757
G01 X5.9718 Y-9.7403
G01 X5.9751 Y-9.7239
G01 X5.9952 Y-9.5722
G01 X5.9972 Y-9.5456
G01 X5.9976 Y-9.5328
G01 X5.9975 Y-9.0481
G01 X5.9966 Y-9.0290
G01 X5.9756 Y-8.7620
G01 X5.9736 Y-8.7454
G01 X5.9699 Y-8.7220
G01 X5.9673 Y-8.7098
G01 X5.9059 Y-8.4541
G01 X5.9018 Y-8.4393
G01 X5.8940 Y-8.4155
G01 X5.8901 Y-8.4051
G01 X5.7873 Y-8.1570
G01 X5.7731 Y-8.1284
G01 X5.7657 Y-8.1150
G01 X5.6276 Y-7.8897
G01 X5.6191 Y-7.8768
G01 X5.6043 Y-7.8566
G01 X5.5974 Y-7.8479
G01 X5.4171 Y-7.6370
G01 X5.4046 Y-7.6238
G01 X4.1226 Y-6.3418
G01 X4.1226 Y-3.7682
G01 X4.6093 Y-3.2814
G01 X4.6196 Y-3.2696
G01 X4.6373 Y-3.2470
G01 X4.6489 Y-3.2306
G01 X4.6582 Y-3.2145
G01 X4.6826 Y-3.1657
G01 X4.9551 Y-2.8931
G01 X5.0685 Y-2.8931
G01 X5.0303 Y-2.9160
G01 X5.0193 Y-2.9232
G01 X4.9589 Y-2.9679
G01 X4.9476 Y-2.9769
G01 X4.8918 Y-3.0273
G01 X4.8834 Y-3.0354
G01 X4.8249 Y-3.0999
G01 X4.8176 Y-3.1091
G01 X4.7767 Y-3.1643
G01 X4.7685 Y-3.1762
G01 X4.7278 Y-3.2440
G01 X4.7217 Y-3.2554
G01 X4.7131 Y-3.2734
G01 X4.6935 Y-3.3045
G01 X4.6889 Y-3.3104
G01 X4.6566 Y-3.3470
G01 X4.5412 Y-3.4625
G01 X4.5311 Y-3.4739
G01 X4.5220 Y-3.4861
G01 X4.5149 Y-3.4967
G01 X4.5098 Y-3.5055
G01 X4.4757 Y-3.5679
G01 X4.4704 Y-3.5783
G01 X4.4642 Y-3.5927
G01 X4.4598 Y-3.6051
G01 X4.4562 Y-3.6175
G01 X4.4534 Y-3.6304
G01 X4.4514 Y-3.6432
G01 X4.4479 Y-3.6748
G01 X4.4471 Y-3.6862
G01 X4.4469 Y-3.6962
G01 X4.4469 Y-5.6827
G01 X4.4479 Y-5.7060
G01 X4.4690 Y-5.9743
G01 X4.4709 Y-5.9896
G01 X4.4746 Y-6.0130
G01 X4.4769 Y-6.0239
G01 X4.5386 Y-6.2809
G01 X4.5431 Y-6.2969
G01 X4.5505 Y-6.3195
G01 X4.5544 Y-6.3299
G01 X4.6560 Y-6.5753
G01 X4.6606 Y-6.5854
G01 X4.6713 Y-6.6066
G01 X4.6795 Y-6.6212
G01 X4.8176 Y-6.8465
G01 X4.8237 Y-6.8558
G01 X4.8376 Y-6.8750
G01 X4.8480 Y-6.8881
G01 X5.0219 Y-7.0918
G01 X5.0376 Y-7.1089
G01 X5.8992 Y-7.9705
G01 X5.9051 Y-8.1973
G01 X5.9065 Y-8.2156
G01 X5.9089 Y-8.2310
G01 X5.9131 Y-8.2485
G01 X5.9189 Y-8.2659
G01 X5.9617 Y-8.3695
G01 X5.9725 Y-8.3989
G01 X5.9759 Y-8.4094
G01 X5.9844 Y-8.4396
G01 X6.0439 Y-8.6872
G01 X6.0500 Y-8.7179
G01 X6.0517 Y-8.7288
G01 X6.0554 Y-8.7599
G01 X6.0759 Y-9.0207
G01 X6.0770 Y-9.0419
G01 X6.0774 Y-9.0575
G01 X6.0774 Y-9.5282
G01 X6.0765 Y-9.5543
G01 X6.0733 Y-9.5896
G01 X6.0561 Y-9.7210
G01 X6.0550 Y-9.7342
G01 X6.0548 Y-9.7477
G01 X6.0552 Y-9.7585
G01 X6.0565 Y-9.7717
G01 X6.0671 Y-9.8440
G01 X6.0708 Y-9.8626
G01 X6.0760 Y-9.8804
G01 X6.0834 Y-9.8992
G01 X6.1683 Y-10.0879
G01 X6.1753 Y-10.1018
G01 X6.1912 Y-10.1299
G01 X6.3469 Y-10.3665
G01 X6.3577 Y-10.3813
G01 X6.5138 Y-10.5820
G01 X6.5302 Y-10.6015
G01 X6.6987 Y-10.7872
G01 X6.7100 Y-10.7988
G01 X6.7267 Y-10.8145
G01 X6.7358 Y-10.8223
G01 X6.9267 Y-10.9774
G01 X6.9342 Y-10.9833
G01 X6.9458 Y-10.9915
G01 X1.9512 Y-11.1706
G01 X2.0715 Y-11.0678
G01 X2.0872 Y-11.0535
G01 X2.2796 Y-10.8612
G01 X2.2976 Y-10.8418
G01 X2.4724 Y-10.6371
G01 X2.4793 Y-10.6284
G01 X2.4933 Y-10.6092
G01 X2.5026 Y-10.5953
G01 X2.6400 Y-10.3712
G01 X2.6462 Y-10.3603
G01 X2.6589 Y-10.3354
G01 X2.6635 Y-10.3253
G01 X2.7646 Y-10.0811
G01 X2.7704 Y-10.0654
G01 X2.7777 Y-10.0429
G01 X2.7809 Y-10.0309
G01 X2.8426 Y-9.7739
G01 X2.8449 Y-9.7630
G01 X2.8486 Y-9.7396
G01 X2.8506 Y-9.7230
G01 X2.8716 Y-9.4560
G01 X2.8726 Y-9.4327
G01 X2.8726 Y-8.7896
G01 X2.8711 Y-8.7579
G01 X2.8560 Y-8.6043
G01 X2.8536 Y-8.5889
G01 X2.8473 Y-8.5575
G01 X2.8435 Y-8.5436
G01 X2.8001 Y-8.4006
G01 X2.7955 Y-8.3883
G01 X2.7852 Y-8.3635
G01 X2.7774 Y-8.3469
G01 X2.7088 Y-8.2187
G01 X2.6987 Y-8.2018
G01 X2.6829 Y-8.1783
G01 X2.6752 Y-8.1680
G01 X2.5821 Y-8.0544
G01 X2.5689 Y-8.0398
G01 X2.5500 Y-8.0208
G01 X2.5403 Y-8.0119
G01 X2.4198 Y-7.9130
G01 X2.4091 Y-7.9053
G01 X2.3869 Y-7.8904
G01 X2.3711 Y-7.8809
G01 X2.2404 Y-7.8111
G01 X2.2287 Y-7.8056
G01 X2.2026 Y-7.7947
G01 X2.1830 Y-7.7877
G01 X2.0424 Y-7.7451
G01 X2.0259 Y-7.7411
G01 X1.9982 Y-7.7357
G01 X1.9879 Y-7.7341
G01 X1.8331 Y-7.7187
G01 X1.8066 Y-7.7172
G01 X1.5154 Y-7.7171
G01 X1.4876 Y-7.7186
G01 X1.3341 Y-7.7338
G01 X1.3186 Y-7.7362
G01 X1.2846 Y-7.7431
G01 X1.2733 Y-7.7462
G01 X1.1365 Y-7.7877
G01 X1.1169 Y-7.7947
G01 X1.0907 Y-7.8056
G01 X1.0791 Y-7.8111
G01 X0.9460 Y-7.8823
G01 X0.9349 Y-7.8889
G01 X0.9114 Y-7.9046
G01 X0.8956 Y-7.9162
G01 X0.7811 Y-8.0102
G01 X0.7715 Y-8.0189
G01 X0.7515 Y-8.0389
G01 X0.7374 Y-8.0544
G01 X0.6468 Y-8.1648
G01 X0.6350 Y-8.1806
G01 X0.6186 Y-8.2052
G01 X0.6120 Y-8.2163
G01 X0.5421 Y-8.3469
G01 X0.5354 Y-8.3610
G01 X0.5245 Y-8.3871
G01 X0.5178 Y-8.4056
G01 X0.4749 Y-8.5474
G01 X0.4717 Y-8.5599
G01 X0.4661 Y-8.5877
G01 X0.4632 Y-8.6071
G01 X0.4540 Y-8.7008
G01 X0.4524 Y-8.7298
G01 X0.4524 Y-9.0677
G01 X0.4515 Y-9.0943
G01 X0.4479 Y-9.1366
G01 X0.4469 Y-9.1620
G01 X0.4469 Y-9.5918
G01 X0.0710 Y-9.9676
G01 X0.0550 Y-9.9694
G01 X0.0420 Y-9.9717
G01 X0.0288 Y-9.9749
G01 X0.0135 Y-9.9798
G01 X-0.0026 Y-9.9863
G01 X-0.1088 Y-10.0349
G01 X-0.1484 Y-10.0467
G01 X-0.1599 Y-10.0509
G01 X-0.1732 Y-10.0569
G01 X-0.3200 Y-10.0569
G01 X-0.2510 Y-10.0056
G01 X-0.2410 Y-9.9975
G01 X-0.2233 Y-9.9814
G01 X-0.2072 Y-9.9792
G01 X-0.1897 Y-9.9754
G01 X-0.1128 Y-9.9529
G01 X-0.1030 Y-9.9495
G01 X-0.0910 Y-9.9447
G01 X-0.0815 Y-9.9403
G01 X-0.0699 Y-9.9340
G01 X-0.0546 Y-9.9243
G01 X-0.0336 Y-9.9089
G01 X0.0354 Y-9.8523
G01 X0.0442 Y-9.8447
G01 X0.0689 Y-9.8202
G01 X0.0795 Y-9.8087
G01 X0.1727 Y-9.6952
G01 X0.1829 Y-9.6817
G01 X0.2009 Y-9.6548
G01 X0.2075 Y-9.6437
G01 X0.2797 Y-9.5085
G01 X0.2841 Y-9.4990
G01 X0.2950 Y-9.4729
G01 X0.3009 Y-9.4570
G01 X0.3435 Y-9.3164
G01 X0.3478 Y-9.3001
G01 X0.3541 Y-9.2684
G01 X0.3560 Y-9.2556
G01 X0.3714 Y-9.0994
G01 X0.3726 Y-9.0704
G01 X0.3726 Y-8.2682
G01 X1.0296 Y-7.6112
G01 X1.0455 Y-7.5942
G01 X1.2215 Y-7.3881
G01 X1.2319 Y-7.3750
G01 X1.2458 Y-7.3558
G01 X1.2519 Y-7.3465
G01 X1.3907 Y-7.1200
G01 X1.3962 Y-7.1103
G01 X1.4070 Y-7.0892
G01 X1.4140 Y-7.0741
G01 X1.5151 Y-6.8299
G01 X1.5204 Y-6.8154
G01 X1.5277 Y-6.7929
G01 X1.5306 Y-6.7821
G01 X1.5926 Y-6.5239
G01 X1.5949 Y-6.5130
G01 X1.5986 Y-6.4896
G01 X1.6006 Y-6.4730
G01 X1.6216 Y-6.2060
G01 X1.6225 Y-6.1869
G01 X1.6226 Y-2.7152
G01 X1.6210 Y-2.6834
G01 X1.5981 Y-2.4506
G01 X1.5959 Y-2.4351
G01 X1.5902 Y-2.4061
G01 X1.5853 Y-2.3871
G01 X1.5192 Y-2.1691
G01 X1.5140 Y-2.1543
G01 X1.5027 Y-2.1270
G01 X1.4943 Y-2.1092
G01 X1.3869 Y-1.9083
G01 X1.3789 Y-1.8948
G01 X1.3632 Y-1.8713
G01 X1.3508 Y-1.8545
G01 X1.1993 Y-1.6699
G01 X1.1917 Y-1.6611
G01 X0.8726 Y-1.3418
G01 X0.8726 Y-0.6620
G01 X0.8716 Y-0.6366
G01 X0.8680 Y-0.5943
G01 X0.8671 Y-0.5677
G01 X0.8670 Y0.5227
G01 X0.8656 Y0.5480
G01 X0.8560 Y0.6456
G01 X0.8541 Y0.6584
G01 X0.8484 Y0.6874
G01 X0.8435 Y0.7064
G01 X0.8020 Y0.8432
G01 X0.7965 Y0.8592
G01 X0.7841 Y0.8890
G01 X0.7768 Y0.9042
G01 X0.7075 Y1.0337
G01 X0.7008 Y1.0448
G01 X0.6845 Y1.0694
G01 X0.6727 Y1.0852
G01 X0.5795 Y1.1987
G01 X0.5680 Y1.2111
G01 X0.5480 Y1.2311
G01 X0.5384 Y1.2398
G01 X0.4249 Y1.3330
G01 X0.4081 Y1.3454
G01 X0.3846 Y1.3611
G01 X0.3735 Y1.3677
G01 X0.2440 Y1.4370
G01 X0.2262 Y1.4455
G01 X0.2015 Y1.4557
G01 X0.1891 Y1.4603
G01 X0.0462 Y1.5038
G01 X0.0322 Y1.5075
G01 X0.0009 Y1.5138
G01 X-0.0146 Y1.5162
G01 X-0.1123 Y1.5259
G01 X-0.1428 Y1.5274
G01 X-0.5404 Y1.5274
G01 X-0.5682 Y1.5259
G01 X-0.6684 Y1.5159
G01 X-0.6787 Y1.5143
G01 X-0.7064 Y1.5089
G01 X-0.7229 Y1.5049
G01 X-0.8635 Y1.4623
G01 X-0.8771 Y1.4576
G01 X-0.9067 Y1.4455
G01 X-0.9209 Y1.4389
G01 X-1.0516 Y1.3691
G01 X-1.0674 Y1.3596
G01 X-1.0896 Y1.3447
G01 X-1.1003 Y1.3370
G01 X-1.2159 Y1.2423
G01 X-1.2285 Y1.2311
G01 X-1.2513 Y1.2082
G01 X-1.2600 Y1.1987
G01 X-1.3532 Y1.0852
G01 X-1.3657 Y1.0684
G01 X-1.3814 Y1.0448
G01 X-1.3880 Y1.0337
G01 X-1.4573 Y0.9042
G01 X-1.4646 Y0.8890
G01 X-1.4760 Y0.8617
G01 X-1.4825 Y0.8432
G01 X-1.5251 Y0.7026
G01 X-1.5291 Y0.6862
G01 X-1.5346 Y0.6584
G01 X-1.5362 Y0.6481
G01 X-1.5516 Y0.4921
G01 X-1.5531 Y0.4616
G01 X-1.5531 Y-0.8936
G01 X-1.5523 Y-0.9162
G01 X-1.5515 Y-0.9266
G01 X-1.5287 Y-1.1582
G01 X-1.5264 Y-1.1749
G01 X-1.5201 Y-1.2066
G01 X-1.5162 Y-1.2217
G01 X-1.4501 Y-1.4397
G01 X-1.4435 Y-1.4583
G01 X-1.4322 Y-1.4855
G01 X-1.4254 Y-1.4997
G01 X-1.3180 Y-1.7006
G01 X-1.3072 Y-1.7185
G01 X-1.2915 Y-1.7420
G01 X-1.2821 Y-1.7545
G01 X-1.1298 Y-1.9401
G01 X-1.1222 Y-1.9489
G01 X-0.8031 Y-2.2682
G01 X-0.8031 Y-3.2925
G01 X-0.8023 Y-3.3157
G01 X-0.7982 Y-3.3729
G01 X-0.7976 Y-3.3941
G01 X-0.7976 Y-3.8177
G01 X-0.7985 Y-3.8443
G01 X-0.8021 Y-3.8866
G01 X-0.8031 Y-3.9132
G01 X-0.8031 Y-6.0993
G01 X-0.8027 Y-6.1137
G01 X-0.7999 Y-6.1427
G01 X-0.7981 Y-6.1691
G01 X-0.7976 Y-6.1887
G01 X-0.7976 Y-6.3177
G01 X-0.7985 Y-6.3443
G01 X-0.7999 Y-6.3638
G01 X-0.8025 Y-6.3902
G01 X-0.8031 Y-6.4031
G01 X-0.8031 Y-6.5918
G01 X-0.8151 Y-6.6044
G01 X-0.8264 Y-6.6186
G01 X-0.8366 Y-6.6339
G01 X-0.8454 Y-6.6498
G01 X-0.8509 Y-6.6618
G01 X-0.8555 Y-6.6739
G01 X-0.8702 Y-6.7213
G01 X-0.8834 Y-6.7582
G01 X-0.8887 Y-6.7710
G01 X-0.9054 Y-6.8064
G01 X-0.9678 Y-6.9232
G01 X-0.9880 Y-6.9568
G01 X-0.9957 Y-6.9683
G01 X-1.0190 Y-6.9997
G01 X-1.1085 Y-7.1089
G01 X-1.1260 Y-7.1289
G01 X-1.1395 Y-7.1431
G01 X-1.6272 Y-7.6307
G01 X-1.6414 Y-7.6442
G01 X-1.6613 Y-7.6617
G01 X-1.7705 Y-7.7513
G01 X-1.7890 Y-7.7652
G01 X-1.7969 Y-7.7720
G01 X-1.8045 Y-7.7792
G01 X-1.8134 Y-7.7885
G01 X-1.8202 Y-7.7965
G01 X-1.8634 Y-7.8517
G01 X-1.8703 Y-7.8611
G01 X-1.8761 Y-7.8699
G01 X-1.8814 Y-7.8789
G01 X-1.8863 Y-7.8881
G01 X-1.8918 Y-7.9001
G01 X-1.9467 Y-8.0328
G01 X-1.9505 Y-8.0433
G01 X-1.9582 Y-8.0671
G01 X-1.9614 Y-8.0791
G01 X-2.0231 Y-8.3361
G01 X-2.0259 Y-8.3499
G01 X-2.0304 Y-8.3802
G01 X-2.0521 Y-8.6540
G01 X-2.0530 Y-8.6731
G01 X-2.0531 Y-9.0704
G01 X-2.0529 Y-9.0808
G01 X-2.0515 Y-9.1034
G01 X-2.0369 Y-9.2517
G01 X-2.0341 Y-9.2711
G01 X-2.0283 Y-9.3001
G01 X-2.0251 Y-9.3126
G01 X-1.9825 Y-9.4532
G01 X-1.9760 Y-9.4717
G01 X-1.9657 Y-9.4965
G01 X-1.9602 Y-9.5085
G01 X-1.8854 Y-9.6483
G01 X-1.8792 Y-9.6582
G01 X-1.8620 Y-9.6837
G01 X-1.8557 Y-9.6920
G01 X-1.8394 Y-9.7121
G01 X-1.8090 Y-9.7627
G01 X-1.8018 Y-9.7738
G01 X-1.7459 Y-9.8492
G01 X-1.7359 Y-9.8613
G01 X-1.6790 Y-9.9240
G01 X-1.6652 Y-9.9379
G01 X-1.5955 Y-10.0008
G01 X-1.5863 Y-10.0081
G01 X-1.5205 Y-10.0569
G01 X-1.6513 Y-10.0569
G01 X-1.6543 Y-10.0548
G01 X-1.6805 Y-10.0286
G01 X-1.6902 Y-10.0196
G01 X-1.7023 Y-10.0097
G01 X-1.7173 Y-9.9995
G01 X-1.7333 Y-9.9904
G01 X-1.7427 Y-9.9859
G01 X-1.7524 Y-9.9818
G01 X-1.7695 Y-9.9759
G01 X-1.7796 Y-9.9732
G01 X-1.7898 Y-9.9710
G01 X-1.8080 Y-9.9683
G01 X-1.8262 Y-9.9671
G01 X-2.0021 Y-9.9671
G01 X-3.6628 Y-8.3065
G01 X-3.6777 Y-8.2928
G01 X-3.7405 Y-8.2395
G01 X-3.7570 Y-8.2277
G01 X-3.7656 Y-8.2225
G01 X-3.7753 Y-8.2172
G01 X-3.7826 Y-8.2083
G01 X-3.7895 Y-8.2007
G01 X-3.8139 Y-8.1767
G01 X-3.8821 Y-8.1182
G01 X-3.8942 Y-8.1086
G01 X-3.9213 Y-8.0894
G01 X-4.0343 Y-8.0202
G01 X-4.0436 Y-8.0150
G01 X-4.0532 Y-8.0103
G01 X-4.0629 Y-8.0061
G01 X-4.0729 Y-8.0024
G01 X-4.0843 Y-7.9989
G01 X-4.1490 Y-7.9806
G01 X-4.1606 Y-7.9777
G01 X-4.1738 Y-7.9752
G01 X-4.1843 Y-7.9738
G01 X-4.1949 Y-7.9729
G01 X-4.2056 Y-7.9726
G01 X-8.8683 Y-7.9726
G01 X-8.9109 Y-7.9703
G01 X-8.9259 Y-7.9687
G01 X-8.9530 Y-7.9643
G01 X-9.0539 Y-7.9267
G01 X-9.0885 Y-7.9078
G01 X-9.1498 Y-7.8619
G01 X-9.8541 Y-7.1576
G01 X-9.8771 Y-7.1084
G01 X-9.8771 Y-6.8708
G01 X-9.8602 Y-6.9385
G01 X-9.8570 Y-6.9497
G01 X-9.8256 Y-7.0382
G01 X-9.8180 Y-7.0563
G01 X-9.7823 Y-7.1317
G01 X-9.7770 Y-7.1421
G01 X-9.7290 Y-7.2227
G01 X-9.7180 Y-7.2391
G01 X-9.6683 Y-7.3061
G01 X-9.6611 Y-7.3152
G01 X-9.5946 Y-7.3887
G01 X-9.5843 Y-7.3988
G01 X-9.5155 Y-7.4608
G01 X-9.5063 Y-7.4681
G01 X-9.4361 Y-7.5201
G01 X-9.4219 Y-7.5294
G01 X-9.3469 Y-7.5743
G01 X-9.3355 Y-7.5803
G01 X-9.3175 Y-7.5889
G01 X-9.1113 Y-7.7951
G01 X-9.1002 Y-7.8054
G01 X-9.0861 Y-7.8164
G01 X-9.0757 Y-7.8234
G01 X-9.0671 Y-7.8286
G01 X-9.0024 Y-7.8640
G01 X-8.9895 Y-7.8705
G01 X-8.9776 Y-7.8756
G01 X-8.9601 Y-7.8815
G01 X-8.9425 Y-7.8858
G01 X-8.9270 Y-7.8884
G01 X-8.8954 Y-7.8918
G01 X-8.8840 Y-7.8927
G01 X-8.8740 Y-7.8929
G01 X-2.4499 Y-7.8929
G01 X-2.4181 Y-7.8914
G01 X-2.2646 Y-7.8762
G01 X-2.2518 Y-7.8743
G01 X-2.2241 Y-7.8689
G01 X-2.2076 Y-7.8649
G01 X-2.0670 Y-7.8223
G01 X-2.0474 Y-7.8153
G01 X-2.0212 Y-7.8044
G01 X-2.0096 Y-7.7989
G01 X-1.8789 Y-7.7291
G01 X-1.8621 Y-7.7189
G01 X-1.8386 Y-7.7032
G01 X-1.8282 Y-7.6955
G01 X-1.7089 Y-7.5976
G01 X-1.6854 Y-7.5762
G01 X-1.1912 Y-7.0820
G01 X-1.1726 Y-7.0613
G01 X-1.0765 Y-6.9442
G01 X-1.0655 Y-6.9294
G01 X-1.0506 Y-6.9071
G01 X-1.0437 Y-6.8959
G01 X-0.9732 Y-6.7642
G01 X-0.9669 Y-6.7513
G01 X-0.9545 Y-6.7217
G01 X-0.9491 Y-6.7070
G01 X-0.9040 Y-6.5576
G01 X-0.8964 Y-6.5211
G01 X-0.8940 Y-6.5056
G01 X-0.8784 Y-6.3469
G01 X-0.8774 Y-6.3204
G01 X-0.8774 Y-6.1849
G01 X-0.8784 Y-6.1595
G01 X-0.9004 Y-5.9358
G01 X-0.9034 Y-5.9151
G01 X-0.9090 Y-5.8874
G01 X-0.9121 Y-5.8748
G01 X-0.9749 Y-5.6679
G01 X-0.9819 Y-5.6483
G01 X-0.9928 Y-5.6222
G01 X-0.9983 Y-5.6105
G01 X-1.1002 Y-5.4198
G01 X-1.1074 Y-5.4073
G01 X-1.1251 Y-5.3806
G01 X-1.1344 Y-5.3680
G01 X-1.2762 Y-5.1951
G01 X-1.2976 Y-5.1716
G01 X-1.3133 Y-5.1560
G01 X-1.3300 Y-5.1408
G01 X-1.4722 Y-5.0239
G01 X-1.4824 Y-5.0161
G01 X-1.4928 Y-5.0091
G01 X-1.5038 Y-5.0026
G01 X-1.5174 Y-4.9958
G01 X-1.5886 Y-4.9655
G01 X-1.5983 Y-4.9617
G01 X-1.6082 Y-4.9584
G01 X-1.6183 Y-4.9556
G01 X-1.6285 Y-4.9532
G01 X-1.6439 Y-4.9507
G01 X-1.6623 Y-4.9492
G01 X-1.6740 Y-4.9490
G01 X-1.7164 Y-4.9499
G01 X-1.7302 Y-4.9512
G01 X-1.7659 Y-4.9565
G01 X-1.9065 Y-4.9703
G01 X-1.9260 Y-4.9718
G01 X-1.9525 Y-4.9726
G01 X-2.5213 Y-4.9726
G01 X-2.5417 Y-4.9721
G01 X-2.5568 Y-4.9713
G01 X-2.8082 Y-4.9522
G01 X-2.8382 Y-4.9488
G01 X-2.8487 Y-4.9472
G01 X-2.8784 Y-4.9415
G01 X-3.1174 Y-4.8862
G01 X-3.1466 Y-4.8783
G01 X-3.1568 Y-4.8751
G01 X-3.1853 Y-4.8651
G01 X-3.4133 Y-4.7744
G01 X-3.4409 Y-4.7622
G01 X-3.4643 Y-4.7507
G01 X-3.4812 Y-4.7439
G01 X-3.4988 Y-4.7385
G01 X-3.5649 Y-4.7220
G01 X-3.5831 Y-4.7189
G01 X-3.6012 Y-4.7173
G01 X-7.8449 Y-4.7172
G01 X-7.8662 Y-4.7181
G01 X-8.1332 Y-4.7392
G01 X-8.1456 Y-4.7405
G01 X-8.1690 Y-4.7442
G01 X-8.1854 Y-4.7474
G01 X-8.4411 Y-4.8088
G01 X-8.4531 Y-4.8121
G01 X-8.4769 Y-4.8198
G01 X-8.4914 Y-4.8251
G01 X-8.7343 Y-4.9258
G01 X-8.7457 Y-4.9309
G01 X-8.7680 Y-4.9422
G01 X-8.7814 Y-4.9498
G01 X-9.0067 Y-5.0878
G01 X-9.0195 Y-5.0964
G01 X-9.0386 Y-5.1104
G01 X-9.0474 Y-5.1174
G01 X-9.2520 Y-5.2922
G01 X-9.2707 Y-5.3094
G01 X-9.6357 Y-5.6744
G01 X-9.6543 Y-5.6951
G01 X-9.7262 Y-5.7827
G01 X-9.7331 Y-5.7916
G01 X-9.7404 Y-5.8021
G01 X-9.7482 Y-5.8152
G01 X-9.7550 Y-5.8288
G01 X-9.7849 Y-5.8988
G01 X-9.7917 Y-5.9172
G01 X-9.7965 Y-5.9347
G01 X-9.7990 Y-5.9477
G01 X-9.8007 Y-5.9605
G01 X-9.8026 Y-5.9917
G01 X-9.8026 Y-6.1912
G01 X-9.8185 Y-6.2248
G01 X-9.8237 Y-6.2369
G01 X-9.8554 Y-6.3253
G01 X-9.8599 Y-6.3403
G01 X-9.8771 Y-6.4092
G01 X-9.8771 Y-5.3464
G01 X-6.5095 Y-3.1927
G01 X-6.4897 Y-3.1790
G01 X-6.2940 Y-3.0331
G01 X-6.2830 Y-3.0244
G01 X-6.2620 Y-3.0060
G01 X-6.0878 Y-2.8325
G01 X-6.0774 Y-2.8214
G01 X-6.0632 Y-2.8050
G01 X-6.0569 Y-2.7971
G01 X-5.9116 Y-2.6036
G01 X-5.9057 Y-2.5953
G01 X-5.8940 Y-2.5771
G01 X-5.8862 Y-2.5640
G01 X-5.7706 Y-2.3528
G01 X-5.7643 Y-2.3403
G01 X-5.7525 Y-2.3137
G01 X-5.6668 Y-2.0845
G01 X-5.6635 Y-2.0749
G01 X-5.6574 Y-2.0542
G01 X-5.6536 Y-2.0394
G01 X-5.6008 Y-1.7965
G01 X-5.5971 Y-1.7716
G01 X-5.5958 Y-1.7588
G01 X-5.5778 Y-1.5066
G01 X-5.5774 Y-1.4901
G01 X-5.5774 Y-1.3049
G01 X-5.5782 Y-1.2809
G01 X-5.5956 Y-1.0372
G01 X-5.5966 Y-1.0271
G01 X-5.5998 Y-1.0046
G01 X-5.6023 Y-0.9909
G01 X-5.6533 Y-0.7565
G01 X-5.6557 Y-0.7466
G01 X-5.6617 Y-0.7260
G01 X-5.6665 Y-0.7116
G01 X-5.7498 Y-0.4879
G01 X-5.7556 Y-0.4739
G01 X-5.7645 Y-0.4543
G01 X-5.7691 Y-0.4453
G01 X-5.8839 Y-0.2347
G01 X-5.8916 Y-0.2216
G01 X-5.9033 Y-0.2035
G01 X-5.9091 Y-0.1952
G01 X-6.0549 Y0.0000
G01 X-6.0737 Y0.0221
G01 X-6.0831 Y0.0324
G01 X-6.2557 Y0.2054
G01 X-6.2718 Y0.2206
G01 X-7.6763 Y1.4411
G01 X-7.6330 Y5.5313
G01 X-7.6332 Y5.5419
G01 X-7.6344 Y5.5648
G01 X-7.6554 Y5.7999
G01 X-7.6572 Y5.8129
G01 X-7.6625 Y5.8410
G01 X-7.6645 Y5.8502
G01 X-7.6675 Y5.8616
G01 X-7.7328 Y6.0820
G01 X-7.7372 Y6.0944
G01 X-7.7479 Y6.1210
G01 X-7.7517 Y6.1295
G01 X-7.7569 Y6.1401
G01 X-7.8671 Y6.3479
G01 X-7.8877 Y6.3795
G01 X-7.8971 Y6.3923
G01 X-7.8996 Y6.3955
G01 X-8.0427 Y6.5703
G01 X-8.0487 Y6.5774
G01 X-8.0568 Y6.5859
G01 X-8.0770 Y6.6061
G01 X-8.0897 Y6.6174
G01 X-8.1321 Y6.6522
G01 X-8.2648 Y6.7611
G01 X-8.2679 Y6.7635
G01 X-8.2783 Y6.7712
G01 X-8.3051 Y6.7892
G01 X-8.3197 Y6.7977
G01 X-8.5206 Y6.9051
G01 X-8.5347 Y6.9119
G01 X-8.5668 Y6.9252
G01 X-8.5805 Y6.9298
G01 X-8.8012 Y6.9967
G01 X-8.8137 Y6.9998
G01 X-8.8164 Y7.0004
G01 X-8.8176 Y7.0007
G01 X-8.8414 Y7.0054
G01 X-8.8621 Y7.0085
G01 X-9.0937 Y7.0313
G01 X-9.1202 Y7.0328
G01 X-9.6283 Y7.0329
G01 X-9.6463 Y7.0324
G01 X-9.9072 Y7.0120
G01 X-9.9238 Y7.0100
G01 X-9.9472 Y7.0063
G01 X-9.9581 Y7.0040
G01 X-9.9594 Y7.0037
G01 X-9.9796 Y6.9989
G01 X-10.2009 Y6.9457
G01 X-10.2022 Y6.9454
G01 X-10.2129 Y6.9425
G01 X-10.2355 Y6.9352
G01 X-10.2512 Y6.9294
G01 X-10.4818 Y6.8338
G01 X-10.4946 Y6.8280
G01 X-10.5218 Y6.8139
G01 X-10.7395 Y6.6806
G01 X-10.7523 Y6.6721
G01 X-10.7725 Y6.6573
G01 X-10.7812 Y6.6504
G01 X-10.9289 Y6.5242
G01 X-11.0782 Y6.2139
G01 X-10.8457 Y7.7409
G01 X-10.7997 Y7.6549
G01 X-10.7803 Y7.6254
G01 X-10.7753 Y7.6188
G01 X-10.6828 Y7.5063
G01 X-10.6600 Y7.4830
G01 X-10.6540 Y7.4774
G01 X-10.5393 Y7.3833
G01 X-10.5124 Y7.3649
G01 X-10.5054 Y7.3606
G01 X-10.3769 Y7.2919
G01 X-10.3695 Y7.2883
G01 X-10.3368 Y7.2750
G01 X-10.1974 Y7.2327
G01 X-10.1895 Y7.2306
G01 X-10.1602 Y7.2248
G01 X-10.1520 Y7.2237
G01 X-10.0037 Y7.2091
G01 X-9.9834 Y7.2080
G01 X-8.3867 Y7.2080
G01 X-7.4523 Y6.2736
G01 X-7.4523 Y2.6064
G01 X-7.4512 Y2.5833
G01 X-7.4281 Y2.3490
G01 X-7.4220 Y2.3170
G01 X-7.4201 Y2.3090
G01 X-7.3536 Y2.0895
G01 X-7.3499 Y2.0792
G01 X-7.3395 Y2.0542
G01 X-7.3359 Y2.0468
G01 X-7.2291 Y1.8470
G01 X-7.2234 Y1.8375
G01 X-7.2083 Y1.8151
G01 X-7.2033 Y1.8085
G01 X-7.0596 Y1.6334
G01 X-7.0541 Y1.6272
G01 X-7.0350 Y1.6080
G01 X-7.0269 Y1.6006
G01 X-6.8496 Y1.4552
G01 X-6.8227 Y1.4369
G01 X-6.8157 Y1.4325
G01 X-6.6135 Y1.3244
G01 X-6.6035 Y1.3197
G01 X-6.5785 Y1.3094
G01 X-6.5707 Y1.3067
G01 X-6.3539 Y1.2409
G01 X-6.3432 Y1.2382
G01 X-6.3167 Y1.2330
G01 X-6.3085 Y1.2319
G01 X-6.0770 Y1.2091
G01 X-6.0566 Y1.2080
G01 X-5.9701 Y1.2080
G01 X-5.9538 Y1.2085
G01 X-5.7301 Y1.2261
G01 X-5.7214 Y1.2271
G01 X-5.6964 Y1.2313
G01 X-5.4823 Y1.2826
G01 X-5.4553 Y1.2910
G01 X-5.4471 Y1.2941
G01 X-5.2464 Y1.3772
G01 X-5.2384 Y1.3809
G01 X-5.2134 Y1.3940
G01 X-5.0281 Y1.5075
G01 X-5.0051 Y1.5239
G01 X-4.9982 Y1.5293
G01 X-4.8292 Y1.6736
G01 X-4.8172 Y1.6846
G01 X-2.3341 Y4.1677
G01 X1.1536 Y4.1677
G01 X3.7977 Y1.5236
G01 X3.7977 Y-0.3231
G01 X3.7988 Y-0.3435
G01 X3.8134 Y-0.4918
G01 X3.8151 Y-0.5027
G01 X3.8217 Y-0.5345
G01 X3.8648 Y-0.6766
G01 X3.8677 Y-0.6843
G01 X3.8804 Y-0.7142
G01 X3.9490 Y-0.8427
G01 X3.9547 Y-0.8521
G01 X3.9730 Y-0.8790
G01 X4.0672 Y-0.9937
G01 X4.0900 Y-1.0170
G01 X4.0981 Y-1.0244
G01 X4.2086 Y-1.1150
G01 X4.2174 Y-1.1216
G01 X4.2446 Y-1.1394
G01 X4.3731 Y-1.2081
G01 X4.3805 Y-1.2117
G01 X4.4055 Y-1.2221
G01 X4.4158 Y-1.2258
G01 X4.5552 Y-1.2680
G01 X4.5871 Y-1.2747
G01 X4.5980 Y-1.2763
G01 X4.7412 Y-1.2904
G01 X4.7643 Y-1.2915
G01 X4.8079 Y-1.2915
G01 X4.8283 Y-1.2904
G01 X4.9743 Y-1.2760
G01 X5.0063 Y-1.2700
G01 X5.0169 Y-1.2673
G01 X5.1563 Y-1.2250
G01 X5.1890 Y-1.2117
G01 X5.1964 Y-1.2081
G01 X5.3249 Y-1.1394
G01 X5.3319 Y-1.1351
G01 X5.3588 Y-1.1167
G01 X5.4735 Y-1.0226
G01 X5.4987 Y-0.9978
G01 X5.5041 Y-0.9916
G01 X5.5965 Y-0.8790
G01 X5.6148 Y-0.8521
G01 X5.6205 Y-0.8427
G01 X5.6878 Y-0.7167
G01 X5.6925 Y-0.7067
G01 X5.7047 Y-0.6766
G01 X5.7470 Y-0.5372
G01 X5.7491 Y-0.5292
G01 X5.7549 Y-0.5000
G01 X5.7561 Y-0.4918
G01 X5.7707 Y-0.3435
G01 X5.7718 Y-0.3204
G01 X5.7718 Y2.5695
G01 X5.7711 Y2.5881
G01 X5.7501 Y2.8551
G01 X5.7490 Y2.8638
G01 X5.7455 Y2.8859
G01 X5.6829 Y3.1473
G01 X5.6805 Y3.1558
G01 X5.6714 Y3.1825
G01 X5.5708 Y3.4255
G01 X5.5671 Y3.4335
G01 X5.5540 Y3.4585
G01 X5.4166 Y3.6827
G01 X5.4117 Y3.6900
G01 X5.3967 Y3.7104
G01 X5.2209 Y3.9163
G01 X5.2083 Y3.9299
G01 X3.2718 Y5.8664
G01 X3.2718 Y8.2104
G01 X3.2707 Y8.2335
G01 X3.2558 Y8.3845
G01 X3.2497 Y8.4165
G01 X3.2478 Y8.4245
G01 X3.2055 Y8.5639
G01 X3.2029 Y8.5717
G01 X3.1891 Y8.6042
G01 X3.1205 Y8.7327
G01 X3.1163 Y8.7398
G01 X3.0965 Y8.7690
G01 X3.0041 Y8.8816
G01 X2.9986 Y8.8878
G01 X2.9735 Y8.9126
G01 X2.8566 Y9.0084
G01 X2.8319 Y9.0251
G01 X2.8225 Y9.0307
G01 X2.6940 Y9.0994
G01 X2.6640 Y9.1121
G01 X2.6537 Y9.1158
G01 X2.5143 Y9.1580
G01 X2.5063 Y9.1600
G01 X2.4770 Y9.1656
G01 X2.3232 Y9.1809
G01 X2.3029 Y9.1820
G01 X2.0194 Y9.1820
G01 X1.9963 Y9.1809
G01 X1.8425 Y9.1656
G01 X1.8132 Y9.1600
G01 X1.8052 Y9.1580
G01 X1.6658 Y9.1158
G01 X1.6580 Y9.1131
G01 X1.6255 Y9.0994
G01 X1.4970 Y9.0307
G01 X1.4899 Y9.0266
G01 X1.4607 Y9.0067
G01 X1.3481 Y8.9144
G01 X1.3419 Y8.9089
G01 X1.3172 Y8.8837
G01 X1.2247 Y8.7712
G01 X1.2182 Y8.7623
G01 X1.2003 Y8.7351
G01 X1.1317 Y8.6067
G01 X1.1270 Y8.5967
G01 X1.1148 Y8.5666
G01 X1.0717 Y8.4245
G01 X1.0651 Y8.3927
G01 X1.0634 Y8.3818
G01 X1.0486 Y8.2308
G01 X1.0477 Y8.2104
G01 X1.0477 Y6.1164
G01 X0.6133 Y5.6820
G01 X-3.2938 Y5.6820
G01 X-6.4819 Y8.8701
G01 X-6.4940 Y8.8812
G01 X-6.6976 Y9.0551
G01 X-6.7045 Y9.0605
G01 X-6.7276 Y9.0769
G01 X-6.9543 Y9.2158
G01 X-6.9768 Y9.2274
G01 X-6.9848 Y9.2311
G01 X-7.2277 Y9.3317
G01 X-7.2360 Y9.3347
G01 X-7.2629 Y9.3431
G01 X-7.5186 Y9.4045
G01 X-7.5464 Y9.4093
G01 X-7.5552 Y9.4103
G01 X-7.8222 Y9.4313
G01 X-7.8407 Y9.4320
G01 X-9.8282 Y9.4320
G01 X-6.9079 Y11.1078
G01 X-6.9239 Y11.0620
G01 X-6.9322 Y11.0274
G01 X-6.9336 Y11.0200
G01 X-6.9508 Y10.8699
G01 X-6.9521 Y10.8496
G01 X-6.9522 Y10.1009
G01 X-6.9512 Y10.0833
G01 X-6.9284 Y9.8517
G01 X-6.9272 Y9.8436
G01 X-6.9220 Y9.8170
G01 X-6.9193 Y9.8063
G01 X-6.8536 Y9.5895
G01 X-6.8509 Y9.5817
G01 X-6.8395 Y9.5542
G01 X-6.8359 Y9.5468
G01 X-6.8076 Y9.4939
G01 X-6.8035 Y9.4869
G01 X-6.7990 Y9.4802
G01 X-6.7903 Y9.4699
G01 X-6.7457 Y9.4226
G01 X-6.7400 Y9.4169
G01 X-6.7317 Y9.4100
G01 X-6.7228 Y9.4039
G01 X-6.5824 Y9.3180
G01 X-6.5531 Y9.2983
G01 X-6.5409 Y9.2895
G01 X-6.5132 Y9.2676
G01 X-6.3120 Y9.0958
G01 X-6.2934 Y9.0790
G01 X-6.2806 Y9.0668
G01 X-6.0405 Y8.8266
G01 X-6.0323 Y8.8193
G01 X-6.0257 Y8.8143
G01 X-6.0188 Y8.8098
G01 X-5.9648 Y8.7774
G01 X-5.9524 Y8.7714
G01 X-5.9421 Y8.7677
G01 X-5.8539 Y8.7409
G01 X-5.8432 Y8.7382
G01 X-5.8167 Y8.7330
G01 X-5.8085 Y8.7319
G01 X-5.5770 Y8.7091
G01 X-5.5538 Y8.7080
G01 X-2.8767 Y8.7080
G01 X-2.8535 Y8.7091
G01 X-2.6220 Y8.7319
G01 X-2.6138 Y8.7330
G01 X-2.5846 Y8.7388
G01 X-2.5766 Y8.7409
G01 X-2.3598 Y8.8067
G01 X-2.3494 Y8.8104
G01 X-2.3244 Y8.8208
G01 X-2.3170 Y8.8244
G01 X-2.1172 Y8.9312
G01 X-2.1101 Y8.9354
G01 X-2.0876 Y8.9504
G01 X-2.0787 Y8.9569
G01 X-1.8942 Y9.1084
G01 X-1.8880 Y9.1138
G01 X-1.5438 Y9.4580
G01 X1.9265 Y9.4580
G01 X1.9469 Y9.4589
G01 X1.9893 Y9.4624
G01 X2.0208 Y9.4635
G01 X2.2987 Y9.4635
G01 X2.3302 Y9.4624
G01 X2.3726 Y9.4589
G01 X2.3930 Y9.4580
G01 X4.6765 Y9.4580
G01 X4.6969 Y9.4589
G01 X4.7173 Y9.4608
G01 X4.7487 Y9.4629
G01 X4.7708 Y9.4635
G01 X4.7987 Y9.4635
G01 X4.8302 Y9.4624
G01 X4.8726 Y9.4589
G01 X4.8930 Y9.4580
G01 X8.1133 Y9.4580
G01 X10.0474 Y7.5238
G01 X10.0474 Y-2.0176
G01 X8.6153 Y-3.3680
G01 X8.0428 Y-3.3680
G01 X7.6493 Y-3.1133
G01 X7.6383 Y-3.1066
G01 X7.6235 Y-3.0988
G01 X7.6104 Y-3.0938
G01 X7.5453 Y-3.0770
G01 X7.5343 Y-3.0747
G01 X7.5259 Y-3.0738
G01 X7.5174 Y-3.0735
G01 X6.2382 Y-3.0735
G01 X6.2134 Y-3.0701
G01 X6.1886 Y-3.0685
G01 X6.0630 Y-3.0685
G01 X6.0428 Y-3.0506
G01 X5.9832 Y-3.0064
G01 X5.9763 Y-3.0019
G01 X5.9150 Y-2.9652
G01 X5.9076 Y-2.9614
G01 X5.8405 Y-2.9298
G01 X5.7681 Y-2.9037
G01 X5.7602 Y-2.9014
G01 X5.6882 Y-2.8836
G01 X5.6093 Y-2.8719
G01 X5.5297 Y-2.8680
G01 X5.4529 Y-2.8716
G01 X5.4447 Y-2.8725
G01 X5.3767 Y-2.8826
G01 X5.3660 Y-2.8848
G01 X5.2940 Y-2.9029
G01 X5.2190 Y-2.9298
G01 X5.1470 Y-2.9638
G01 X5.0832 Y-3.0019
G01 X5.0741 Y-3.0080
G01 X5.0189 Y-3.0489
G01 X5.0125 Y-3.0540
G01 X4.9555 Y-3.1058
G01 X4.9056 Y-3.1607
G01 X4.9003 Y-3.1670
G01 X4.8577 Y-3.2244
G01 X4.8531 Y-3.2312
G01 X4.8149 Y-3.2948
G01 X4.8017 Y-3.3221
G01 X4.7762 Y-3.3626
G01 X4.7665 Y-3.3749
G01 X4.7301 Y-3.4161
G01 X4.6168 Y-3.5293
G01 X4.6080 Y-3.5393
G01 X4.6033 Y-3.5458
G01 X4.5990 Y-3.5525
G01 X4.5617 Y-3.6211
G01 X4.5584 Y-3.6286
G01 X4.5557 Y-3.6364
G01 X4.5535 Y-3.6444
G01 X4.5519 Y-3.6525
G01 X4.5483 Y-3.6843
G01 X4.5477 Y-3.6962
G01 X4.5478 Y-5.6839
G01 X4.5484 Y-5.6981
G01 X4.5694 Y-5.9651
G01 X4.5735 Y-5.9930
G01 X4.5752 Y-6.0016
G01 X4.6366 Y-6.2573
G01 X4.6390 Y-6.2658
G01 X4.6470 Y-6.2898
G01 X4.7487 Y-6.5355
G01 X4.7612 Y-6.5608
G01 X4.7655 Y-6.5685
G01 X4.9029 Y-6.7927
G01 X4.9078 Y-6.8000
G01 X4.9228 Y-6.8204
G01 X5.0986 Y-7.0263
G01 X5.1096 Y-7.0383
G01 X5.9989 Y-7.9276
G01 X6.0059 Y-8.1934
G01 X6.0067 Y-8.2043
G01 X6.0080 Y-8.2124
G01 X6.0107 Y-8.2230
G01 X6.0134 Y-8.2308
G01 X6.0556 Y-8.3327
G01 X6.0678 Y-8.3659
G01 X6.0724 Y-8.3802
G01 X6.0820 Y-8.4141
G01 X6.1424 Y-8.6655
G01 X6.1493 Y-8.7001
G01 X6.1516 Y-8.7150
G01 X6.1558 Y-8.7501
G01 X6.1765 Y-9.0138
G01 X6.1776 Y-9.0314
G01 X6.1782 Y-9.0566
G01 X6.1782 Y-9.5299
G01 X6.1772 Y-9.5593
G01 X6.1764 Y-9.5718
G01 X6.1735 Y-9.6011
G01 X6.1562 Y-9.7329
G01 X6.1556 Y-9.7442
G01 X6.1564 Y-9.7582
G01 X6.1671 Y-9.8309
G01 X6.1689 Y-9.8392
G01 X6.1722 Y-9.8500
G01 X6.1753 Y-9.8578
G01 X6.2597 Y-10.0453
G01 X6.2732 Y-10.0705
G01 X6.2778 Y-10.0781
G01 X6.4264 Y-10.3041
G01 X6.4373 Y-10.3194
G01 X6.5934 Y-10.5201
G01 X6.6021 Y-10.5306
G01 X6.7734 Y-10.7195
G01 X6.7794 Y-10.7255
G01 X6.7994 Y-10.7441
G01 X6.9903 Y-10.8992
G01 X7.0149 Y-10.9166
G01 X7.2343 Y-11.0455
G01 X7.2614 Y-11.0587
G01 X7.3127 Y-11.0792
G01 X1.6145 Y-11.2836
G01 X1.7724 Y-11.1869
G01 X1.7797 Y-11.1820
G01 X1.7978 Y-11.1688
G01 X2.0093 Y-10.9882
G01 X2.0196 Y-10.9786
G01 X2.2083 Y-10.7899
G01 X2.2180 Y-10.7796
G01 X2.3948 Y-10.5726
G01 X2.4117 Y-10.5500
G01 X2.4166 Y-10.5427
G01 X2.5540 Y-10.3185
G01 X2.5583 Y-10.3108
G01 X2.5708 Y-10.2855
G01 X2.6714 Y-10.0425
G01 X2.6745 Y-10.0343
G01 X2.6829 Y-10.0073
G01 X2.7443 Y-9.7516
G01 X2.7460 Y-9.7430
G01 X2.7498 Y-9.7180
G01 X2.7711 Y-9.4481
G01 X2.7718 Y-9.4317
G01 X2.7717 Y-8.7841
G01 X2.7707 Y-8.7665
G01 X2.7561 Y-8.6182
G01 X2.7544 Y-8.6073
G01 X2.7478 Y-8.5755
G01 X2.7055 Y-8.4361
G01 X2.7018 Y-8.4257
G01 X2.6891 Y-8.3958
G01 X2.6205 Y-8.2673
G01 X2.6148 Y-8.2579
G01 X2.5965 Y-8.2310
G01 X2.5041 Y-8.1184
G01 X2.4967 Y-8.1102
G01 X2.4735 Y-8.0874
G01 X2.3609 Y-7.9950
G01 X2.3521 Y-7.9884
G01 X2.3249 Y-7.9706
G01 X2.1964 Y-7.9019
G01 X2.1865 Y-7.8972
G01 X2.1615 Y-7.8869
G01 X2.1537 Y-7.8842
G01 X2.0143 Y-7.8420
G01 X1.9824 Y-7.8353
G01 X1.9716 Y-7.8337
G01 X1.8232 Y-7.8191
G01 X1.8056 Y-7.8181
G01 X1.5194 Y-7.8180
G01 X1.4963 Y-7.8191
G01 X1.3479 Y-7.8337
G01 X1.3371 Y-7.8353
G01 X1.3079 Y-7.8413
G01 X1.1658 Y-7.8842
G01 X1.1555 Y-7.8879
G01 X1.1255 Y-7.9006
G01 X0.9946 Y-7.9706
G01 X0.9674 Y-7.9884
G01 X0.9586 Y-7.9950
G01 X0.8460 Y-8.0874
G01 X0.8400 Y-8.0930
G01 X0.8190 Y-8.1142
G01 X0.7247 Y-8.2288
G01 X0.7182 Y-8.2377
G01 X0.7003 Y-8.2649
G01 X0.6304 Y-8.3958
G01 X0.6177 Y-8.4257
G01 X0.6140 Y-8.4361
G01 X0.5717 Y-8.5755
G01 X0.5646 Y-8.6100
G01 X0.5634 Y-8.6182
G01 X0.5543 Y-8.7107
G01 X0.5532 Y-8.7311
G01 X0.5532 Y-9.0690
G01 X0.5522 Y-9.1005
G01 X0.5486 Y-9.1428
G01 X0.5477 Y-9.1632
G01 X0.5477 Y-9.6336
G01 X0.1133 Y-10.0680
G01 X0.0830 Y-10.0680
G01 X0.0746 Y-10.0685
G01 X0.0607 Y-10.0708
G01 X0.0498 Y-10.0739
G01 X0.0393 Y-10.0781
G01 X-0.0735 Y-10.1296
G01 X-0.1191 Y-10.1433
G01 X-0.1263 Y-10.1462
G01 X-0.1502 Y-10.1577
G01 X-1.6831 Y-10.1577
G01 X-1.7194 Y-10.1323
G01 X-1.7529 Y-10.0988
G01 X-1.7591 Y-10.0934
G01 X-1.7656 Y-10.0884
G01 X-1.7749 Y-10.0825
G01 X-1.7847 Y-10.0776
G01 X-1.7924 Y-10.0745
G01 X-1.8029 Y-10.0713
G01 X-1.8137 Y-10.0692
G01 X-1.8274 Y-10.0680
G01 X-2.0438 Y-10.0680
G01 X-3.7335 Y-8.3784
G01 X-3.7440 Y-8.3689
G01 X-3.7990 Y-8.3218
G01 X-3.8053 Y-8.3168
G01 X-3.8142 Y-8.3109
G01 X-3.8212 Y-8.3071
G01 X-3.8439 Y-8.2967
G01 X-3.8497 Y-8.2866
G01 X-3.8577 Y-8.2757
G01 X-3.8631 Y-8.2697
G01 X-3.8801 Y-8.2527
G01 X-3.9499 Y-8.1930
G01 X-3.9727 Y-8.1763
G01 X-4.0835 Y-8.1082
G01 X-4.0933 Y-8.1029
G01 X-4.1010 Y-8.0995
G01 X-4.1089 Y-8.0967
G01 X-4.1791 Y-8.0769
G01 X-4.1929 Y-8.0743
G01 X-4.2068 Y-8.0735
G01 X-8.8710 Y-8.0735
G01 X-8.9190 Y-8.0709
G01 X-8.9394 Y-8.0687
G01 X-8.9790 Y-8.0623
G01 X-9.0959 Y-8.0186
G01 X-9.1432 Y-7.9928
G01 X-9.2160 Y-7.9383
G01 X-9.9380 Y-7.2164
G01 X-9.9680 Y-7.1520
G01 X-9.9720 Y-7.1447
G01 X-9.9780 Y-7.1357
G01 X-9.9780 Y-5.2912
G01 X-6.5638 Y-3.1077
G01 X-6.5499 Y-3.0981
G01 X-6.3542 Y-2.9523
G01 X-6.3346 Y-2.9357
G01 X-6.3287 Y-2.9302
G01 X-6.1590 Y-2.7611
G01 X-6.1419 Y-2.7418
G01 X-6.1368 Y-2.7356
G01 X-5.9930 Y-2.5440
G01 X-5.9788 Y-2.5225
G01 X-5.9747 Y-2.5156
G01 X-5.8596 Y-2.3054
G01 X-5.8560 Y-2.2983
G01 X-5.8456 Y-2.2748
G01 X-5.7607 Y-2.0478
G01 X-5.7521 Y-2.0179
G01 X-5.7011 Y-1.7838
G01 X-5.6996 Y-1.7759
G01 X-5.6963 Y-1.7504
G01 X-5.6788 Y-1.5070
G01 X-5.6782 Y-1.4901
G01 X-5.6782 Y-1.3049
G01 X-5.6786 Y-1.2920
G01 X-5.6961 Y-1.0456
G01 X-5.6970 Y-1.0376
G01 X-5.7009 Y-1.0123
G01 X-5.7515 Y-0.7790
G01 X-5.7535 Y-0.7713
G01 X-5.7610 Y-0.7468
G01 X-5.8443 Y-0.5231
G01 X-5.8473 Y-0.5157
G01 X-5.8582 Y-0.4925
G01 X-5.9724 Y-0.2829
G01 X-5.9765 Y-0.2760
G01 X-5.9906 Y-0.2546
G01 X-6.1334 Y-0.0634
G01 X-6.1384 Y-0.0572
G01 X-6.1554 Y-0.0380
G01 X-6.3271 Y0.1342
G01 X-6.3393 Y0.1456
G01 X-7.7777 Y1.3956
G01 X-7.7339 Y5.5323
G01 X-7.7344 Y5.5502
G01 X-7.7554 Y5.7869
G01 X-7.7569 Y5.7980
G01 X-7.7621 Y5.8249
G01 X-7.7642 Y5.8330
G01 X-7.8283 Y6.0496
G01 X-7.8320 Y6.0601
G01 X-7.8424 Y6.0854
G01 X-7.8460 Y6.0930
G01 X-7.9530 Y6.2950
G01 X-7.9574 Y6.3021
G01 X-7.9742 Y6.3272
G01 X-8.1208 Y6.5065
G01 X-8.1282 Y6.5147
G01 X-8.1475 Y6.5339
G01 X-8.1537 Y6.5394
G01 X-8.3309 Y6.6848
G01 X-8.3578 Y6.7031
G01 X-8.3672 Y6.7088
G01 X-8.5695 Y6.8169
G01 X-8.5770 Y6.8203
G01 X-8.6045 Y6.8316
G01 X-8.8266 Y6.8991
G01 X-8.8373 Y6.9018
G01 X-8.8638 Y6.9070
G01 X-8.8720 Y6.9081
G01 X-9.1035 Y6.9309
G01 X-9.1267 Y6.9320
G01 X-9.6327 Y6.9320
G01 X-9.6468 Y6.9313
G01 X-9.8993 Y6.9115
G01 X-9.9272 Y6.9074
G01 X-9.9358 Y6.9057
G01 X-10.1773 Y6.8477
G01 X-10.2043 Y6.8393
G01 X-10.2126 Y6.8362
G01 X-10.4420 Y6.7412
G01 X-10.4500 Y6.7375
G01 X-10.4750 Y6.7244
G01 X-10.6868 Y6.5946
G01 X-10.6941 Y6.5897
G01 X-10.7167 Y6.5728
G01 X-10.9056 Y6.4115
G01 X-10.9121 Y6.4056
G01 X-10.9318 Y6.3854
G01 X-11.0782 Y6.2139
G00 Z2.0000
G00 X-7.5882 Y10.0198
G01 F25.00
G01 Z-0.0450
G01 F45.00
G01 X-7.5546 Y10.0391
G01 X-7.5526 Y10.0171
G01 X-7.5882 Y10.0198
G01 X-7.4401 Y9.9029
G01 X-7.4803 Y9.9092
G01 X-7.5093 Y9.9124
G01 X-7.7902 Y9.9345
G01 X-7.8331 Y9.9362
G01 X-7.9364 Y9.9363
G01 X-7.4565 Y10.2117
G01 X-7.4565 Y10.1012
G01 X-7.4551 Y10.0623
G01 X-7.4531 Y10.0357
G01 X-7.4401 Y9.9029
G01 X-7.3244 Y9.7727
G01 X-7.4363 Y9.7994
G01 X-7.4604 Y9.8040
G01 X-7.4983 Y9.8098
G01 X-7.5230 Y9.8124
G01 X-7.7987 Y9.8340
G01 X-7.8230 Y9.8351
G01 X-7.8397 Y9.8354
G01 X-8.3148 Y9.8354
G01 X-7.3557 Y10.3858
G01 X-7.3557 Y10.1050
G01 X-7.3544 Y10.0685
G01 X-7.3527 Y10.0444
G01 X-7.3297 Y9.8110
G01 X-7.3273 Y9.7911
G01 X-7.3244 Y9.7727
G01 X-7.1835 Y9.6351
G01 X-7.4509 Y9.6994
G01 X-7.4712 Y9.7036
G01 X-7.4991 Y9.7081
G01 X-7.5138 Y9.7101
G01 X-7.5305 Y9.7118
G01 X-7.8041 Y9.7333
G01 X-7.8405 Y9.7346
G01 X-8.6931 Y9.7346
G01 X-7.2548 Y10.5599
G01 X-7.2548 Y10.1064
G01 X-7.2544 Y10.0864
G01 X-7.2523 Y10.0546
G01 X-7.2290 Y9.8184
G01 X-7.2251 Y9.7906
G01 X-7.2174 Y9.7517
G01 X-7.2138 Y9.7363
G01 X-7.2099 Y9.7221
G01 X-7.1835 Y9.6351
G01 X-7.0199 Y9.4639
G01 X-7.1557 Y9.5201
G01 X-7.1718 Y9.5259
G01 X-7.2025 Y9.5357
G01 X-7.2158 Y9.5392
G01 X-7.4770 Y9.6019
G01 X-7.4902 Y9.6045
G01 X-7.5155 Y9.6086
G01 X-7.5387 Y9.6113
G01 X-7.8069 Y9.6324
G01 X-7.8365 Y9.6337
G01 X-9.0715 Y9.6337
G01 X-7.1540 Y10.7341
G01 X-7.1539 Y10.0975
G01 X-7.1519 Y10.0641
G01 X-7.1289 Y9.8301
G01 X-7.1262 Y9.8103
G01 X-7.1198 Y9.7777
G01 X-7.1167 Y9.7638
G01 X-7.1125 Y9.7484
G01 X-7.0446 Y9.5248
G01 X-7.0369 Y9.5037
G01 X-7.0259 Y9.4773
G01 X-7.0199 Y9.4639
G01 X-5.5907 Y8.4068
G01 X-5.5677 Y8.4057
G01 X-5.5538 Y8.4054
G01 X-2.8739 Y8.4054
G01 X-2.8442 Y8.4065
G01 X-2.8251 Y8.4079
G01 X-2.5920 Y8.4308
G01 X-2.5685 Y8.4339
G01 X-2.5219 Y8.4428
G01 X-2.4950 Y8.4496
G01 X-2.2708 Y8.5175
G01 X-2.2556 Y8.5225
G01 X-2.2402 Y8.5282
G01 X-2.2035 Y8.5435
G01 X-2.1801 Y8.5546
G01 X-1.9738 Y8.6648
G01 X-1.9498 Y8.6788
G01 X-1.9136 Y8.7028
G01 X-1.8923 Y8.7186
G01 X-1.7022 Y8.8745
G01 X-1.6882 Y8.8866
G01 X-1.6723 Y8.9016
G01 X-1.4185 Y9.1554
G01 X-0.9232 Y9.1554
G01 X-1.0000 Y9.1095
G01 X-1.0204 Y9.0963
G01 X-1.0999 Y9.0375
G01 X-1.1132 Y9.0269
G01 X-1.1260 Y9.0158
G01 X-1.1850 Y8.9622
G01 X-1.1982 Y8.9497
G01 X-1.2123 Y8.9350
G01 X-1.2658 Y8.8759
G01 X-1.2772 Y8.8629
G01 X-1.2874 Y8.8501
G01 X-1.3392 Y8.7804
G01 X-1.3494 Y8.7658
G01 X-1.3591 Y8.7508
G01 X-1.4019 Y8.6795
G01 X-1.4096 Y8.6658
G01 X-1.4204 Y8.6447
G01 X-1.4545 Y8.5726
G01 X-1.4612 Y8.5577
G01 X-1.4696 Y8.5361
G01 X-1.4965 Y8.4610
G01 X-1.5022 Y8.4438
G01 X-1.5077 Y8.4242
G01 X-1.5270 Y8.3468
G01 X-1.5317 Y8.3257
G01 X-1.5348 Y8.3078
G01 X-1.5465 Y8.2292
G01 X-1.5489 Y8.2103
G01 X-1.5504 Y8.1897
G01 X-1.5548 Y8.0971
G01 X-1.5548 Y7.2888
G01 X-1.5544 Y7.2700
G01 X-1.5497 Y7.1792
G01 X-1.5467 Y7.1520
G01 X-1.5348 Y7.0722
G01 X-1.5319 Y7.0549
G01 X-1.5270 Y7.0332
G01 X-1.5077 Y6.9558
G01 X-1.5022 Y6.9362
G01 X-1.4965 Y6.9190
G01 X-1.4697 Y6.8442
G01 X-1.4617 Y6.8235
G01 X-1.4545 Y6.8074
G01 X-1.4195 Y6.7334
G01 X-1.4129 Y6.7202
G01 X-1.4056 Y6.7069
G01 X-1.3605 Y6.6316
G01 X-1.3508 Y6.6162
G01 X-1.3392 Y6.5996
G01 X-1.2911 Y6.5348
G01 X-1.2799 Y6.5204
G01 X-1.2681 Y6.5066
G01 X-1.2125 Y6.4452
G01 X-1.2000 Y6.4320
G01 X-1.1853 Y6.4180
G01 X-1.1241 Y6.3625
G01 X-1.1098 Y6.3503
G01 X-1.0967 Y6.3401
G01 X-1.0307 Y6.2911
G01 X-1.0140 Y6.2794
G01 X-0.9986 Y6.2697
G01 X-0.9281 Y6.2274
G01 X-0.9117 Y6.2183
G01 X-0.8971 Y6.2109
G01 X-0.8225 Y6.1756
G01 X-0.8039 Y6.1674
G01 X-0.7869 Y6.1609
G01 X-0.7089 Y6.1330
G01 X-0.6916 Y6.1274
G01 X-0.6744 Y6.1226
G01 X-0.5959 Y6.1029
G01 X-0.5760 Y6.0985
G01 X-0.5581 Y6.0954
G01 X-0.4761 Y6.0833
G01 X-0.4581 Y6.0811
G01 X-0.4402 Y6.0798
G01 X-0.3578 Y6.0758
G01 X-0.3332 Y6.0755
G01 X-0.2412 Y6.0798
G01 X-0.2230 Y6.0811
G01 X-0.2022 Y6.0836
G01 X-0.1230 Y6.0953
G01 X-0.1051 Y6.0984
G01 X-0.0870 Y6.1023
G01 X-0.0064 Y6.1225
G01 X0.0111 Y6.1274
G01 X0.0305 Y6.1337
G01 X0.1088 Y6.1617
G01 X0.1257 Y6.1684
G01 X0.1420 Y6.1756
G01 X0.2152 Y6.2102
G01 X0.2334 Y6.2194
G01 X0.2492 Y6.2284
G01 X0.3234 Y6.2729
G01 X0.3361 Y6.2811
G01 X0.3482 Y6.2896
G01 X0.4142 Y6.3386
G01 X0.4279 Y6.3492
G01 X0.4409 Y6.3601
G01 X0.5045 Y6.4178
G01 X0.5177 Y6.4303
G01 X0.5318 Y6.4450
G01 X0.5872 Y6.5061
G01 X0.5994 Y6.5204
G01 X0.6097 Y6.5335
G01 X0.6594 Y6.6006
G01 X0.6713 Y6.6178
G01 X0.6804 Y6.6321
G01 X0.7251 Y6.7069
G01 X0.7348 Y6.7248
G01 X0.7452 Y6.7464
G01 X0.7452 Y6.2417
G01 X0.4880 Y5.9846
G01 X-3.1685 Y5.9846
G01 X-5.5907 Y8.4068
G01 X-5.3459 Y8.3046
G01 X-2.8722 Y8.3046
G01 X-2.8391 Y8.3058
G01 X-2.8171 Y8.3074
G01 X-2.5818 Y8.3305
G01 X-2.5561 Y8.3337
G01 X-2.5360 Y8.3372
G01 X-2.5010 Y8.3442
G01 X-2.4851 Y8.3479
G01 X-2.4681 Y8.3524
G01 X-2.2414 Y8.4211
G01 X-2.2233 Y8.4270
G01 X-2.2080 Y8.4326
G01 X-2.1644 Y8.4505
G01 X-2.1362 Y8.4638
G01 X-1.9239 Y8.5771
G01 X-1.9061 Y8.5873
G01 X-1.8868 Y8.5994
G01 X-1.8551 Y8.6207
G01 X-1.8347 Y8.6357
G01 X-1.6267 Y8.8063
G01 X-1.6134 Y8.8183
G01 X-1.6017 Y8.8297
G01 X-1.3768 Y9.0546
G01 X-1.2333 Y9.0546
G01 X-1.2604 Y9.0298
G01 X-1.2809 Y9.0093
G01 X-1.3435 Y8.9404
G01 X-1.3541 Y8.9281
G01 X-1.3642 Y8.9156
G01 X-1.4202 Y8.8405
G01 X-1.4333 Y8.8218
G01 X-1.4468 Y8.8006
G01 X-1.4949 Y8.7201
G01 X-1.5097 Y8.6918
G01 X-1.5460 Y8.6150
G01 X-1.5549 Y8.5948
G01 X-1.5634 Y8.5731
G01 X-1.5921 Y8.4930
G01 X-1.5997 Y8.4698
G01 X-1.6057 Y8.4479
G01 X-1.6286 Y8.3554
G01 X-1.6319 Y8.3388
G01 X-1.6345 Y8.3234
G01 X-1.6464 Y8.2427
G01 X-1.6490 Y8.2226
G01 X-1.6511 Y8.1951
G01 X-1.6556 Y8.0986
G01 X-1.6557 Y7.2864
G01 X-1.6551 Y7.2661
G01 X-1.6510 Y7.1832
G01 X-1.6498 Y7.1657
G01 X-1.6481 Y7.1497
G01 X-1.6334 Y7.0498
G01 X-1.6296 Y7.0294
G01 X-1.6250 Y7.0091
G01 X-1.6050 Y6.9295
G01 X-1.5986 Y6.9067
G01 X-1.5916 Y6.8854
G01 X-1.5620 Y6.8030
G01 X-1.5547 Y6.7846
G01 X-1.5467 Y6.7664
G01 X-1.5104 Y6.6897
G01 X-1.4996 Y6.6686
G01 X-1.4888 Y6.6494
G01 X-1.4450 Y6.5763
G01 X-1.4331 Y6.5579
G01 X-1.4205 Y6.5400
G01 X-1.3708 Y6.4730
G01 X-1.3563 Y6.4545
G01 X-1.3417 Y6.4376
G01 X-1.2857 Y6.3758
G01 X-1.2713 Y6.3607
G01 X-1.2556 Y6.3456
G01 X-1.1926 Y6.2885
G01 X-1.1757 Y6.2739
G01 X-1.1573 Y6.2594
G01 X-1.0888 Y6.2086
G01 X-1.0721 Y6.1970
G01 X-1.0534 Y6.1850
G01 X-0.9809 Y6.1415
G01 X-0.9614 Y6.1305
G01 X-0.9405 Y6.1199
G01 X-0.8678 Y6.0854
G01 X-3.1268 Y6.0854
G01 X-5.3459 Y8.3046
G01 X-5.1024 Y8.2037
G01 X-2.8712 Y8.2038
G01 X-2.8465 Y8.2045
G01 X-2.8097 Y8.2068
G01 X-2.5725 Y8.2301
G01 X-2.5439 Y8.2336
G01 X-2.5143 Y8.2387
G01 X-2.4711 Y8.2475
G01 X-2.4538 Y8.2518
G01 X-2.4359 Y8.2567
G01 X-2.1977 Y8.3292
G01 X-2.1800 Y8.3354
G01 X-2.1614 Y8.3425
G01 X-2.1286 Y8.3561
G01 X-2.1080 Y8.3653
G01 X-2.0808 Y8.3789
G01 X-1.8780 Y8.4874
G01 X-1.8571 Y8.4991
G01 X-1.8365 Y8.5118
G01 X-1.7975 Y8.5379
G01 X-1.7717 Y8.5569
G01 X-1.6303 Y8.6726
G01 X-1.6452 Y8.6402
G01 X-1.6580 Y8.6081
G01 X-1.6896 Y8.5196
G01 X-1.6963 Y8.4986
G01 X-1.7023 Y8.4771
G01 X-1.7240 Y8.3905
G01 X-1.7312 Y8.3563
G01 X-1.7343 Y8.3374
G01 X-1.7469 Y8.2528
G01 X-1.7495 Y8.2307
G01 X-1.7514 Y8.2077
G01 X-1.7559 Y8.1181
G01 X-1.7565 Y8.0922
G01 X-1.7564 Y7.2798
G01 X-1.7559 Y7.2614
G01 X-1.7519 Y7.1805
G01 X-1.7499 Y7.1536
G01 X-1.7465 Y7.1249
G01 X-1.7331 Y7.0345
G01 X-1.7289 Y7.0119
G01 X-1.7242 Y6.9902
G01 X-1.7034 Y6.9072
G01 X-1.6985 Y6.8891
G01 X-1.6880 Y6.8558
G01 X-1.6591 Y6.7748
G01 X-1.6506 Y6.7526
G01 X-1.6417 Y6.7317
G01 X-1.6029 Y6.6494
G01 X-1.5899 Y6.6235
G01 X-1.5749 Y6.5969
G01 X-1.5312 Y6.5240
G01 X-1.5128 Y6.4958
G01 X-1.5014 Y6.4797
G01 X-1.4514 Y6.4124
G01 X-1.4408 Y6.3986
G01 X-1.4289 Y6.3842
G01 X-1.4164 Y6.3698
G01 X-1.3611 Y6.3088
G01 X-1.3382 Y6.2851
G01 X-1.3215 Y6.2692
G01 X-1.2587 Y6.2123
G01 X-1.2430 Y6.1988
G01 X-1.2276 Y6.1863
G01 X-3.0850 Y6.1863
G01 X-5.1024 Y8.2037
G01 X-4.8590 Y8.1029
G01 X-2.8764 Y8.1029
G01 X-2.8526 Y8.1033
G01 X-2.8224 Y8.1047
G01 X-2.7944 Y8.1069
G01 X-2.5619 Y8.1298
G01 X-2.5381 Y8.1326
G01 X-2.5053 Y8.1378
G01 X-2.4593 Y8.1469
G01 X-2.4316 Y8.1534
G01 X-2.4036 Y8.1611
G01 X-2.1721 Y8.2314
G01 X-2.1369 Y8.2438
G01 X-2.0951 Y8.2608
G01 X-2.0660 Y8.2736
G01 X-2.0381 Y8.2875
G01 X-1.8250 Y8.4014
G01 X-1.8295 Y8.3794
G01 X-1.8335 Y8.3560
G01 X-1.8462 Y8.2707
G01 X-1.8495 Y8.2437
G01 X-1.8513 Y8.2243
G01 X-1.8526 Y8.2048
G01 X-1.8567 Y8.1209
G01 X-1.8574 Y8.0928
G01 X-1.8572 Y7.2739
G01 X-1.8525 Y7.1742
G01 X-1.8502 Y7.1432
G01 X-1.8464 Y7.1108
G01 X-1.8325 Y7.0178
G01 X-1.8272 Y6.9889
G01 X-1.8205 Y6.9598
G01 X-1.7983 Y6.8716
G01 X-1.7924 Y6.8509
G01 X-1.7851 Y6.8279
G01 X-1.7536 Y6.7395
G01 X-1.7425 Y6.7109
G01 X-1.7297 Y6.6816
G01 X-1.6913 Y6.6004
G01 X-1.6776 Y6.5737
G01 X-1.6637 Y6.5490
G01 X-1.6173 Y6.4716
G01 X-1.5984 Y6.4423
G01 X-1.5826 Y6.4200
G01 X-1.5249 Y6.3425
G01 X-1.5037 Y6.3164
G01 X-1.4786 Y6.2883
G01 X-3.0432 Y6.2872
G01 X-4.8590 Y8.1029
G01 X-4.6155 Y8.0020
G01 X-2.8767 Y8.0020
G01 X-2.8430 Y8.0027
G01 X-2.8122 Y8.0043
G01 X-2.7880 Y8.0062
G01 X-2.5368 Y8.0311
G01 X-2.5107 Y8.0346
G01 X-2.4855 Y8.0388
G01 X-2.4434 Y8.0471
G01 X-2.4162 Y8.0533
G01 X-2.3944 Y8.0589
G01 X-2.3723 Y8.0652
G01 X-2.1528 Y8.1318
G01 X-2.1181 Y8.1433
G01 X-2.0841 Y8.1562
G01 X-2.0514 Y8.1698
G01 X-2.0313 Y8.1786
G01 X-1.9984 Y8.1945
G01 X-1.9528 Y8.2186
G01 X-1.9574 Y8.1267
G01 X-1.9582 Y8.0937
G01 X-1.9582 Y7.2851
G01 X-1.9574 Y7.2532
G01 X-1.9526 Y7.1579
G01 X-1.9498 Y7.1251
G01 X-1.9456 Y7.0922
G01 X-1.9330 Y7.0077
G01 X-1.9269 Y6.9731
G01 X-1.9197 Y6.9406
G01 X-1.8989 Y6.8578
G01 X-1.8907 Y6.8276
G01 X-1.8818 Y6.7990
G01 X-1.8456 Y6.6976
G01 X-1.8356 Y6.6721
G01 X-1.8237 Y6.6446
G01 X-1.7839 Y6.5604
G01 X-1.7703 Y6.5333
G01 X-1.7592 Y6.5128
G01 X-1.7477 Y6.4929
G01 X-1.7033 Y6.4190
G01 X-1.6841 Y6.3890
G01 X-3.0015 Y6.3880
G01 X-4.6155 Y8.0020
G01 X-4.3720 Y7.9012
G01 X-2.8569 Y7.9014
G01 X-2.8159 Y7.9031
G01 X-2.7833 Y7.9054
G01 X-2.5414 Y7.9292
G01 X-2.4996 Y7.9343
G01 X-2.4783 Y7.9377
G01 X-2.4556 Y7.9419
G01 X-2.4230 Y7.9484
G01 X-2.4005 Y7.9533
G01 X-2.3765 Y7.9593
G01 X-2.3509 Y7.9664
G01 X-2.1188 Y8.0367
G01 X-2.0889 Y8.0467
G01 X-2.0591 Y8.0577
G01 X-2.0590 Y7.2805
G01 X-2.0581 Y7.2488
G01 X-2.0536 Y7.1574
G01 X-2.0513 Y7.1265
G01 X-2.0480 Y7.0966
G01 X-2.0327 Y6.9921
G01 X-2.0289 Y6.9699
G01 X-2.0246 Y6.9477
G01 X-2.0176 Y6.9164
G01 X-1.9965 Y6.8321
G01 X-1.9904 Y6.8094
G01 X-1.9841 Y6.7878
G01 X-1.9730 Y6.7543
G01 X-1.9445 Y6.6743
G01 X-1.9291 Y6.6345
G01 X-1.9205 Y6.6141
G01 X-1.9112 Y6.5936
G01 X-1.8747 Y6.5165
G01 X-1.8618 Y6.4907
G01 X-2.9598 Y6.4889
G01 X-4.3720 Y7.9012
G01 X-4.1286 Y7.8003
G01 X-2.8693 Y7.8004
G01 X-2.8434 Y7.8009
G01 X-2.8145 Y7.8022
G01 X-2.7712 Y7.8052
G01 X-2.5264 Y7.8293
G01 X-2.4974 Y7.8328
G01 X-2.4657 Y7.8376
G01 X-2.4389 Y7.8424
G01 X-2.3962 Y7.8510
G01 X-2.3707 Y7.8568
G01 X-2.3465 Y7.8629
G01 X-2.3152 Y7.8718
G01 X-2.1611 Y7.9185
G01 X-2.1598 Y7.2757
G01 X-2.1589 Y7.2445
G01 X-2.1546 Y7.1571
G01 X-2.1529 Y7.1314
G01 X-2.1504 Y7.1045
G01 X-2.1451 Y7.0623
G01 X-2.1325 Y6.9777
G01 X-2.1268 Y6.9445
G01 X-2.1220 Y6.9210
G01 X-2.1173 Y6.8999
G01 X-2.0946 Y6.8089
G01 X-2.0837 Y6.7691
G01 X-2.0714 Y6.7301
G01 X-2.0371 Y6.6341
G01 X-2.0217 Y6.5943
G01 X-2.9182 Y6.5900
G01 X-4.1286 Y7.8003
G01 X-3.8851 Y7.6995
G01 X-2.8748 Y7.6995
G01 X-2.8435 Y7.7000
G01 X-2.8077 Y7.7015
G01 X-2.7838 Y7.7030
G01 X-2.7590 Y7.7051
G01 X-2.5226 Y7.7283
G01 X-2.4941 Y7.7315
G01 X-2.4673 Y7.7352
G01 X-2.4216 Y7.7430
G01 X-2.3834 Y7.7506
G01 X-2.3581 Y7.7561
G01 X-2.3124 Y7.7676
G01 X-2.2617 Y7.7826
G01 X-2.2606 Y7.2737
G01 X-2.2597 Y7.2406
G01 X-2.2555 Y7.1561
G01 X-2.2526 Y7.1136
G01 X-2.2492 Y7.0801
G01 X-2.2449 Y7.0478
G01 X-2.2309 Y6.9546
G01 X-2.2270 Y6.9319
G01 X-2.2223 Y6.9076
G01 X-2.2135 Y6.8688
G01 X-2.1889 Y6.7709
G01 X-2.1787 Y6.7347
G01 X-2.1671 Y6.6982
G01 X-2.8769 Y6.6912
G01 X-3.8851 Y7.6995
G01 X-3.6417 Y7.5987
G01 X-2.8753 Y7.5987
G01 X-2.8255 Y7.5997
G01 X-2.7864 Y7.6018
G01 X-2.7529 Y7.6044
G01 X-2.4951 Y7.6299
G01 X-2.4637 Y7.6339
G01 X-2.4326 Y7.6386
G01 X-2.4042 Y7.6437
G01 X-2.3623 Y7.6520
G01 X-2.3615 Y7.2718
G01 X-2.3602 Y7.2323
G01 X-2.3561 Y7.1484
G01 X-2.3546 Y7.1236
G01 X-2.3514 Y7.0876
G01 X-2.3474 Y7.0528
G01 X-2.3293 Y6.9313
G01 X-2.3238 Y6.9011
G01 X-2.3176 Y6.8711
G01 X-2.3115 Y6.8449
G01 X-2.3000 Y6.7986
G01 X-2.8356 Y6.7926
G01 X-3.6417 Y7.5987
G01 X-3.3982 Y7.4978
G01 X-2.8751 Y7.4978
G01 X-2.8298 Y7.4986
G01 X-2.7821 Y7.5010
G01 X-2.7438 Y7.5039
G01 X-2.5011 Y7.5278
G01 X-2.4638 Y7.5321
G01 X-2.4622 Y7.2644
G01 X-2.4611 Y7.2297
G01 X-2.4563 Y7.1334
G01 X-2.4528 Y7.0880
G01 X-2.4478 Y7.0429
G01 X-2.4322 Y6.9364
G01 X-2.4259 Y6.8981
G01 X-2.7943 Y6.8939
G01 X-3.3982 Y7.4978
G01 X-3.1547 Y7.3970
G01 X-2.8728 Y7.3970
G01 X-2.8205 Y7.3981
G01 X-2.7793 Y7.4001
G01 X-2.7411 Y7.4029
G01 X-2.5655 Y7.4201
G01 X-2.5627 Y7.2496
G01 X-2.5575 Y7.1371
G01 X-2.5552 Y7.1021
G01 X-2.5521 Y7.0673
G01 X-2.5481 Y7.0326
G01 X-2.5434 Y6.9985
G01 X-2.7531 Y6.9954
G01 X-3.1547 Y7.3970
G01 X-2.9113 Y7.2961
G01 X-2.8455 Y7.2964
G01 X-2.8166 Y7.2973
G01 X-2.7856 Y7.2988
G01 X-2.7361 Y7.3021
G01 X-2.6645 Y7.3090
G01 X-2.6638 Y7.2596
G01 X-2.6629 Y7.2284
G01 X-2.6582 Y7.1319
G01 X-2.6560 Y7.0977
G01 X-2.7120 Y7.0968
G01 X-2.9113 Y7.2961
G00 Z2.0000
G00 X0.0036 Y6.4454
G01 F25.00
G01 Z-0.0450
G01 F45.00
G01 X0.0138 Y6.4496
G01 X0.0897 Y6.4856
G01 X0.1618 Y6.5287
G01 X0.1710 Y6.5348
G01 X0.2383 Y6.5850
G01 X0.3007 Y6.6413
G01 X0.3085 Y6.6491
G01 X0.3648 Y6.7114
G01 X0.4149 Y6.7788
G01 X0.4210 Y6.7879
G01 X0.4641 Y6.8601
G01 X0.5001 Y6.9359
G01 X0.5044 Y6.9461
G01 X0.5325 Y7.0252
G01 X0.5543 Y7.1121
G01 X0.5674 Y7.2006
G01 X0.5718 Y7.2873
G01 X0.5718 Y8.0900
G01 X0.5674 Y8.1794
G01 X0.5552 Y8.2625
G01 X0.5531 Y8.2733
G01 X0.5325 Y8.3548
G01 X0.5044 Y8.4339
G01 X0.5001 Y8.4441
G01 X0.4641 Y8.5199
G01 X0.4210 Y8.5921
G01 X0.4149 Y8.6012
G01 X0.3648 Y8.6686
G01 X0.3085 Y8.7309
G01 X0.3007 Y8.7387
G01 X0.2425 Y8.7914
G01 X0.2340 Y8.7984
G01 X0.1665 Y8.8483
G01 X0.0897 Y8.8944
G01 X0.0088 Y8.9326
G01 X-0.0703 Y8.9611
G01 X-0.0808 Y8.9642
G01 X-0.1570 Y8.9833
G01 X-0.1677 Y8.9855
G01 X-0.2509 Y8.9977
G01 X-0.3403 Y9.0020
G01 X-0.4242 Y8.9981
G01 X-0.4351 Y8.9970
G01 X-0.5182 Y8.9845
G01 X-0.5997 Y8.9642
G01 X-0.6102 Y8.9611
G01 X-0.6841 Y8.9346
G01 X-0.6943 Y8.9304
G01 X-0.7702 Y8.8944
G01 X-0.8470 Y8.8483
G01 X-0.9188 Y8.7950
G01 X-0.9812 Y8.7387
G01 X-0.9890 Y8.7309
G01 X-1.0453 Y8.6686
G01 X-1.0954 Y8.6012
G01 X-1.1015 Y8.5921
G01 X-1.1446 Y8.5199
G01 X-1.1829 Y8.4390
G01 X-1.2130 Y8.3548
G01 X-1.2336 Y8.2733
G01 X-1.2357 Y8.2625
G01 X-1.2472 Y8.1849
G01 X-1.2483 Y8.1739
G01 X-1.2523 Y8.0900
G01 X-1.2523 Y7.2900
G01 X-1.2483 Y7.2061
G01 X-1.2472 Y7.1951
G01 X-1.2348 Y7.1121
G01 X-1.2145 Y7.0305
G01 X-1.2113 Y7.0200
G01 X-1.1829 Y6.9410
G01 X-1.1471 Y6.8650
G01 X-1.1419 Y6.8553
G01 X-1.0986 Y6.7833
G01 X-1.0470 Y6.7135
G01 X-1.0417 Y6.7072
G01 X-0.9890 Y6.6491
G01 X-0.9812 Y6.6413
G01 X-0.9188 Y6.5850
G01 X-0.8470 Y6.5317
G01 X-0.7702 Y6.4856
G01 X-0.6943 Y6.4496
G01 X-0.6841 Y6.4454
G01 X-0.6102 Y6.4189
G01 X-0.5997 Y6.4158
G01 X-0.5182 Y6.3955
G01 X-0.4296 Y6.3823
G01 X-0.3403 Y6.3780
G01 X-0.2563 Y6.3819
G01 X-0.2454 Y6.3830
G01 X-0.1677 Y6.3945
G01 X-0.1570 Y6.3967
G01 X-0.0755 Y6.4172
G01 X0.0036 Y6.4454
G01 X0.0376 Y6.3504
G01 X0.0569 Y6.3584
G01 X0.1290 Y6.3925
G01 X0.1453 Y6.4012
G01 X0.2137 Y6.4422
G01 X0.2235 Y6.4485
G01 X0.2941 Y6.5006
G01 X0.3033 Y6.5078
G01 X0.3684 Y6.5666
G01 X0.3768 Y6.5747
G01 X0.4359 Y6.6395
G01 X0.4435 Y6.6484
G01 X0.4959 Y6.7187
G01 X0.5026 Y6.7283
G01 X0.5479 Y6.8034
G01 X0.5536 Y6.8136
G01 X0.5951 Y6.9012
G01 X0.5993 Y6.9121
G01 X0.6287 Y6.9948
G01 X0.6318 Y7.0060
G01 X0.6512 Y7.0834
G01 X0.6550 Y7.1027
G01 X0.6665 Y7.1803
G01 X0.6679 Y7.1920
G01 X0.6724 Y7.2808
G01 X0.6726 Y8.0912
G01 X0.6685 Y8.1801
G01 X0.6665 Y8.1997
G01 X0.6550 Y8.2773
G01 X0.6529 Y8.2888
G01 X0.6294 Y8.3828
G01 X0.6258 Y8.3939
G01 X0.5989 Y8.4690
G01 X0.5913 Y8.4872
G01 X0.5536 Y8.5664
G01 X0.5479 Y8.5766
G01 X0.5075 Y8.6439
G01 X0.4967 Y8.6603
G01 X0.4492 Y8.7243
G01 X0.4419 Y8.7335
G01 X0.3823 Y8.7996
G01 X0.3684 Y8.8134
G01 X0.3102 Y8.8662
G01 X0.3014 Y8.8738
G01 X0.2300 Y8.9269
G01 X0.2147 Y8.9371
G01 X0.1463 Y8.9781
G01 X0.1290 Y8.9875
G01 X0.0569 Y9.0216
G01 X0.0462 Y9.0263
G01 X-0.0450 Y9.0589
G01 X-0.0563 Y9.0621
G01 X-0.1414 Y9.0832
G01 X-0.1529 Y9.0852
G01 X-0.2306 Y9.0967
G01 X-0.2502 Y9.0987
G01 X-0.3298 Y9.1026
G01 X-0.3507 Y9.1026
G01 X-0.4291 Y9.0988
G01 X-0.4408 Y9.0979
G01 X-0.5276 Y9.0852
G01 X-0.5391 Y9.0832
G01 X-0.6242 Y9.0621
G01 X-0.6355 Y9.0589
G01 X-0.7267 Y9.0263
G01 X-0.7374 Y9.0216
G01 X-0.8166 Y8.9839
G01 X-0.8268 Y8.9781
G01 X-0.8942 Y8.9378
G01 X-0.9115 Y8.9262
G01 X-0.9756 Y8.8787
G01 X-0.9907 Y8.8662
G01 X-1.0489 Y8.8134
G01 X-1.0573 Y8.8053
G01 X-1.1164 Y8.7405
G01 X-1.1272 Y8.7275
G01 X-1.1817 Y8.6538
G01 X-1.1880 Y8.6439
G01 X-1.2284 Y8.5766
G01 X-1.2377 Y8.5593
G01 X-1.2718 Y8.4872
G01 X-1.2765 Y8.4765
G01 X-1.3067 Y8.3928
G01 X-1.3123 Y8.3740
G01 X-1.3314 Y8.2978
G01 X-1.3339 Y8.2864
G01 X-1.3475 Y8.1957
G01 X-1.3490 Y8.1789
G01 X-1.3531 Y8.0900
G01 X-1.3531 Y7.2860
G01 X-1.3490 Y7.2011
G01 X-1.3481 Y7.1895
G01 X-1.3355 Y7.1027
G01 X-1.3334 Y7.0912
G01 X-1.3099 Y6.9972
G01 X-1.3063 Y6.9861
G01 X-1.2798 Y6.9121
G01 X-1.2723 Y6.8940
G01 X-1.2382 Y6.8219
G01 X-1.2330 Y6.8114
G01 X-1.1831 Y6.7283
G01 X-1.1764 Y6.7187
G01 X-1.1289 Y6.6547
G01 X-1.1172 Y6.6404
G01 X-1.0637 Y6.5813
G01 X-1.0489 Y6.5666
G01 X-0.9907 Y6.5138
G01 X-0.9819 Y6.5062
G01 X-0.9115 Y6.4538
G01 X-0.9020 Y6.4471
G01 X-0.8188 Y6.3973
G01 X-0.8084 Y6.3920
G01 X-0.7374 Y6.3584
G01 X-0.7181 Y6.3504
G01 X-0.6430 Y6.3236
G01 X-0.6254 Y6.3182
G01 X-0.5481 Y6.2989
G01 X-0.5366 Y6.2963
G01 X-0.4408 Y6.2821
G01 X-0.4291 Y6.2812
G01 X-0.3507 Y6.2774
G01 X-0.3390 Y6.2771
G01 X-0.2502 Y6.2813
G01 X-0.2306 Y6.2833
G01 X-0.1439 Y6.2963
G01 X-0.1324 Y6.2989
G01 X-0.0563 Y6.3179
G01 X-0.0375 Y6.3236
G01 X0.0376 Y6.3504
G01 X0.0716 Y6.2555
G01 X0.0848 Y6.2606
G01 X0.0978 Y6.2662
G01 X0.1826 Y6.3066
G01 X0.1982 Y6.3154
G01 X0.2660 Y6.3560
G01 X0.2775 Y6.3633
G01 X0.2911 Y6.3728
G01 X0.3644 Y6.4275
G01 X0.3780 Y6.4391
G01 X0.4455 Y6.5007
G01 X0.4575 Y6.5132
G01 X0.5110 Y6.5723
G01 X0.5270 Y6.5914
G01 X0.5769 Y6.6586
G01 X0.5865 Y6.6723
G01 X0.5940 Y6.6842
G01 X0.6353 Y6.7532
G01 X0.6444 Y6.7696
G01 X0.6835 Y6.8520
G01 X0.6882 Y6.8626
G01 X0.6934 Y6.8758
G01 X0.7209 Y6.9527
G01 X0.7259 Y6.9679
G01 X0.7295 Y6.9809
G01 X0.7493 Y7.0601
G01 X0.7523 Y7.0739
G01 X0.7547 Y7.0879
G01 X0.7666 Y7.1680
G01 X0.7690 Y7.1910
G01 X0.7731 Y7.2746
G01 X0.7735 Y7.2894
G01 X0.7734 Y8.0989
G01 X0.7690 Y8.1890
G01 X0.7679 Y8.2016
G01 X0.7662 Y8.2144
G01 X0.7546 Y8.2927
G01 X0.7518 Y8.3085
G01 X0.7489 Y8.3217
G01 X0.7295 Y8.3991
G01 X0.7259 Y8.4121
G01 X0.7215 Y8.4256
G01 X0.6896 Y8.5139
G01 X0.6825 Y8.5303
G01 X0.6486 Y8.6018
G01 X0.6408 Y8.6172
G01 X0.5940 Y8.6958
G01 X0.5865 Y8.7077
G01 X0.5773 Y8.7209
G01 X0.5290 Y8.7859
G01 X0.5141 Y8.8043
G01 X0.4579 Y8.8664
G01 X0.4482 Y8.8767
G01 X0.4366 Y8.8877
G01 X0.3775 Y8.9413
G01 X0.3653 Y8.9517
G01 X0.3547 Y8.9600
G01 X0.2911 Y9.0072
G01 X0.2795 Y9.0153
G01 X0.2655 Y9.0243
G01 X0.1869 Y9.0711
G01 X0.1716 Y9.0789
G01 X0.1000 Y9.1127
G01 X0.0871 Y9.1185
G01 X0.0716 Y9.1245
G01 X-0.0073 Y9.1527
G01 X-0.0300 Y9.1594
G01 X-0.1085 Y9.1791
G01 X-0.1242 Y9.1826
G01 X-0.1381 Y9.1850
G01 X-0.2286 Y9.1981
G01 X-0.2458 Y9.1995
G01 X-0.3267 Y9.2034
G01 X-0.3415 Y9.2037
G01 X-0.3556 Y9.2034
G01 X-0.4347 Y9.1995
G01 X-0.4519 Y9.1981
G01 X-0.5424 Y9.1850
G01 X-0.5600 Y9.1818
G01 X-0.6511 Y9.1593
G01 X-0.6647 Y9.1554
G01 X-0.6776 Y9.1512
G01 X-0.7527 Y9.1243
G01 X-0.7653 Y9.1194
G01 X-0.7800 Y9.1130
G01 X-0.8515 Y9.0792
G01 X-0.8642 Y9.0728
G01 X-0.8765 Y9.0659
G01 X-0.9569 Y9.0174
G01 X-0.9716 Y9.0072
G01 X-1.0352 Y8.9600
G01 X-1.0478 Y8.9501
G01 X-1.0580 Y8.9413
G01 X-1.1180 Y8.8869
G01 X-1.1287 Y8.8767
G01 X-1.1380 Y8.8668
G01 X-1.1915 Y8.8077
G01 X-1.2004 Y8.7975
G01 X-1.2103 Y8.7849
G01 X-1.2574 Y8.7214
G01 X-1.2656 Y8.7098
G01 X-1.2732 Y8.6979
G01 X-1.3213 Y8.6172
G01 X-1.3294 Y8.6013
G01 X-1.3632 Y8.5297
G01 X-1.3697 Y8.5151
G01 X-1.3745 Y8.5024
G01 X-1.4012 Y8.4279
G01 X-1.4064 Y8.4121
G01 X-1.4100 Y8.3991
G01 X-1.4292 Y8.3223
G01 X-1.4323 Y8.3085
G01 X-1.4352 Y8.2921
G01 X-1.4468 Y8.2138
G01 X-1.4485 Y8.2004
G01 X-1.4497 Y8.1844
G01 X-1.4537 Y8.1035
G01 X-1.4540 Y8.0900
G01 X-1.4539 Y7.2835
G01 X-1.4497 Y7.1956
G01 X-1.4484 Y7.1784
G01 X-1.4349 Y7.0861
G01 X-1.4328 Y7.0739
G01 X-1.4297 Y7.0595
G01 X-1.4100 Y6.9809
G01 X-1.4064 Y6.9679
G01 X-1.4014 Y6.9527
G01 X-1.3745 Y6.8776
G01 X-1.3697 Y6.8649
G01 X-1.3638 Y6.8514
G01 X-1.3291 Y6.7782
G01 X-1.3231 Y6.7661
G01 X-1.3152 Y6.7521
G01 X-1.2736 Y6.6827
G01 X-1.2656 Y6.6702
G01 X-1.2585 Y6.6601
G01 X-1.2103 Y6.5951
G01 X-1.2020 Y6.5844
G01 X-1.1915 Y6.5723
G01 X-1.1380 Y6.5132
G01 X-1.1287 Y6.5033
G01 X-1.1180 Y6.4931
G01 X-1.0580 Y6.4387
G01 X-1.0478 Y6.4299
G01 X-1.0352 Y6.4200
G01 X-0.9701 Y6.3717
G01 X-0.9600 Y6.3647
G01 X-0.9476 Y6.3567
G01 X-0.8781 Y6.3150
G01 X-0.8664 Y6.3084
G01 X-0.8521 Y6.3011
G01 X-0.7800 Y6.2670
G01 X-0.7676 Y6.2615
G01 X-0.7538 Y6.2561
G01 X-0.6776 Y6.2288
G01 X-0.6647 Y6.2246
G01 X-0.6487 Y6.2201
G01 X-0.5720 Y6.2009
G01 X-0.5587 Y6.1979
G01 X-0.5430 Y6.1951
G01 X-0.4641 Y6.1834
G01 X-0.4482 Y6.1815
G01 X-0.4341 Y6.1805
G01 X-0.3504 Y6.1764
G01 X-0.3267 Y6.1766
G01 X-0.2458 Y6.1805
G01 X-0.2299 Y6.1818
G01 X-0.2164 Y6.1834
G01 X-0.1381 Y6.1950
G01 X-0.1242 Y6.1974
G01 X-0.1079 Y6.2010
G01 X-0.0193 Y6.2235
G01 X-0.0029 Y6.2288
G01 X0.0716 Y6.2555
G01 X0.1873 Y6.0854
G01 X0.2613 Y6.1205
G01 X0.2877 Y6.1342
G01 X0.3758 Y6.1867
G01 X0.3924 Y6.1975
G01 X0.4084 Y6.2087
G01 X0.4812 Y6.2628
G01 X0.4962 Y6.2747
G01 X0.5108 Y6.2873
G01 X0.5726 Y6.3433
G01 X0.5873 Y6.3572
G01 X0.6044 Y6.3750
G01 X0.6443 Y6.4190
G01 X0.6443 Y6.2835
G01 X0.4463 Y6.0854
G01 X0.1873 Y6.0854
G00 Z2.0000
G00 X0.7892 Y8.5357
G01 F25.00
G01 Z-0.0450
G01 F45.00
G01 X0.7823 Y8.5537
G01 X0.7736 Y8.5734
G01 X0.7370 Y8.6507
G01 X0.7362 Y8.6524
G01 X0.7350 Y8.6546
G01 X0.7339 Y8.6568
G01 X0.7294 Y8.6653
G01 X0.7214 Y8.6795
G01 X0.6791 Y8.7500
G01 X0.6660 Y8.7701
G01 X0.6091 Y8.8472
G01 X0.5998 Y8.8591
G01 X0.5896 Y8.8711
G01 X0.5318 Y8.9350
G01 X0.5173 Y8.9501
G01 X0.5045 Y8.9622
G01 X0.4457 Y9.0156
G01 X0.4293 Y9.0297
G01 X0.4142 Y9.0414
G01 X0.3504 Y9.0887
G01 X0.3361 Y9.0989
G01 X0.3184 Y9.1101
G01 X0.2427 Y9.1554
G01 X1.1649 Y9.1554
G01 X1.1470 Y9.1405
G01 X1.1311 Y9.1259
G01 X1.1030 Y9.0978
G01 X1.0861 Y9.0790
G01 X0.9834 Y8.9537
G01 X0.9682 Y8.9327
G01 X0.9516 Y8.9079
G01 X0.9432 Y8.8946
G01 X0.9327 Y8.8761
G01 X0.8644 Y8.7485
G01 X0.8570 Y8.7339
G01 X0.8500 Y8.7185
G01 X0.8355 Y8.6835
G01 X0.8279 Y8.6626
G01 X0.7892 Y8.5357
G01 X0.5529 Y9.0545
G01 X0.9355 Y9.0546
G01 X0.9098 Y9.0232
G01 X0.8959 Y9.0051
G01 X0.8835 Y8.9875
G01 X0.8598 Y8.9514
G01 X0.8442 Y8.9245
G01 X0.7725 Y8.7903
G01 X0.7582 Y8.8136
G01 X0.7440 Y8.8345
G01 X0.6903 Y8.9070
G01 X0.6742 Y8.9274
G01 X0.6605 Y8.9432
G01 X0.5979 Y9.0120
G01 X0.5793 Y9.0305
G01 X0.5529 Y9.0545
G01 X1.4911 Y9.2563
G01 X1.3942 Y9.2043
G01 X1.3799 Y9.1956
G01 X1.3510 Y9.1763
G01 X1.3311 Y9.1613
G01 X1.2162 Y9.0669
G01 X1.1978 Y9.0500
G01 X1.1765 Y9.0287
G01 X1.1661 Y9.0173
G01 X1.0655 Y8.8951
G01 X1.0508 Y8.8749
G01 X1.0341 Y8.8498
G01 X1.0255 Y8.8356
G01 X0.9535 Y8.7012
G01 X0.9447 Y8.6833
G01 X0.9294 Y8.6466
G01 X0.9229 Y8.6286
G01 X0.8780 Y8.4807
G01 X0.8748 Y8.4685
G01 X0.8720 Y8.4559
G01 X0.8661 Y8.4257
G01 X0.8634 Y8.4080
G01 X0.8479 Y8.2514
G01 X0.8461 Y8.2156
G01 X0.8460 Y6.2000
G01 X0.5298 Y5.8837
G01 X-3.2103 Y5.8837
G01 X-5.8631 Y8.5366
G01 X-5.8460 Y8.5334
G01 X-5.8301 Y8.5314
G01 X-5.5967 Y8.5084
G01 X-5.5814 Y8.5072
G01 X-5.5538 Y8.5063
G01 X-2.8742 Y8.5063
G01 X-2.8491 Y8.5072
G01 X-2.8344 Y8.5083
G01 X-2.6022 Y8.5312
G01 X-2.5818 Y8.5339
G01 X-2.5428 Y8.5415
G01 X-2.5231 Y8.5464
G01 X-2.3006 Y8.6139
G01 X-2.2771 Y8.6221
G01 X-2.2438 Y8.6359
G01 X-2.2241 Y8.6454
G01 X-2.0216 Y8.7536
G01 X-2.0001 Y8.7663
G01 X-1.9712 Y8.7856
G01 X-1.9549 Y8.7977
G01 X-1.7662 Y8.9525
G01 X-1.7536 Y8.9634
G01 X-1.7434 Y8.9732
G01 X-1.4603 Y9.2563
G01 X1.4911 Y9.2563
G01 X3.1546 Y9.1554
G01 X3.9149 Y9.1554
G01 X3.8970 Y9.1405
G01 X3.8811 Y9.1259
G01 X3.8763 Y9.1211
G01 X3.8760 Y9.1209
G01 X3.8588 Y9.1037
G01 X3.8530 Y9.0978
G01 X3.8361 Y9.0790
G01 X3.7334 Y8.9537
G01 X3.7173 Y8.9315
G01 X3.7011 Y8.9071
G01 X3.6916 Y8.8920
G01 X3.6824 Y8.8756
G01 X3.6137 Y8.7471
G01 X3.6062 Y8.7322
G01 X3.5984 Y8.7148
G01 X3.5851 Y8.6823
G01 X3.5771 Y8.6603
G01 X3.5348 Y8.5209
G01 X3.4924 Y8.6603
G01 X3.4844 Y8.6824
G01 X3.4711 Y8.7148
G01 X3.4643 Y8.7300
G01 X3.4558 Y8.7471
G01 X3.3871 Y8.8756
G01 X3.3779 Y8.8920
G01 X3.3684 Y8.9071
G01 X3.3522 Y8.9315
G01 X3.3361 Y8.9537
G01 X3.2334 Y9.0790
G01 X3.2165 Y9.0978
G01 X3.1884 Y9.1259
G01 X3.1725 Y9.1405
G01 X3.1546 Y9.1554
G01 X3.3840 Y9.0546
G01 X3.6855 Y9.0546
G01 X3.6598 Y9.0232
G01 X3.6461 Y9.0054
G01 X3.6337 Y8.9879
G01 X3.6111 Y8.9535
G01 X3.5950 Y8.9260
G01 X3.5348 Y8.8134
G01 X3.4745 Y8.9260
G01 X3.4584 Y8.9536
G01 X3.4358 Y8.9879
G01 X3.4234 Y9.0054
G01 X3.4097 Y9.0232
G01 X3.3840 Y9.0546
G01 X5.3284 Y9.2563
G01 X8.0298 Y9.2563
G01 X9.8458 Y7.4403
G01 X9.8458 Y4.2887
G01 X9.7561 Y4.5051
G01 X9.7493 Y4.5200
G01 X9.7348 Y4.5485
G01 X9.7260 Y4.5638
G01 X9.5872 Y4.7903
G01 X9.5749 Y4.8085
G01 X9.5601 Y4.8287
G01 X9.5499 Y4.8416
G01 X9.3740 Y5.0476
G01 X9.3560 Y5.0674
G01 X8.8266 Y5.5968
G01 X8.8029 Y5.6188
G01 X8.6313 Y5.7653
G01 X8.6156 Y5.7777
G01 X8.5889 Y5.7970
G01 X8.5773 Y5.8044
G01 X8.3903 Y5.9190
G01 X8.3755 Y5.9274
G01 X8.3482 Y5.9413
G01 X8.3308 Y5.9491
G01 X8.1276 Y6.0333
G01 X8.1076 Y6.0406
G01 X8.0832 Y6.0485
G01 X8.0715 Y6.0518
G01 X7.8481 Y6.1055
G01 X7.8349 Y6.1081
G01 X7.8095 Y6.1122
G01 X7.7857 Y6.1150
G01 X7.5594 Y6.1328
G01 X7.5416 Y6.1337
G01 X7.0397 Y6.1337
G01 X6.9458 Y6.2277
G01 X6.9695 Y6.2206
G01 X7.0600 Y6.1982
G01 X7.0776 Y6.1950
G01 X7.1681 Y6.1819
G01 X7.1859 Y6.1805
G01 X7.2773 Y6.1763
G01 X7.2945 Y6.1766
G01 X7.3736 Y6.1805
G01 X7.3865 Y6.1814
G01 X7.3990 Y6.1828
G01 X7.4819 Y6.1950
G01 X7.4958 Y6.1974
G01 X7.5121 Y6.2010
G01 X7.5900 Y6.2206
G01 X7.6080 Y6.2258
G01 X7.6939 Y6.2563
G01 X7.7071 Y6.2615
G01 X7.7184 Y6.2665
G01 X7.7916 Y6.3011
G01 X7.8069 Y6.3089
G01 X7.8182 Y6.3154
G01 X7.8855 Y6.3557
G01 X7.9006 Y6.3653
G01 X7.9742 Y6.4196
G01 X7.9873 Y6.4299
G01 X7.9975 Y6.4387
G01 X8.0561 Y6.4918
G01 X8.0682 Y6.5033
G01 X8.0775 Y6.5132
G01 X8.1306 Y6.5718
G01 X8.1415 Y6.5844
G01 X8.1498 Y6.5951
G01 X8.1969 Y6.6586
G01 X8.2051 Y6.6702
G01 X8.2140 Y6.6842
G01 X8.2547 Y6.7521
G01 X8.2614 Y6.7639
G01 X8.2689 Y6.7787
G01 X8.3067 Y6.8590
G01 X8.3140 Y6.8776
G01 X8.3448 Y6.9643
G01 X8.3495 Y6.9809
G01 X8.3689 Y7.0583
G01 X8.3723 Y7.0739
G01 X8.3747 Y7.0879
G01 X8.3866 Y7.1680
G01 X8.3882 Y7.1821
G01 X8.3891 Y7.1937
G01 X8.3931 Y7.2752
G01 X8.3935 Y7.2894
G01 X8.3935 Y8.0900
G01 X8.3931 Y8.1048
G01 X8.3893 Y8.1838
G01 X8.3876 Y8.2044
G01 X8.3747 Y8.2921
G01 X8.3723 Y8.3061
G01 X8.3689 Y8.3217
G01 X8.3490 Y8.4009
G01 X8.3452 Y8.4145
G01 X8.3415 Y8.4256
G01 X8.3143 Y8.5018
G01 X8.3092 Y8.5151
G01 X8.3027 Y8.5297
G01 X8.2686 Y8.6018
G01 X8.2614 Y8.6161
G01 X8.2547 Y8.6279
G01 X8.2140 Y8.6958
G01 X8.2065 Y8.7077
G01 X8.1969 Y8.7214
G01 X8.1422 Y8.7946
G01 X8.1310 Y8.8077
G01 X8.0779 Y8.8664
G01 X8.0682 Y8.8767
G01 X8.0580 Y8.8865
G01 X7.9882 Y8.9494
G01 X7.9742 Y8.9604
G01 X7.9006 Y9.0147
G01 X7.8855 Y9.0243
G01 X7.8176 Y9.0650
G01 X7.8059 Y9.0716
G01 X7.7910 Y9.0792
G01 X7.7082 Y9.1180
G01 X7.6916 Y9.1245
G01 X7.6177 Y9.1510
G01 X7.6171 Y9.1512
G01 X7.6042 Y9.1554
G01 X7.5882 Y9.1599
G01 X7.5115 Y9.1791
G01 X7.4982 Y9.1821
G01 X7.4819 Y9.1850
G01 X7.4036 Y9.1966
G01 X7.3901 Y9.1982
G01 X7.3736 Y9.1995
G01 X7.2945 Y9.2034
G01 X7.2810 Y9.2037
G01 X7.2644 Y9.2034
G01 X7.1853 Y9.1995
G01 X7.1718 Y9.1985
G01 X7.1553 Y9.1965
G01 X7.0770 Y9.1849
G01 X7.0637 Y9.1826
G01 X7.0474 Y9.1790
G01 X6.9707 Y9.1597
G01 X6.9553 Y9.1554
G01 X6.9424 Y9.1512
G01 X6.8679 Y9.1245
G01 X6.8524 Y9.1185
G01 X6.8400 Y9.1130
G01 X6.7685 Y9.0792
G01 X6.7536 Y9.0716
G01 X6.7419 Y9.0650
G01 X6.6740 Y9.0243
G01 X6.6695 Y9.0216
G01 X6.6685 Y9.0209
G01 X6.6664 Y9.0196
G01 X6.6600 Y9.0153
G01 X6.6489 Y9.0075
G01 X6.5853 Y8.9604
G01 X6.5722 Y8.9501
G01 X6.5620 Y8.9413
G01 X6.5029 Y8.8877
G01 X6.4886 Y8.8738
G01 X6.4289 Y8.8082
G01 X6.4196 Y8.7975
G01 X6.4097 Y8.7849
G01 X6.3611 Y8.7194
G01 X6.3530 Y8.7077
G01 X6.3468 Y8.6979
G01 X6.3051 Y8.6284
G01 X6.2981 Y8.6161
G01 X6.2909 Y8.6018
G01 X6.2568 Y8.5297
G01 X6.2503 Y8.5151
G01 X6.2455 Y8.5024
G01 X6.2188 Y8.4279
G01 X6.2136 Y8.4121
G01 X6.2100 Y8.3991
G01 X6.1908 Y8.3223
