(G-CODE GENERATED BY FLATCAM v8.994 - www.flatcam.org - Version Date: 2020/11/7)

(Name: PasaBajosActivos-B_Cu.gbr_ncc_cnc)
(Type: G-code from Geometry)
(Units: MM)

(Created on Monday, 30 September 2024 at 08:09)

(This preprocessor is the default preprocessor used by FlatCAM.)
(It is made to work with MACH3 compatible motion controllers.)

(TOOL DIAMETER: 0.2241 mm)
(Feedrate_XY: 45.0 mm/min)
(Feedrate_Z: 30.0 mm/min)
(Feedrate rapids 1500.0 mm/min)

(Z_Cut: 0.0 mm)
(Z_Move: 1.0 mm)
(Z Start: None mm)
(Z End: 15.0 mm)
(X,Y End: None mm)
(Steps per circle: 64)
(Preprocessor Geometry: default)

(X range:    1.2423 ...   22.3679  mm)
(Y range:    0.2164 ...   22.9682  mm)

(Spindle Speed: 1000.0 RPM)
G21
G90
G94

G01 F45.00

M5
G00 Z15.0000
G00 X0.0000 Y0.0000
T1
M6    
(MSG, Change to Tool Dia = 0.2241)
M0
G00 Z15.0000

M03 S1000.0
G01 F45.00
G00 X4.8449 Y0.6924
G01 F30.00
G01 Z0.0000
G01 F45.00
G01 X4.9106 Y0.7649
G01 X4.9297 Y0.7873
G01 X5.0912 Y0.9949
G01 X5.1005 Y1.0072
G01 X5.1160 Y1.0294
G01 X5.2685 Y1.2615
G01 X5.2780 Y1.2772
G01 X5.2918 Y1.3022
G01 X5.2995 Y1.3170
G01 X5.3058 Y1.3304
G01 X5.3553 Y1.2660
G01 X5.3699 Y1.2482
G01 X5.3846 Y1.2322
G01 X5.4123 Y1.2044
G01 X5.4225 Y1.1946
G01 X5.4337 Y1.1845
G01 X5.4528 Y1.1689
G01 X5.5600 Y1.0866
G01 X5.5741 Y1.0763
G01 X5.5880 Y1.0669
G01 X5.6017 Y1.0585
G01 X5.6360 Y1.0387
G01 X5.6531 Y1.0295
G01 X5.6653 Y1.0236
G01 X5.6803 Y1.0170
G01 X5.8171 Y0.9605
G01 X5.8325 Y0.9550
G01 X5.8479 Y0.9502
G01 X5.8950 Y0.9375
G01 X5.9162 Y0.9328
G01 X5.9347 Y0.9296
G01 X6.0832 Y0.9100
G01 X6.1070 Y0.9076
G01 X6.1426 Y0.9056
G01 X7.6984 Y0.9054
G01 X7.7200 Y0.9062
G01 X7.7548 Y0.9088
G01 X7.8604 Y0.9226
G01 X7.8763 Y0.9254
G01 X7.8924 Y0.9288
G01 X7.9361 Y0.9403
G01 X7.9588 Y0.9471
G01 X7.9804 Y0.9549
G01 X8.0614 Y0.9884
G01 X8.0812 Y0.9973
G01 X8.1062 Y1.0104
G01 X8.1391 Y1.0294
G01 X8.1520 Y1.0373
G01 X8.1633 Y1.0447
G01 X8.1764 Y1.0541
G01 X8.2447 Y1.1064
G01 X8.2603 Y1.1190
G01 X8.2760 Y1.1330
G01 X8.3106 Y1.1674
G01 X8.3276 Y1.1857
G01 X8.3416 Y1.2027
G01 X8.3772 Y1.2490
G01 X8.4421 Y1.0924
G01 X8.4500 Y1.0754
G01 X8.4654 Y1.0452
G01 X8.4776 Y1.0237
G01 X8.6188 Y0.7934
G01 X8.6333 Y0.7722
G01 X8.6492 Y0.7504
G01 X8.6600 Y0.7367
G01 X8.8195 Y0.5498
G01 X4.8449 Y0.6924
G01 X5.0563 Y0.7857
G01 X5.1717 Y0.9341
G01 X5.1894 Y0.9582
G01 X5.2002 Y0.9739
G01 X5.3192 Y1.1549
G01 X5.3523 Y1.1221
G01 X5.3645 Y1.1110
G01 X5.3780 Y1.0995
G01 X5.3917 Y1.0886
G01 X5.5110 Y0.9974
G01 X5.5270 Y0.9863
G01 X5.5414 Y0.9771
G01 X5.5858 Y0.9513
G01 X5.6109 Y0.9379
G01 X5.6385 Y0.9252
G01 X5.7678 Y0.8716
G01 X5.7877 Y0.8639
G01 X5.8036 Y0.8584
G01 X5.8205 Y0.8531
G01 X5.8741 Y0.8388
G01 X5.8975 Y0.8337
G01 X5.9199 Y0.8299
G01 X6.0709 Y0.8099
G01 X6.0990 Y0.8070
G01 X6.1379 Y0.8048
G01 X7.6956 Y0.8046
G01 X7.7261 Y0.8055
G01 X7.7526 Y0.8073
G01 X7.7707 Y0.8091
G01 X7.8794 Y0.8235
G01 X7.9060 Y0.8285
G01 X7.9304 Y0.8344
G01 X7.9739 Y0.8462
G01 X7.9896 Y0.8511
G01 X8.0045 Y0.8563
G01 X8.0248 Y0.8641
G01 X8.1075 Y0.8985
G01 X8.1308 Y0.9093
G01 X8.1521 Y0.9205
G01 X8.1952 Y0.9454
G01 X8.2193 Y0.9609
G01 X8.2407 Y0.9762
G01 X8.3099 Y1.0293
G01 X8.3285 Y1.0446
G01 X8.3461 Y1.0605
G01 X8.3534 Y1.0439
G01 X8.3615 Y1.0268
G01 X8.3760 Y0.9985
G01 X8.3861 Y0.9804
G01 X8.5295 Y0.7460
G01 X8.5448 Y0.7226
G01 X8.5651 Y0.6945
G01 X8.5785 Y0.6771
G01 X8.5938 Y0.6588
G01 X5.0563 Y0.7857
G01 X5.2568 Y0.8794
G01 X5.2806 Y0.9127
G01 X5.3392 Y1.0018
G01 X5.4377 Y0.9262
G01 X5.4549 Y0.9136
G01 X5.4711 Y0.9024
G01 X5.4861 Y0.8928
G01 X5.5251 Y0.8698
G01 X5.2568 Y0.8794
G00 Z1.0000
G00 X8.0808 Y0.7781
G01 F30.00
G01 Z0.0000
G01 F45.00
G01 X8.1538 Y0.8087
G01 X8.1760 Y0.8192
G01 X8.1972 Y0.8302
G01 X8.2411 Y0.8554
G01 X8.2629 Y0.8687
G01 X8.2879 Y0.8857
G01 X8.3138 Y0.9051
G01 X8.3986 Y0.7667
G01 X8.0808 Y0.7781
G01 X8.3980 Y1.4986
G01 X8.4135 Y1.4351
G01 X8.4234 Y1.4034
G01 X8.4280 Y1.3904
G01 X8.5326 Y1.1374
G01 X8.5387 Y1.1235
G01 X8.5530 Y1.0953
G01 X8.5624 Y1.0784
G01 X8.7041 Y0.8472
G01 X8.7149 Y0.8315
G01 X8.7296 Y0.8113
G01 X8.7380 Y0.8007
G01 X8.9202 Y0.5874
G01 X8.9385 Y0.5678
G01 X9.0662 Y0.4401
G01 X4.6178 Y0.5996
G01 X4.6350 Y0.6147
G01 X4.6529 Y0.6317
G01 X4.6621 Y0.6411
G01 X4.8408 Y0.8382
G01 X4.8555 Y0.8561
G01 X5.0116 Y1.0568
G01 X5.0248 Y1.0748
G01 X5.1805 Y1.3111
G01 X5.1906 Y1.3275
G01 X5.2055 Y1.3546
G01 X5.2128 Y1.3695
G01 X5.2912 Y1.5435
G01 X5.2990 Y1.5252
G01 X5.3082 Y1.5066
G01 X5.3303 Y1.4680
G01 X5.3414 Y1.4505
G01 X5.3514 Y1.4367
G01 X5.4337 Y1.3295
G01 X5.4423 Y1.3187
G01 X5.4503 Y1.3095
G01 X5.4603 Y1.2991
G01 X5.4876 Y1.2718
G01 X5.4975 Y1.2627
G01 X5.5070 Y1.2546
G01 X5.6227 Y1.1656
G01 X5.6333 Y1.1579
G01 X5.6460 Y1.1496
G01 X5.6893 Y1.1244
G01 X5.7001 Y1.1188
G01 X5.7138 Y1.1124
G01 X5.8468 Y1.0572
G01 X5.8622 Y1.0515
G01 X5.8778 Y1.0465
G01 X5.9237 Y1.0343
G01 X5.9359 Y1.0317
G01 X5.9492 Y1.0294
G01 X6.1008 Y1.0094
G01 X6.1166 Y1.0080
G01 X6.1486 Y1.0063
G01 X7.6997 Y1.0063
G01 X7.7156 Y1.0069
G01 X7.7476 Y1.0094
G01 X7.8404 Y1.0216
G01 X7.8640 Y1.0258
G01 X7.8768 Y1.0289
G01 X7.9125 Y1.0384
G01 X7.9360 Y1.0459
G01 X7.9488 Y1.0509
G01 X8.0234 Y1.0818
G01 X8.0354 Y1.0872
G01 X8.0463 Y1.0926
G01 X8.0887 Y1.1167
G01 X8.1094 Y1.1301
G01 X8.1200 Y1.1378
G01 X8.1836 Y1.1866
G01 X8.2000 Y1.2002
G01 X8.2120 Y1.2114
G01 X8.2372 Y1.2366
G01 X8.2463 Y1.2461
G01 X8.2544 Y1.2552
G01 X8.2634 Y1.2664
G01 X8.3122 Y1.3300
G01 X8.3246 Y1.3474
G01 X8.3333 Y1.3613
G01 X8.3508 Y1.3916
G01 X8.3511 Y1.3922
G01 X8.3518 Y1.3933
G01 X8.3521 Y1.3939
G01 X8.3535 Y1.3965
G01 X8.3560 Y1.4011
G01 X8.3611 Y1.4110
G01 X8.3687 Y1.4278
G01 X8.3980 Y1.4986
G00 Z1.0000
G00 X11.4004 Y1.6596
G01 F30.00
G01 Z0.0000
G01 F45.00
G01 X11.4073 Y1.6550
G01 X11.4145 Y1.6509
G01 X11.4219 Y1.6473
G01 X11.4296 Y1.6444
G01 X11.5044 Y1.6223
G01 X11.5148 Y1.6200
G01 X11.5254 Y1.6187
G01 X11.5530 Y1.6185
G01 X11.5997 Y1.5763
G01 X11.6732 Y1.5216
G01 X11.6802 Y1.5171
G01 X11.7517 Y1.4743
G01 X11.7589 Y1.4703
G01 X11.8418 Y1.4312
G01 X11.9255 Y1.4011
G01 X11.9360 Y1.3979
G01 X12.0223 Y1.3764
G01 X12.1102 Y1.3633
G01 X12.1212 Y1.3622
G01 X12.2100 Y1.3580
G01 X12.3043 Y1.3626
G01 X12.3977 Y1.3764
G01 X12.4840 Y1.3979
G01 X12.4945 Y1.4011
G01 X12.5782 Y1.4312
G01 X12.6635 Y1.4715
G01 X12.7398 Y1.5171
G01 X12.7490 Y1.5233
G01 X12.8160 Y1.5729
G01 X12.8245 Y1.5799
G01 X12.8903 Y1.6397
G01 X12.9537 Y1.7097
G01 X13.0084 Y1.7832
G01 X13.0129 Y1.7902
G01 X13.0464 Y1.8462
G01 X13.0667 Y1.8710
G01 X13.0716 Y1.8777
G01 X13.0894 Y1.9049
G01 X13.1581 Y2.0333
G01 X13.1617 Y2.0407
G01 X13.1721 Y2.0657
G01 X13.1758 Y2.0761
G01 X13.2180 Y2.2155
G01 X13.2247 Y2.2473
G01 X13.2263 Y2.2582
G01 X13.2409 Y2.4065
G01 X13.2419 Y2.4241
G01 X13.2420 Y2.8239
G01 X13.2413 Y2.8381
G01 X13.2197 Y3.1109
G01 X13.2162 Y3.1330
G01 X13.2145 Y3.1416
G01 X13.1516 Y3.4030
G01 X13.1447 Y3.4243
G01 X13.1417 Y3.4325
G01 X13.0888 Y3.5602
G01 X13.0854 Y3.5677
G01 X13.0814 Y3.5749
G01 X13.0753 Y3.5840
G01 X13.0329 Y3.6384
G01 X13.0238 Y3.6487
G01 X13.0157 Y3.6560
G01 X12.9982 Y3.6692
G01 X12.8862 Y3.7611
G01 X12.8625 Y3.7819
G01 X12.8465 Y3.7971
G01 X12.3571 Y4.2865
G01 X12.3355 Y4.3095
G01 X12.3211 Y4.3262
G01 X12.2292 Y4.4382
G01 X12.2029 Y4.4736
G01 X12.1925 Y4.4892
G01 X12.1698 Y4.5271
G01 X12.1050 Y4.6483
G01 X12.0862 Y4.6881
G01 X12.0790 Y4.7055
G01 X12.0641 Y4.7470
G01 X12.0499 Y4.7933
G01 X12.0469 Y4.8010
G01 X12.0433 Y4.8084
G01 X12.0360 Y4.8201
G01 X12.0293 Y4.8288
G01 X12.0237 Y4.8348
G01 X11.9920 Y4.8664
G01 X11.9920 Y5.0956
G01 X11.9876 Y5.1496
G01 X11.9865 Y5.1810
G01 X11.9865 Y5.3125
G01 X11.9871 Y5.3346
G01 X11.9892 Y5.3660
G01 X11.9917 Y5.3924
G01 X11.9920 Y5.4007
G01 X11.9920 Y7.5868
G01 X11.9911 Y7.6072
G01 X11.9876 Y7.6495
G01 X11.9865 Y7.6810
G01 X11.9865 Y8.1069
G01 X11.9872 Y8.1321
G01 X11.9915 Y8.1912
G01 X11.9920 Y8.2075
G01 X11.9920 Y9.2736
G01 X12.3362 Y9.6177
G01 X12.3416 Y9.6239
G01 X12.4931 Y9.8085
G01 X12.4981 Y9.8151
G01 X12.5146 Y9.8398
G01 X12.5188 Y9.8470
G01 X12.6256 Y10.0468
G01 X12.6292 Y10.0542
G01 X12.6406 Y10.0817
G01 X12.6433 Y10.0895
G01 X12.7098 Y10.3090
G01 X12.7165 Y10.3408
G01 X12.7181 Y10.3517
G01 X12.7409 Y10.5833
G01 X12.7420 Y10.6037
G01 X12.7420 Y11.9631
G01 X12.7409 Y11.9835
G01 X12.7263 Y12.1318
G01 X12.7247 Y12.1427
G01 X12.7180 Y12.1745
G01 X12.6758 Y12.3139
G01 X12.6721 Y12.3243
G01 X12.6594 Y12.3542
G01 X12.5907 Y12.4827
G01 X12.5866 Y12.4898
G01 X12.5667 Y12.5190
G01 X12.4744 Y12.6316
G01 X12.4689 Y12.6378
G01 X12.4437 Y12.6626
G01 X12.3312 Y12.7550
G01 X12.3246 Y12.7600
G01 X12.2951 Y12.7794
G01 X12.1667 Y12.8481
G01 X12.1593 Y12.8517
G01 X12.1266 Y12.8650
G01 X11.9872 Y12.9073
G01 X11.9792 Y12.9094
G01 X11.9445 Y12.9160
G01 X11.8493 Y12.9254
G01 X11.8317 Y12.9264
G01 X11.4311 Y12.9265
G01 X11.4107 Y12.9254
G01 X11.3182 Y12.9163
G01 X11.3100 Y12.9152
G01 X11.2835 Y12.9100
G01 X11.2728 Y12.9073
G01 X11.1334 Y12.8650
G01 X11.1257 Y12.8621
G01 X11.0982 Y12.8506
G01 X10.9649 Y12.7794
G01 X10.9377 Y12.7616
G01 X10.9288 Y12.7550
G01 X10.8184 Y12.6644
G01 X10.8102 Y12.6570
G01 X10.7874 Y12.6338
G01 X10.6950 Y12.5212
G01 X10.6900 Y12.5146
G01 X10.6706 Y12.4851
G01 X10.6006 Y12.3542
G01 X10.5879 Y12.3243
G01 X10.5850 Y12.3166
G01 X10.5427 Y12.1772
G01 X10.5406 Y12.1692
G01 X10.5340 Y12.1345
G01 X10.5246 Y12.0393
G01 X10.5236 Y12.0217
G01 X10.5235 Y10.9310
G01 X10.5224 Y10.8996
G01 X10.5189 Y10.8572
G01 X10.5180 Y10.8368
G01 X10.5180 Y10.1164
G01 X10.1720 Y9.7702
G01 X10.0152 Y9.5794
G01 X9.9969 Y9.5525
G01 X9.9925 Y9.5455
G01 X9.8844 Y9.3432
G01 X9.8797 Y9.3333
G01 X9.8694 Y9.3083
G01 X9.8667 Y9.3005
G01 X9.8009 Y9.0837
G01 X9.7982 Y9.0730
G01 X9.7922 Y9.0410
G01 X9.7691 Y8.8067
G01 X9.7681 Y8.7891
G01 X9.7680 Y5.3205
G01 X9.7687 Y5.3019
G01 X9.7897 Y5.0349
G01 X9.7938 Y5.0070
G01 X9.7955 Y4.9984
G01 X9.8569 Y4.7427
G01 X9.8653 Y4.7157
G01 X9.8683 Y4.7075
G01 X9.9689 Y4.4645
G01 X9.9726 Y4.4565
G01 X9.9857 Y4.4315
G01 X10.1231 Y4.2073
G01 X10.1280 Y4.2000
G01 X10.1449 Y4.1774
G01 X10.3188 Y3.9737
G01 X10.3299 Y3.9617
G01 X11.0180 Y3.2736
G01 X11.0180 Y2.4269
G01 X11.0191 Y2.4065
G01 X11.0337 Y2.2582
G01 X11.0348 Y2.2500
G01 X11.0406 Y2.2208
G01 X11.0427 Y2.2128
G01 X11.0842 Y2.0761
G01 X11.0879 Y2.0657
G01 X11.1006 Y2.0358
G01 X11.1693 Y1.9073
G01 X11.1734 Y1.9002
G01 X11.1933 Y1.8710
G01 X11.2856 Y1.7584
G01 X11.2911 Y1.7522
G01 X11.3163 Y1.7274
G01 X11.3837 Y1.6720
G01 X11.4004 Y1.6596
G00 Z1.0000
G00 X13.2932 Y3.5938
G01 F30.00
G01 Z0.0000
G01 F45.00
G01 X13.3106 Y3.5869
G01 X13.3275 Y3.5812
G01 X13.4661 Y3.5392
G01 X13.4803 Y3.5353
G01 X13.4935 Y3.5324
G01 X13.5243 Y3.5263
G01 X13.5432 Y3.5235
G01 X13.6974 Y3.5083
G01 X13.7243 Y3.5066
G01 X13.7396 Y3.5063
G01 X15.1741 Y3.5063
G01 X15.1572 Y3.4959
G01 X15.1460 Y3.4884
G01 X15.1236 Y3.4722
G01 X15.1107 Y3.4620
G01 X15.0362 Y3.3984
G01 X15.0122 Y3.3749
G01 X14.9997 Y3.3617
G01 X14.9804 Y3.3491
G01 X14.9626 Y3.3356
G01 X14.9012 Y3.2832
G01 X14.8805 Y3.2641
G01 X13.2500 Y1.6337
G01 X13.1486 Y1.6337
G01 X13.1702 Y1.6629
G01 X13.1790 Y1.6755
G01 X13.2118 Y1.7297
G01 X13.2250 Y1.7459
G01 X13.2342 Y1.7582
G01 X13.2538 Y1.7874
G01 X13.2623 Y1.8010
G01 X13.2686 Y1.8122
G01 X13.3389 Y1.9440
G01 X13.3471 Y1.9613
G01 X13.3608 Y1.9945
G01 X13.3686 Y2.0169
G01 X13.4103 Y2.1543
G01 X13.4141 Y2.1679
G01 X13.4176 Y2.1835
G01 X13.4237 Y2.2143
G01 X13.4265 Y2.2332
G01 X13.4422 Y2.3932
G01 X13.4434 Y2.4149
G01 X13.4437 Y2.4290
G01 X13.4436 Y2.8299
G01 X13.4424 Y2.8539
G01 X13.4214 Y3.1209
G01 X13.4200 Y3.1346
G01 X13.4150 Y3.1672
G01 X13.4112 Y3.1862
G01 X13.3465 Y3.4549
G01 X13.3363 Y3.4872
G01 X13.3306 Y3.5033
G01 X13.2932 Y3.5938
G01 X13.4545 Y3.4378
G01 X13.4711 Y3.4340
G01 X13.5016 Y3.4279
G01 X13.5165 Y3.4254
G01 X13.5303 Y3.4235
G01 X13.6902 Y3.4077
G01 X13.7068 Y3.4065
G01 X13.7332 Y3.4055
G01 X14.8890 Y3.4054
G01 X14.8329 Y3.3575
G01 X14.8067 Y3.3330
G01 X13.4668 Y1.9931
G01 X13.5093 Y2.1336
G01 X13.5150 Y2.1563
G01 X13.5216 Y2.1892
G01 X13.5247 Y2.2071
G01 X13.5270 Y2.2252
G01 X13.5421 Y2.3781
G01 X13.5435 Y2.3972
G01 X13.5446 Y2.4284
G01 X13.5446 Y2.8223
G01 X13.5439 Y2.8458
G01 X13.5429 Y2.8616
G01 X13.5218 Y3.1298
G01 X13.5187 Y3.1572
G01 X13.5138 Y3.1878
G01 X13.5095 Y3.2087
G01 X13.4545 Y3.4378
G01 X13.5874 Y3.3165
G01 X13.6859 Y3.3069
G01 X13.7150 Y3.3052
G01 X13.7349 Y3.3046
G01 X14.6356 Y3.3046
G01 X13.6363 Y2.3052
G01 X13.6433 Y2.3774
G01 X13.6448 Y2.4048
G01 X13.6454 Y2.4216
G01 X13.6454 Y2.8200
G01 X13.6445 Y2.8533
G01 X13.6435 Y2.8696
G01 X13.6224 Y3.1367
G01 X13.6202 Y3.1593
G01 X13.6144 Y3.1976
G01 X13.6102 Y3.2204
G01 X13.5874 Y3.3165
G01 X13.7155 Y3.2042
G01 X13.7396 Y3.2037
G01 X14.3922 Y3.2037
G01 X13.7463 Y2.5578
G01 X13.7463 Y2.8210
G01 X13.7452 Y2.8578
G01 X13.7440 Y2.8774
G01 X13.7227 Y3.1486
G01 X13.7199 Y3.1748
G01 X13.7155 Y3.2042
G01 X13.8274 Y3.1029
G01 X14.1487 Y3.1029
G01 X13.8471 Y2.8013
G01 X13.8469 Y2.8378
G01 X13.8452 Y2.8759
G01 X13.8274 Y3.1029
G00 Z1.0000
G00 X15.5955 Y2.2724
G01 F30.00
G01 Z0.0000
G01 F45.00
G01 X15.5957 Y2.2739
G01 X15.5998 Y2.2872
G01 X15.6423 Y2.4657
G01 X15.6432 Y2.4681
G01 X15.6502 Y2.4807
G01 X15.6901 Y2.5643
G01 X15.6909 Y2.5655
G01 X15.6966 Y2.5710
G01 X15.7865 Y2.6636
G01 X15.7894 Y2.6660
G01 X15.8058 Y2.6720
G01 X15.8140 Y2.6746
G01 X15.9347 Y2.7165
G01 X15.9438 Y2.7162
G01 X16.1748 Y2.7183
G01 X16.1767 Y2.7181
G01 X16.1858 Y2.7143
G01 X16.1888 Y2.7114
G01 X16.1904 Y2.7074
G01 X16.1927 Y1.7108
G01 X16.1925 Y1.7085
G01 X16.1888 Y1.6994
G01 X16.1858 Y1.6964
G01 X16.1814 Y1.6946
G01 X15.9448 Y1.6927
G01 X15.9371 Y1.6954
G01 X15.7993 Y1.7393
G01 X15.7957 Y1.7409
G01 X15.7828 Y1.7530
G01 X15.7770 Y1.7590
G01 X15.6968 Y1.8371
G01 X15.6465 Y1.9337
G01 X15.6459 Y1.9354
G01 X15.6447 Y1.9428
G01 X15.6430 Y1.9504
G01 X15.5967 Y2.1281
G01 X15.5974 Y2.1417
G01 X15.5955 Y2.2724
G01 X15.6227 Y2.2809
G01 X15.6203 Y2.2671
G01 X15.6196 Y2.2560
G01 X15.6212 Y2.1404
G01 X15.6222 Y2.1269
G01 X15.6249 Y2.1136
G01 X15.6672 Y1.9520
G01 X15.6696 Y1.9439
G01 X15.6750 Y1.9309
G01 X15.7088 Y1.8663
G01 X15.7129 Y1.8591
G01 X15.7191 Y1.8501
G01 X15.7243 Y1.8438
G01 X15.7300 Y1.8378
G01 X15.7901 Y1.7795
G01 X15.7962 Y1.7741
G01 X15.8026 Y1.7690
G01 X15.8094 Y1.7645
G01 X15.8165 Y1.7605
G01 X15.8239 Y1.7570
G01 X15.8315 Y1.7540
G01 X15.9358 Y1.7209
G01 X15.9465 Y1.7183
G01 X15.9600 Y1.7166
G01 X15.9682 Y1.7164
G01 X16.0579 Y1.7172
G01 X16.0688 Y1.7178
G01 X16.0769 Y1.7190
G01 X16.0850 Y1.7208
G01 X16.0928 Y1.7231
G01 X16.1005 Y1.7261
G01 X16.1080 Y1.7295
G01 X16.1151 Y1.7335
G01 X16.1220 Y1.7381
G01 X16.1285 Y1.7431
G01 X16.1346 Y1.7486
G01 X16.1421 Y1.7565
G01 X16.1488 Y1.7652
G01 X16.1546 Y1.7745
G01 X16.1606 Y1.7868
G01 X16.1642 Y1.7971
G01 X16.1668 Y1.8077
G01 X16.1684 Y1.8186
G01 X16.1689 Y1.8295
G01 X16.1670 Y2.5872
G01 X16.1659 Y2.5982
G01 X16.1637 Y2.6090
G01 X16.1614 Y2.6170
G01 X16.1573 Y2.6273
G01 X16.1523 Y2.6371
G01 X16.1480 Y2.6441
G01 X16.1431 Y2.6508
G01 X16.1358 Y2.6591
G01 X16.1299 Y2.6649
G01 X16.1235 Y2.6702
G01 X16.1167 Y2.6750
G01 X16.1097 Y2.6793
G01 X16.1023 Y2.6831
G01 X16.0946 Y2.6863
G01 X16.0841 Y2.6896
G01 X16.0760 Y2.6915
G01 X16.0651 Y2.6930
G01 X16.0568 Y2.6935
G01 X15.9503 Y2.6924
G01 X15.9364 Y2.6907
G01 X15.9227 Y2.6872
G01 X15.8268 Y2.6538
G01 X15.8191 Y2.6508
G01 X15.8117 Y2.6473
G01 X15.8046 Y2.6432
G01 X15.7977 Y2.6386
G01 X15.7913 Y2.6335
G01 X15.7852 Y2.6280
G01 X15.7210 Y2.5618
G01 X15.7155 Y2.5554
G01 X15.7105 Y2.5486
G01 X15.7061 Y2.5415
G01 X15.7022 Y2.5341
G01 X15.6679 Y2.4622
G01 X15.6632 Y2.4499
G01 X15.6611 Y2.4423
G01 X15.6227 Y2.2809
G00 Z1.0000
G00 X16.6493 Y1.6966
G01 F30.00
G01 Z0.0000
G01 F45.00
G01 X16.6465 Y1.6998
G01 X16.6450 Y1.7040
G01 X16.6454 Y1.7128
G01 X16.6431 Y2.7000
G01 X16.6433 Y2.7022
G01 X16.6471 Y2.7114
G01 X16.6500 Y2.7143
G01 X16.6539 Y2.7159
G01 X16.6581 Y2.7159
G01 X16.6620 Y2.7143
G01 X16.6649 Y2.7114
G01 X16.6666 Y2.7074
G01 X16.6679 Y2.1711
G01 X16.6684 Y2.1601
G01 X16.6701 Y2.1493
G01 X16.6720 Y2.1412
G01 X16.6754 Y2.1308
G01 X16.6787 Y2.1233
G01 X16.6839 Y2.1136
G01 X16.6884 Y2.1067
G01 X16.6952 Y2.0980
G01 X16.7008 Y2.0920
G01 X16.7089 Y2.0847
G01 X16.7155 Y2.0797
G01 X16.7248 Y2.0738
G01 X16.7346 Y2.0689
G01 X16.7422 Y2.0658
G01 X16.7501 Y2.0633
G01 X16.7608 Y2.0609
G01 X16.7717 Y2.0596
G01 X16.7799 Y2.0593
G01 X16.7936 Y2.0601
G01 X16.8071 Y2.0626
G01 X16.8202 Y2.0668
G01 X16.8302 Y2.0712
G01 X16.8421 Y2.0781
G01 X16.8530 Y2.0864
G01 X16.8628 Y2.0960
G01 X16.8714 Y2.1067
G01 X16.8773 Y2.1159
G01 X17.2135 Y2.7071
G01 X17.2148 Y2.7089
G01 X17.2219 Y2.7149
G01 X17.2260 Y2.7163
G01 X17.2303 Y2.7160
G01 X17.2341 Y2.7141
G01 X17.2370 Y2.7109
G01 X17.2384 Y2.7068
G01 X17.2381 Y2.6979
G01 X17.2404 Y1.7108
G01 X17.2401 Y1.7085
G01 X17.2364 Y1.6994
G01 X17.2334 Y1.6964
G01 X17.2295 Y1.6948
G01 X17.2253 Y1.6948
G01 X17.2215 Y1.6964
G01 X17.2185 Y1.6994
G01 X17.2168 Y1.7034
G01 X17.2156 Y2.2397
G01 X17.2150 Y2.2506
G01 X17.2134 Y2.2615
G01 X17.2107 Y2.2722
G01 X17.2080 Y2.2799
G01 X17.2035 Y2.2900
G01 X17.1995 Y2.2972
G01 X17.1934 Y2.3063
G01 X17.1883 Y2.3127
G01 X17.1827 Y2.3187
G01 X17.1745 Y2.3261
G01 X17.1680 Y2.3311
G01 X17.1587 Y2.3370
G01 X17.1514 Y2.3407
G01 X17.1412 Y2.3449
G01 X17.1334 Y2.3474
G01 X17.1227 Y2.3498
G01 X17.1145 Y2.3509
G01 X17.1035 Y2.3515
G01 X17.0898 Y2.3506
G01 X17.0763 Y2.3481
G01 X17.0633 Y2.3440
G01 X17.0508 Y2.3383
G01 X17.0391 Y2.3311
G01 X17.0284 Y2.3225
G01 X17.0206 Y2.3148
G01 X17.0120 Y2.3041
G01 X17.0061 Y2.2948
G01 X16.6699 Y1.7036
G01 X16.6687 Y1.7018
G01 X16.6615 Y1.6958
G01 X16.6575 Y1.6944
G01 X16.6532 Y1.6947
G01 X16.6493 Y1.6966
G00 Z1.0000
G00 X17.6431 Y2.1288
G01 F30.00
G01 Z0.0000
G01 F45.00
G01 X17.6433 Y2.1308
G01 X17.6471 Y2.1399
G01 X17.6500 Y2.1429
G01 X17.6545 Y2.1447
G01 X17.8416 Y2.1468
G01 X17.8433 Y2.1467
G01 X17.8525 Y2.1429
G01 X17.8554 Y2.1399
G01 X17.8570 Y2.1361
G01 X17.8570 Y2.1319
G01 X17.8554 Y2.1280
G01 X17.8525 Y2.1250
G01 X17.8480 Y2.1232
G01 X17.7783 Y2.1224
G01 X17.7701 Y2.1220
G01 X17.7593 Y2.1205
G01 X17.7512 Y2.1187
G01 X17.7434 Y2.1164
G01 X17.7332 Y2.1123
G01 X17.7234 Y2.1073
G01 X17.7165 Y2.1029
G01 X17.7077 Y2.0963
G01 X17.6997 Y2.0889
G01 X17.6924 Y2.0807
G01 X17.6859 Y2.0718
G01 X17.6803 Y2.0624
G01 X17.6757 Y2.0524
G01 X17.6721 Y2.0421
G01 X17.6701 Y2.0341
G01 X17.6683 Y2.0233
G01 X17.6676 Y2.0123
G01 X17.6686 Y1.8567
G01 X17.6695 Y1.8430
G01 X17.6709 Y1.8348
G01 X17.6737 Y1.8241
G01 X17.6775 Y1.8138
G01 X17.6822 Y1.8038
G01 X17.6880 Y1.7944
G01 X17.6947 Y1.7856
G01 X17.7021 Y1.7775
G01 X17.7104 Y1.7702
G01 X17.7193 Y1.7637
G01 X17.7288 Y1.7581
G01 X17.7389 Y1.7535
G01 X17.7467 Y1.7507
G01 X17.8418 Y1.7206
G01 X17.8557 Y1.7179
G01 X17.8641 Y1.7171
G01 X17.8726 Y1.7169
G01 X17.9336 Y1.7183
G01 X17.9444 Y1.7195
G01 X17.9551 Y1.7219
G01 X17.9628 Y1.7243
G01 X18.0618 Y1.7589
G01 X18.0693 Y1.7623
G01 X18.0765 Y1.7662
G01 X18.0835 Y1.7706
G01 X18.0901 Y1.7755
G01 X18.1002 Y1.7847
G01 X18.1605 Y1.8469
G01 X18.1662 Y1.8532
G01 X18.1713 Y1.8598
G01 X18.1759 Y1.8669
G01 X18.1800 Y1.8742
G01 X18.2144 Y1.9462
G01 X18.2185 Y1.9559
G01 X18.2223 Y1.9685
G01 X18.2608 Y2.1299
G01 X18.2624 Y2.1381
G01 X18.2636 Y2.1492
G01 X18.2638 Y2.1575
G01 X18.2622 Y2.2704
G01 X18.2618 Y2.2785
G01 X18.2608 Y2.2865
G01 X18.2586 Y2.2971
G01 X18.2163 Y2.4588
G01 X18.2138 Y2.4669
G01 X18.2096 Y2.4773
G01 X18.1734 Y2.5469
G01 X18.1676 Y2.5562
G01 X18.1591 Y2.5670
G01 X18.1534 Y2.5730
G01 X18.0934 Y2.6312
G01 X18.0873 Y2.6367
G01 X18.0786 Y2.6433
G01 X18.0693 Y2.6490
G01 X18.0595 Y2.6538
G01 X18.0519 Y2.6567
G01 X17.9483 Y2.6897
G01 X17.9348 Y2.6927
G01 X17.9265 Y2.6937
G01 X17.9182 Y2.6941
G01 X17.8245 Y2.6928
G01 X17.8162 Y2.6924
G01 X17.8080 Y2.6914
G01 X17.7999 Y2.6897
G01 X17.7919 Y2.6875
G01 X17.7791 Y2.6825
G01 X17.7121 Y2.6478
G01 X17.7023 Y2.6471
G01 X17.6983 Y2.6484
G01 X17.6951 Y2.6512
G01 X17.6932 Y2.6549
G01 X17.6930 Y2.6591
G01 X17.6943 Y2.6631
G01 X17.6977 Y2.6671
G01 X17.7891 Y2.7149
G01 X17.7925 Y2.7162
G01 X17.8101 Y2.7168
G01 X17.8185 Y2.7166
G01 X17.9386 Y2.7181
G01 X17.9463 Y2.7153
G01 X18.0841 Y2.6715
G01 X18.0878 Y2.6699
G01 X18.1007 Y2.6578
G01 X18.1064 Y2.6518
G01 X18.1867 Y2.5737
G01 X18.2376 Y2.4753
G01 X18.2387 Y2.4679
G01 X18.2404 Y2.4604
G01 X18.2864 Y2.2845
G01 X18.2867 Y2.2827
G01 X18.2860 Y2.2691
G01 X18.2878 Y2.1369
G01 X18.2837 Y2.1235
G01 X18.2411 Y1.9451
G01 X18.2403 Y1.9427
G01 X18.2332 Y1.9301
G01 X18.1933 Y1.8465
G01 X18.1926 Y1.8453
G01 X18.1868 Y1.8398
G01 X18.0970 Y1.7472
G01 X18.0940 Y1.7448
G01 X18.0777 Y1.7387
G01 X18.0694 Y1.7362
G01 X17.9486 Y1.6943
G01 X17.8509 Y1.6925
G01 X17.8496 Y1.6927
G01 X17.8419 Y1.6954
G01 X17.7040 Y1.7393
G01 X17.7000 Y1.7411
G01 X17.6498 Y1.7887
G01 X17.6453 Y1.7989
G01 X17.6431 Y2.1288
G00 Z1.0000
G00 X15.3358 Y6.9846
G01 F30.00
G01 Z0.0000
G01 F45.00
G01 X15.4779 Y7.1010
G01 X15.4918 Y7.1133
G01 X15.5137 Y7.1343
G01 X15.5246 Y7.1453
G01 X15.5342 Y7.1557
G01 X15.6849 Y7.3262
G01 X15.7031 Y7.3488
G01 X15.7198 Y7.3712
G01 X15.7300 Y7.3859
G01 X15.8597 Y7.5918
G01 X15.8678 Y7.6061
G01 X15.8805 Y7.6304
G01 X15.8925 Y7.6560
G01 X15.9816 Y7.8654
G01 X15.9890 Y7.8845
G01 X15.9983 Y7.9120
G01 X16.0028 Y7.9265
G01 X16.0072 Y7.9427
G01 X16.0616 Y8.1640
G01 X16.0672 Y8.1918
G01 X16.0716 Y8.2194
G01 X16.0737 Y8.2358
G01 X16.0930 Y8.4743
G01 X16.0942 Y8.4989
G01 X16.0946 Y8.5135
G01 X16.0944 Y12.1822
G01 X16.0933 Y12.2086
G01 X16.0767 Y12.4478
G01 X16.0743 Y12.4706
G01 X16.0692 Y12.5056
G01 X16.0189 Y12.7453
G01 X16.0148 Y12.7628
G01 X16.0066 Y12.7922
G01 X16.0013 Y12.8090
G01 X15.9663 Y12.9061
G01 X16.0967 Y12.7948
G01 X16.1114 Y12.7832
G01 X16.1357 Y12.7656
G01 X16.1590 Y12.7501
G01 X16.3509 Y12.6325
G01 X16.3667 Y12.6237
G01 X16.3908 Y12.6113
G01 X16.4140 Y12.6004
G01 X16.6214 Y12.5144
G01 X16.6432 Y12.5061
G01 X16.6767 Y12.4952
G01 X16.6976 Y12.4894
G01 X16.9127 Y12.4377
G01 X16.9372 Y12.4326
G01 X16.9759 Y12.4266
G01 X16.9962 Y12.4245
G01 X17.2319 Y12.4062
G01 X17.2576 Y12.4054
G01 X17.3470 Y12.4054
G01 X17.3764 Y12.4065
G01 X17.3951 Y12.4079
G01 X17.6399 Y12.4322
G01 X17.6612 Y12.4355
G01 X17.6953 Y12.4422
G01 X17.7137 Y12.4464
G01 X17.7315 Y12.4514
G01 X17.9545 Y12.5191
G01 X17.9783 Y12.5276
G01 X18.0091 Y12.5402
G01 X18.0265 Y12.5479
G01 X18.0436 Y12.5564
G01 X18.2513 Y12.6675
G01 X18.2660 Y12.6760
G01 X18.2803 Y12.6851
G01 X18.3081 Y12.7039
G01 X18.3265 Y12.7175
G01 X18.5095 Y12.8676
G01 X18.5217 Y12.8780
G01 X18.5341 Y12.8896
G01 X18.5639 Y12.9195
G01 X18.5826 Y12.9407
G01 X18.7310 Y13.1216
G01 X18.7447 Y13.1398
G01 X18.7620 Y13.1654
G01 X18.7634 Y13.0322
G01 X17.4306 Y11.8740
G01 X17.4129 Y11.8578
G01 X17.2290 Y11.6738
G01 X17.2162 Y11.6601
G01 X17.1971 Y11.6382
G01 X17.1813 Y11.6184
G01 X17.0363 Y11.4243
G01 X17.0231 Y11.4051
G01 X17.0048 Y11.3763
G01 X16.9965 Y11.3618
G01 X16.8791 Y11.1462
G01 X16.8718 Y11.1315
G01 X16.8608 Y11.1076
G01 X16.8505 Y11.0825
G01 X16.7663 Y10.8562
G01 X16.7603 Y10.8384
G01 X16.7529 Y10.8135
G01 X16.7458 Y10.7860
G01 X16.6928 Y10.5411
G01 X16.6869 Y10.5030
G01 X16.6843 Y10.4787
G01 X16.6668 Y10.2330
G01 X16.6654 Y10.1969
G01 X16.6654 Y10.0095
G01 X16.6661 Y9.9844
G01 X16.6843 Y9.7276
G01 X16.6866 Y9.7047
G01 X16.6912 Y9.6729
G01 X16.6952 Y9.6517
G01 X16.7469 Y9.4150
G01 X16.7514 Y9.3967
G01 X16.7590 Y9.3708
G01 X16.7677 Y9.3446
G01 X16.8532 Y9.1159
G01 X16.8600 Y9.0993
G01 X16.8707 Y9.0758
G01 X16.8824 Y9.0522
G01 X16.9995 Y8.8383
G01 X17.0142 Y8.8136
G01 X17.0283 Y8.7920
G01 X17.0392 Y8.7765
G01 X17.1846 Y8.5828
G01 X17.2017 Y8.5615
G01 X17.2191 Y8.5416
G01 X17.2303 Y8.5295
G01 X17.4107 Y8.3498
G01 X17.4219 Y8.3395
G01 X17.4408 Y8.3231
G01 X17.4606 Y8.3072
G01 X17.6592 Y8.1590
G01 X17.6875 Y8.1394
G01 X19.5655 Y6.9383
G01 X19.5210 Y6.9490
G01 X19.5049 Y6.9525
G01 X19.4702 Y6.9582
G01 X19.4509 Y6.9608
G01 X19.1711 Y6.9830
G01 X19.1347 Y6.9845
G01 X15.3358 Y6.9846
G01 X15.6066 Y7.0854
G01 X15.7639 Y7.2635
G01 X15.7819 Y7.2858
G01 X15.7987 Y7.3083
G01 X15.8090 Y7.3228
G01 X15.8193 Y7.3384
G01 X15.9390 Y7.5280
G01 X15.9496 Y7.5458
G01 X15.9586 Y7.5622
G01 X15.9733 Y7.5905
G01 X15.9839 Y7.6132
G01 X16.0750 Y7.8275
G01 X16.0839 Y7.8504
G01 X16.0940 Y7.8803
G01 X16.0994 Y7.8975
G01 X16.1045 Y7.9162
G01 X16.1606 Y8.1442
G01 X16.1654 Y8.1680
G01 X16.1716 Y8.2059
G01 X16.1750 Y8.2361
G01 X16.1934 Y8.4652
G01 X16.1946 Y8.4847
G01 X16.1954 Y8.5129
G01 X16.1954 Y12.1737
G01 X16.1948 Y12.1982
G01 X16.1939 Y12.2153
G01 X16.1775 Y12.4520
G01 X16.1756 Y12.4730
G01 X16.1710 Y12.5074
G01 X16.1674 Y12.5290
G01 X16.1439 Y12.6411
G01 X16.2994 Y12.5459
G01 X16.3195 Y12.5346
G01 X16.3484 Y12.5198
G01 X16.3648 Y12.5119
G01 X16.3804 Y12.5051
G01 X16.5935 Y12.4170
G01 X16.6123 Y12.4101
G01 X16.6408 Y12.4008
G01 X16.6569 Y12.3959
G01 X16.6747 Y12.3912
G01 X16.8943 Y12.3385
G01 X16.9181 Y12.3336
G01 X16.9528 Y12.3280
G01 X16.9699 Y12.3258
G01 X16.9869 Y12.3241
G01 X17.2238 Y12.3056
G01 X17.2560 Y12.3046
G01 X17.3450 Y12.3046
G01 X17.3644 Y12.3050
G01 X17.3896 Y12.3063
G01 X17.4061 Y12.3076
G01 X17.6390 Y12.3306
G01 X17.6553 Y12.3325
G01 X17.6733 Y12.3352
G01 X17.7192 Y12.3442
G01 X17.7447 Y12.3503
G01 X17.8676 Y12.3873
G01 X17.3548 Y11.9414
G01 X17.3317 Y11.9195
G01 X17.1595 Y11.7469
G01 X17.1483 Y11.7353
G01 X17.1373 Y11.7231
G01 X17.1160 Y11.6984
G01 X17.1000 Y11.6780
G01 X16.9547 Y11.4834
G01 X16.9418 Y11.4651
G01 X16.9260 Y11.4406
G01 X16.9177 Y11.4272
G01 X16.9086 Y11.4113
G01 X16.7917 Y11.1967
G01 X16.7788 Y11.1708
G01 X16.7681 Y11.1474
G01 X16.7613 Y11.1313
G01 X16.6694 Y10.8847
G01 X16.6634 Y10.8665
G01 X16.6553 Y10.8391
G01 X16.6509 Y10.8229
G01 X16.6471 Y10.8067
G01 X16.5957 Y10.5698
G01 X16.5916 Y10.5478
G01 X16.5874 Y10.5195
G01 X16.5853 Y10.5028
G01 X16.5836 Y10.4848
G01 X16.5660 Y10.2382
G01 X16.5649 Y10.2135
G01 X16.5646 Y10.1969
G01 X16.5646 Y10.0097
G01 X16.5649 Y9.9915
G01 X16.5662 Y9.9644
G01 X16.5849 Y9.7064
G01 X16.5870 Y9.6888
G01 X16.5904 Y9.6649
G01 X16.5951 Y9.6379
G01 X16.6502 Y9.3853
G01 X16.6547 Y9.3679
G01 X16.6623 Y9.3419
G01 X16.6719 Y9.3130
G01 X16.7579 Y9.0828
G01 X16.7697 Y9.0543
G01 X16.7832 Y9.0248
G01 X16.7941 Y9.0035
G01 X16.9112 Y8.7896
G01 X16.9254 Y8.7653
G01 X16.9438 Y8.7368
G01 X16.9583 Y8.7162
G01 X17.1048 Y8.5211
G01 X17.1248 Y8.4963
G01 X17.1456 Y8.4725
G01 X17.1615 Y8.4556
G01 X17.3340 Y8.2837
G01 X17.3487 Y8.2698
G01 X17.3799 Y8.2425
G01 X17.4002 Y8.2264
G01 X17.5993 Y8.0779
G01 X17.6317 Y8.0554
G01 X19.1489 Y7.0851
G01 X19.1295 Y7.0854
G01 X15.6066 Y7.0854
G01 X15.8304 Y7.1863
G01 X15.8453 Y7.2035
G01 X15.8586 Y7.2201
G01 X15.8804 Y7.2491
G01 X15.8948 Y7.2696
G01 X15.9047 Y7.2847
G01 X16.0311 Y7.4854
G01 X16.0429 Y7.5059
G01 X16.0579 Y7.5343
G01 X16.0664 Y7.5512
G01 X16.0747 Y7.5691
G01 X16.1668 Y7.7854
G01 X16.1755 Y7.8074
G01 X16.1827 Y7.8277
G01 X16.1938 Y7.8614
G01 X16.2018 Y7.8896
G01 X16.2571 Y8.1142
G01 X16.2613 Y8.1326
G01 X16.2647 Y8.1502
G01 X16.2700 Y8.1825
G01 X16.2727 Y8.2017
G01 X16.2755 Y8.2286
G01 X16.2941 Y8.4591
G01 X16.2958 Y8.4913
G01 X16.2963 Y8.5150
G01 X16.2963 Y12.1731
G01 X16.2959 Y12.1930
G01 X16.2947 Y12.2204
G01 X16.2793 Y12.4418
G01 X16.3123 Y12.4251
G01 X16.3407 Y12.4124
G01 X16.5462 Y12.3273
G01 X16.5646 Y12.3201
G01 X16.5848 Y12.3129
G01 X16.6207 Y12.3014
G01 X16.6498 Y12.2934
G01 X16.8672 Y12.2412
G01 X16.8998 Y12.2344
G01 X16.9432 Y12.2275
G01 X16.9747 Y12.2239
G01 X17.2037 Y12.2059
G01 X17.2432 Y12.2040
G01 X17.3454 Y12.2037
G01 X17.3737 Y12.2045
G01 X17.4108 Y12.2068
G01 X17.5183 Y12.2173
G01 X17.2981 Y12.0260
G01 X17.2823 Y12.0118
G01 X17.2601 Y11.9906
G01 X17.0788 Y11.8086
G01 X17.0648 Y11.7934
G01 X17.0463 Y11.7721
G01 X17.0252 Y11.7463
G01 X16.8663 Y11.5333
G01 X16.8546 Y11.5160
G01 X16.8396 Y11.4926
G01 X16.8220 Y11.4631
G01 X16.7041 Y11.2467
G01 X16.6943 Y11.2277
G01 X16.6857 Y11.2098
G01 X16.6730 Y11.1815
G01 X16.6633 Y11.1577
G01 X16.5775 Y10.9272
G01 X16.5669 Y10.8959
G01 X16.5539 Y10.8506
G01 X16.5487 Y10.8286
G01 X16.4976 Y10.5932
G01 X16.4934 Y10.5719
G01 X16.4902 Y10.5521
G01 X16.4859 Y10.5213
G01 X16.4833 Y10.4955
G01 X16.4653 Y10.2425
G01 X16.4641 Y10.2166
G01 X16.4637 Y10.1974
G01 X16.4637 Y10.0095
G01 X16.4641 Y9.9883
G01 X16.4656 Y9.9579
G01 X16.4831 Y9.7127
G01 X16.4848 Y9.6935
G01 X16.4873 Y9.6733
G01 X16.4919 Y9.6419
G01 X16.4961 Y9.6186
G01 X16.5496 Y9.3730
G01 X16.5539 Y9.3549
G01 X16.5589 Y9.3361
G01 X16.5687 Y9.3034
G01 X16.5772 Y9.2782
G01 X16.6632 Y9.0481
G01 X16.6750 Y9.0190
G01 X16.6923 Y8.9812
G01 X16.7063 Y8.9538
G01 X16.8224 Y8.7417
G01 X16.8323 Y8.7244
G01 X16.8435 Y8.7062
G01 X16.8614 Y8.6787
G01 X16.8764 Y8.6574
G01 X17.0257 Y8.4586
G01 X17.0381 Y8.4428
G01 X17.0510 Y8.4274
G01 X17.0714 Y8.4042
G01 X17.0891 Y8.3854
G01 X17.2663 Y8.2089
G01 X17.2857 Y8.1907
G01 X17.3115 Y8.1683
G01 X17.3266 Y8.1558
G01 X17.3409 Y8.1448
G01 X17.5383 Y7.9976
G01 X17.5551 Y7.9855
G01 X17.5762 Y7.9712
G01 X18.8034 Y7.1863
G01 X15.8304 Y7.1863
G01 X16.0254 Y7.2871
G01 X16.1094 Y7.4200
G01 X16.1225 Y7.4418
G01 X16.1341 Y7.4626
G01 X16.1491 Y7.4911
G01 X16.1581 Y7.5093
G01 X16.1667 Y7.5279
G01 X16.2595 Y7.7457
G01 X16.2670 Y7.7644
G01 X16.2738 Y7.7824
G01 X16.2889 Y7.8276
G01 X16.2983 Y7.8600
G01 X16.3560 Y8.0944
G01 X16.3613 Y8.1183
G01 X16.3656 Y8.1418
G01 X16.3712 Y8.1776
G01 X16.3747 Y8.2060
G01 X16.3946 Y8.4504
G01 X16.3959 Y8.4709
G01 X16.3969 Y8.4963
G01 X16.3971 Y8.5154
G01 X16.3971 Y9.5993
G01 X16.4522 Y9.3463
G01 X16.4597 Y9.3165
G01 X16.4713 Y9.2770
G01 X16.4772 Y9.2585
G01 X16.4838 Y9.2399
G01 X16.5703 Y9.0087
G01 X16.5826 Y8.9785
G01 X16.5999 Y8.9407
G01 X16.6084 Y8.9234
G01 X16.6175 Y8.9060
G01 X16.7357 Y8.6901
G01 X16.7518 Y8.6627
G01 X16.7722 Y8.6307
G01 X16.7849 Y8.6119
G01 X16.7972 Y8.5949
G01 X16.9454 Y8.3975
G01 X16.9658 Y8.3720
G01 X16.9933 Y8.3403
G01 X17.0063 Y8.3261
G01 X17.0200 Y8.3119
G01 X17.1919 Y8.1407
G01 X17.2086 Y8.1245
G01 X17.2273 Y8.1078
G01 X17.2540 Y8.0849
G01 X17.2775 Y8.0663
G01 X17.4868 Y7.9104
G01 X17.5088 Y7.8949
G01 X17.5271 Y7.8828
G01 X18.4586 Y7.2871
G01 X16.0254 Y7.2871
G01 X16.2078 Y7.3880
G01 X16.2224 Y7.4138
G01 X16.2403 Y7.4481
G01 X16.2526 Y7.4732
G01 X16.2640 Y7.4987
G01 X16.3583 Y7.7210
G01 X16.3661 Y7.7412
G01 X16.3734 Y7.7617
G01 X16.3838 Y7.7932
G01 X16.3911 Y7.8173
G01 X16.3991 Y7.8470
G01 X16.4568 Y8.0827
G01 X16.4629 Y8.1128
G01 X16.4689 Y8.1492
G01 X16.4725 Y8.1740
G01 X16.4754 Y8.1997
G01 X16.4951 Y8.4427
G01 X16.4964 Y8.4630
G01 X16.4975 Y8.4892
G01 X16.4980 Y8.5150
G01 X16.4980 Y8.9209
G01 X16.5129 Y8.8889
G01 X16.5268 Y8.8619
G01 X16.6508 Y8.6355
G01 X16.6663 Y8.6091
G01 X16.6854 Y8.5792
G01 X16.6992 Y8.5586
G01 X16.7139 Y8.5379
G01 X16.8668 Y8.3343
G01 X16.8872 Y8.3088
G01 X16.9110 Y8.2810
G01 X16.9288 Y8.2613
G01 X16.9479 Y8.2415
G01 X17.1204 Y8.0695
G01 X17.1352 Y8.0551
G01 X17.1538 Y8.0381
G01 X17.1788 Y8.0164
G01 X17.1956 Y8.0024
G01 X17.2123 Y7.9892
G01 X17.4191 Y7.8350
G01 X17.4521 Y7.8115
G01 X17.4731 Y7.7976
G01 X18.1137 Y7.3880
G01 X16.2078 Y7.3880
G01 X16.3694 Y7.4888
G01 X16.4471 Y7.6717
G01 X16.4585 Y7.7003
G01 X16.4679 Y7.7264
G01 X16.4836 Y7.7746
G01 X16.4901 Y7.7968
G01 X16.4961 Y7.8194
G01 X16.5521 Y8.0471
G01 X16.5592 Y8.0794
G01 X16.5650 Y8.1116
G01 X16.5724 Y8.1601
G01 X16.5751 Y8.1828
G01 X16.5771 Y8.2046
G01 X16.5963 Y8.4442
G01 X16.5984 Y8.4893
G01 X16.5988 Y8.5274
G01 X16.6172 Y8.4999
G01 X16.6373 Y8.4719
G01 X16.7853 Y8.2749
G01 X16.8032 Y8.2521
G01 X16.8215 Y8.2303
G01 X16.8503 Y8.1976
G01 X16.8763 Y8.1705
G01 X17.0517 Y7.9956
G01 X17.0693 Y7.9787
G01 X17.0871 Y7.9625
G01 X17.1239 Y7.9308
G01 X17.1545 Y7.9064
G01 X17.3583 Y7.7545
G01 X17.3828 Y7.7369
G01 X17.4180 Y7.7132
G01 X17.7689 Y7.4888
G01 X16.3694 Y7.4888
G01 X16.5219 Y7.5897
G01 X16.5409 Y7.6346
G01 X16.5529 Y7.6650
G01 X16.5632 Y7.6936
G01 X16.5773 Y7.7362
G01 X16.5869 Y7.7682
G01 X16.5948 Y7.7984
G01 X16.6520 Y8.0314
G01 X16.6569 Y8.0538
G01 X16.6617 Y8.0789
G01 X16.6714 Y8.1392
G01 X16.6762 Y8.1802
G01 X16.6816 Y8.2450
G01 X16.7104 Y8.2068
G01 X16.7317 Y8.1804
G01 X16.7633 Y8.1436
G01 X16.7876 Y8.1171
G01 X16.8074 Y8.0967
G01 X16.9805 Y7.9242
G01 X17.0018 Y7.9038
G01 X17.0235 Y7.8841
G01 X17.0594 Y7.8532
G01 X17.0902 Y7.8287
G01 X17.3020 Y7.6707
G01 X17.3246 Y7.6545
G01 X17.3512 Y7.6364
G01 X17.4240 Y7.5897
G01 X16.5219 Y7.5897
G01 X16.6685 Y7.6905
G01 X16.6800 Y7.7271
G01 X16.6905 Y7.7655
G01 X16.7507 Y8.0108
G01 X16.9100 Y7.8521
G01 X16.9289 Y7.8338
G01 X16.9482 Y7.8160
G01 X16.9861 Y7.7831
G01 X17.0154 Y7.7591
G01 X17.0380 Y7.7417
G01 X17.1066 Y7.6905
G01 X16.6685 Y7.6905
G01 X16.8008 Y7.7913
G01 X16.8061 Y7.8131
G01 X16.8281 Y7.7913
G01 X16.8008 Y7.7913
G00 Z1.0000
G00 X16.3971 Y10.6054
G01 F30.00
G01 Z0.0000
G01 F45.00
G01 X16.3971 Y12.1718
G01 X16.3971 Y12.1733
G01 X16.3959 Y12.2156
G01 X16.3915 Y12.2822
G01 X16.5206 Y12.2289
G01 X16.5477 Y12.2190
G01 X16.5894 Y12.2055
G01 X16.6090 Y12.1999
G01 X16.6287 Y12.1948
G01 X16.8424 Y12.1435
G01 X16.8617 Y12.1391
G01 X16.8856 Y12.1345
G01 X16.9188 Y12.1292
G01 X16.9389 Y12.1263
G01 X16.9596 Y12.1240
G01 X17.1956 Y12.1053
G01 X17.2334 Y12.1034
G01 X17.2141 Y12.0861
G01 X17.1911 Y12.0642
G01 X17.0153 Y11.8878
G01 X16.9920 Y11.8633
G01 X16.9658 Y11.8332
G01 X16.9523 Y11.8167
G01 X16.9397 Y11.8005
G01 X16.7887 Y11.5981
G01 X16.7739 Y11.5768
G01 X16.7559 Y11.5491
G01 X16.7450 Y11.5313
G01 X16.7340 Y11.5123
G01 X16.6147 Y11.2933
G01 X16.6039 Y11.2725
G01 X16.5939 Y11.2515
G01 X16.5802 Y11.2210
G01 X16.5693 Y11.1940
G01 X16.4836 Y10.9641
G01 X16.4761 Y10.9430
G01 X16.4691 Y10.9210
G01 X16.4597 Y10.8886
G01 X16.4535 Y10.8646
G01 X16.3971 Y10.6054
G01 X16.4980 Y11.2841
G01 X16.4980 Y12.1297
G01 X16.5204 Y12.1218
G01 X16.5518 Y12.1116
G01 X16.5719 Y12.1055
G01 X16.5923 Y12.1000
G01 X16.8352 Y12.0417
G01 X16.8724 Y12.0345
G01 X16.9201 Y12.0271
G01 X16.9519 Y12.0235
G01 X17.0039 Y12.0193
G01 X16.9438 Y11.9591
G01 X16.9290 Y11.9437
G01 X16.9078 Y11.9203
G01 X16.8790 Y11.8865
G01 X16.8577 Y11.8592
G01 X16.7140 Y11.6668
G01 X16.6960 Y11.6416
G01 X16.6835 Y11.6229
G01 X16.6657 Y11.5950
G01 X16.6550 Y11.5773
G01 X16.6448 Y11.5593
G01 X16.5249 Y11.3392
G01 X16.5114 Y11.3129
G01 X16.4980 Y11.2841
G01 X16.5988 Y11.6776
G01 X16.5988 Y11.9945
G01 X16.7980 Y11.9467
G01 X16.7776 Y11.9205
G01 X16.6323 Y11.7259
G01 X16.6157 Y11.7029
G01 X16.5988 Y11.6776
G01 X15.5770 Y13.4293
G01 X15.9628 Y13.0435
G01 X15.9880 Y13.0202
G01 X16.1584 Y12.8747
G01 X16.1718 Y12.8640
G01 X16.1925 Y12.8489
G01 X16.2125 Y12.8356
G01 X16.3983 Y12.7217
G01 X16.4186 Y12.7103
G01 X16.4427 Y12.6981
G01 X16.4583 Y12.6911
G01 X16.6603 Y12.6075
G01 X16.6809 Y12.5998
G01 X16.7066 Y12.5915
G01 X16.7231 Y12.5870
G01 X16.9429 Y12.5343
G01 X16.9549 Y12.5319
G01 X16.9796 Y12.5279
G01 X16.9985 Y12.5255
G01 X17.2307 Y12.5072
G01 X17.2579 Y12.5063
G01 X17.3436 Y12.5063
G01 X17.3717 Y12.5073
G01 X17.3865 Y12.5084
G01 X17.6187 Y12.5312
G01 X17.6346 Y12.5332
G01 X17.6479 Y12.5356
G01 X17.6787 Y12.5418
G01 X17.6972 Y12.5464
G01 X17.9240 Y12.6152
G01 X17.9420 Y12.6216
G01 X17.9710 Y12.6336
G01 X17.9834 Y12.6391
G01 X17.9978 Y12.6462
G01 X18.2038 Y12.7564
G01 X18.2225 Y12.7678
G01 X18.2563 Y12.7908
G01 X18.2695 Y12.8010
G01 X18.4451 Y12.9451
G01 X18.4572 Y12.9556
G01 X18.4674 Y12.9654
G01 X18.4891 Y12.9872
G01 X18.5037 Y13.0035
G01 X18.6490 Y13.1805
G01 X18.6592 Y13.1937
G01 X18.6822 Y13.2275
G01 X18.6942 Y13.2473
G01 X18.8035 Y13.4517
G01 X18.8093 Y13.4632
G01 X18.8157 Y13.4773
G01 X18.8259 Y13.5020
G01 X18.8323 Y13.5187
G01 X18.8582 Y13.6032
G01 X18.8647 Y12.9867
G01 X17.4968 Y11.7979
G01 X17.4740 Y11.7766
G01 X17.3019 Y11.6040
G01 X17.2871 Y11.5881
G01 X17.2723 Y11.5709
G01 X17.2626 Y11.5587
G01 X17.1187 Y11.3661
G01 X17.1063 Y11.3482
G01 X17.0938 Y11.3285
G01 X17.0875 Y11.3180
G01 X16.9709 Y11.1040
G01 X16.9635 Y11.0897
G01 X16.9515 Y11.0633
G01 X16.9459 Y11.0495
G01 X16.8615 Y10.8230
G01 X16.8547 Y10.8024
G01 X16.8483 Y10.7806
G01 X16.8447 Y10.7661
G01 X16.7932 Y10.5288
G01 X16.7903 Y10.5135
G01 X16.7871 Y10.4910
G01 X16.7847 Y10.4694
G01 X16.7674 Y10.2263
G01 X16.7663 Y10.1951
G01 X16.7663 Y10.0099
G01 X16.7668 Y9.9898
G01 X16.7857 Y9.7253
G01 X16.7900 Y9.6935
G01 X16.7934 Y9.6750
G01 X16.8448 Y9.4391
G01 X16.8497 Y9.4197
G01 X16.8568 Y9.3955
G01 X16.8623 Y9.3796
G01 X16.9464 Y9.1546
G01 X16.9548 Y9.1344
G01 X16.9651 Y9.1121
G01 X16.9722 Y9.0982
G01 X17.0878 Y8.8870
G01 X17.0990 Y8.8682
G01 X17.1120 Y8.8481
G01 X17.1214 Y8.8349
G01 X17.2664 Y8.6419
G01 X17.2761 Y8.6297
G01 X17.2910 Y8.6125
G01 X17.3059 Y8.5965
G01 X17.4765 Y8.4265
G01 X17.4878 Y8.4158
G01 X17.5064 Y8.3997
G01 X17.5235 Y8.3860
G01 X17.7191 Y8.2402
G01 X17.7441 Y8.2228
G01 X21.0660 Y6.0984
G01 X21.0660 Y5.8153
G01 X21.0195 Y5.8719
G01 X20.9976 Y5.8960
G01 X20.6274 Y6.2662
G01 X20.6076 Y6.2842
G01 X20.4021 Y6.4597
G01 X20.3859 Y6.4725
G01 X20.3561 Y6.4937
G01 X20.1238 Y6.6362
G01 X20.1024 Y6.6483
G01 X20.0800 Y6.6596
G01 X20.0645 Y6.6666
G01 X19.8197 Y6.7680
G01 X19.7972 Y6.7764
G01 X19.7728 Y6.7842
G01 X19.7598 Y6.7879
G01 X19.4987 Y6.8506
G01 X19.4801 Y6.8545
G01 X19.4498 Y6.8593
G01 X19.4315 Y6.8613
G01 X19.1634 Y6.8824
G01 X19.1310 Y6.8837
G01 X15.0232 Y6.8837
G01 X15.2049 Y7.0095
G01 X15.2227 Y7.0226
G01 X15.4086 Y7.1745
G01 X15.4193 Y7.1837
G01 X15.4438 Y7.2070
G01 X15.4575 Y7.2213
G01 X15.6067 Y7.3900
G01 X15.6191 Y7.4050
G01 X15.6411 Y7.4345
G01 X15.6489 Y7.4462
G01 X15.7676 Y7.6344
G01 X15.7802 Y7.6562
G01 X15.7921 Y7.6790
G01 X15.7995 Y7.6948
G01 X15.8895 Y7.9067
G01 X15.8963 Y7.9250
G01 X15.9043 Y7.9494
G01 X15.9082 Y7.9626
G01 X15.9628 Y8.1842
G01 X15.9678 Y8.2089
G01 X15.9721 Y8.2356
G01 X15.9740 Y8.2530
G01 X15.9924 Y8.4819
G01 X15.9937 Y8.5156
G01 X15.9937 Y12.1726
G01 X15.9927 Y12.2020
G01 X15.9762 Y12.4394
G01 X15.9741 Y12.4592
G01 X15.9710 Y12.4811
G01 X15.9685 Y12.4953
G01 X15.9202 Y12.7245
G01 X15.9163 Y12.7408
G01 X15.9089 Y12.7668
G01 X15.9042 Y12.7811
G01 X15.8250 Y13.0008
G01 X15.8228 Y13.0065
G01 X15.8216 Y13.0098
G01 X15.8206 Y13.0122
G01 X15.8090 Y13.0388
G01 X15.8013 Y13.0547
G01 X15.6925 Y13.2614
G01 X15.6860 Y13.2730
G01 X15.6718 Y13.2963
G01 X15.6635 Y13.3089
G01 X15.5770 Y13.4293
G00 Z1.0000
G00 X13.3906 Y15.3652
G01 F30.00
G01 Z0.0000
G01 F45.00
G01 X13.4985 Y15.3652
G01 X13.5669 Y15.2968
G01 X13.3906 Y15.3652
G00 Z1.0000
G00 X12.5173 Y17.6863
G01 F30.00
G01 Z0.0000
G01 F45.00
G01 X12.5328 Y17.6988
G01 X12.5484 Y17.7123
G01 X12.6112 Y17.7691
G01 X12.6279 Y17.7851
G01 X12.6508 Y17.8088
G01 X12.7061 Y17.8698
G01 X12.7187 Y17.8842
G01 X12.7305 Y17.8986
G01 X12.7411 Y17.9123
G01 X12.7434 Y17.9153
G01 X12.7902 Y17.9784
G01 X12.7911 Y17.9797
G01 X12.8026 Y17.9958
G01 X12.8209 Y18.0240
G01 X12.8646 Y18.0968
G01 X12.8796 Y18.1235
G01 X12.8926 Y18.1493
G01 X12.9314 Y18.2317
G01 X12.9403 Y18.2526
G01 X12.9488 Y18.2747
G01 X12.9778 Y18.3557
G01 X12.9883 Y18.3891
G01 X12.9931 Y18.4071
G01 X13.0139 Y18.4901
G01 X13.0187 Y18.5119
G01 X13.0228 Y18.5345
G01 X13.0363 Y18.6248
G01 X13.0397 Y18.6536
G01 X13.0416 Y18.6807
G01 X13.0456 Y18.7613
G01 X13.0462 Y18.7798
G01 X13.0463 Y19.5924
G01 X13.0456 Y19.6180
G01 X13.0412 Y19.7077
G01 X13.0393 Y19.7307
G01 X13.0366 Y19.7527
G01 X13.0241 Y19.8373
G01 X13.0210 Y19.8563
G01 X13.0138 Y19.8904
G01 X12.9921 Y19.9771
G01 X12.9860 Y19.9986
G01 X12.9793 Y20.0196
G01 X12.9478 Y20.1081
G01 X12.9350 Y20.1402
G01 X12.9201 Y20.1726
G01 X13.0614 Y20.0569
G01 X13.0873 Y20.0379
G01 X13.1260 Y20.0119
G01 X13.1467 Y19.9992
G01 X13.1676 Y19.9874
G01 X13.3698 Y19.8793
G01 X13.3937 Y19.8672
G01 X13.4151 Y19.8575
G01 X13.4496 Y19.8431
G01 X13.4691 Y19.8356
G01 X13.4870 Y19.8293
G01 X13.7206 Y19.7582
G01 X13.7449 Y19.7514
G01 X13.7697 Y19.7456
G01 X13.8126 Y19.7370
G01 X13.8411 Y19.7326
G01 X13.8620 Y19.7301
G01 X14.0982 Y19.7069
G01 X14.1237 Y19.7051
G01 X14.1605 Y19.7038
G01 X16.3906 Y19.7037
G01 X14.3747 Y17.6863
G01 X12.5173 Y17.6863
G01 X12.7673 Y17.7871
G01 X12.7867 Y17.8087
G01 X12.7994 Y17.8235
G01 X12.8118 Y17.8389
G01 X12.8238 Y17.8545
G01 X12.8739 Y17.9221
G01 X12.8907 Y17.9460
G01 X12.9075 Y17.9724
G01 X12.9102 Y17.9767
G01 X12.9506 Y18.0442
G01 X12.9508 Y18.0445
G01 X12.9605 Y18.0612
G01 X12.9697 Y18.0780
G01 X12.9819 Y18.1022
G01 X13.0182 Y18.1789
G01 X13.0262 Y18.1966
G01 X13.0341 Y18.2154
G01 X13.0435 Y18.2401
G01 X13.0731 Y18.3227
G01 X13.0809 Y18.3466
G01 X13.0880 Y18.3713
G01 X13.1110 Y18.4625
G01 X13.1175 Y18.4919
G01 X13.1232 Y18.5235
G01 X13.1358 Y18.6082
G01 X13.1393 Y18.6361
G01 X13.1417 Y18.6640
G01 X13.1463 Y18.7559
G01 X13.1470 Y18.7776
G01 X13.1471 Y19.5900
G01 X13.1468 Y19.6106
G01 X13.1421 Y19.7087
G01 X13.1390 Y19.7460
G01 X13.1358 Y19.7713
G01 X13.1232 Y19.8563
G01 X13.1192 Y19.8795
G01 X13.1147 Y19.9014
G01 X13.3225 Y19.7903
G01 X13.3477 Y19.7775
G01 X13.3752 Y19.7649
G01 X13.4187 Y19.7469
G01 X13.4457 Y19.7369
G01 X13.4737 Y19.7277
G01 X13.7028 Y19.6584
G01 X13.7390 Y19.6491
G01 X13.7831 Y19.6400
G01 X13.8144 Y19.6345
G01 X13.8453 Y19.6305
G01 X14.0840 Y19.6069
G01 X14.1189 Y19.6043
G01 X14.1438 Y19.6032
G01 X14.1655 Y19.6029
G01 X16.1473 Y19.6029
G01 X14.3329 Y17.7871
G01 X12.7673 Y17.7871
G01 X12.9732 Y17.8880
G01 X12.9845 Y17.9052
G01 X12.9962 Y17.9240
G01 X13.0398 Y17.9969
G01 X13.0554 Y18.0244
G01 X13.0647 Y18.0422
G01 X13.0739 Y18.0610
G01 X13.0749 Y18.0629
G01 X13.1085 Y18.1341
G01 X13.1100 Y18.1372
G01 X13.1214 Y18.1628
G01 X13.1301 Y18.1838
G01 X13.1380 Y18.2048
G01 X13.1667 Y18.2851
G01 X13.1748 Y18.3093
G01 X13.1861 Y18.3478
G01 X13.2087 Y18.4376
G01 X13.2156 Y18.4680
G01 X13.2212 Y18.4982
G01 X13.2354 Y18.5925
G01 X13.2385 Y18.6156
G01 X13.2409 Y18.6388
G01 X13.2427 Y18.6632
G01 X13.2477 Y18.7677
G01 X13.2480 Y18.7897
G01 X13.2480 Y19.5934
G01 X13.2472 Y19.6264
G01 X13.2426 Y19.7186
G01 X13.2880 Y19.6946
G01 X13.3202 Y19.6790
G01 X13.3406 Y19.6700
G01 X13.3719 Y19.6570
G01 X13.4052 Y19.6442
G01 X13.4239 Y19.6378
G01 X13.4444 Y19.6312
G01 X13.6635 Y19.5648
G01 X13.6980 Y19.5552
G01 X13.7269 Y19.5485
G01 X13.7683 Y19.5401
G01 X13.7944 Y19.5356
G01 X13.8190 Y19.5320
G01 X13.8423 Y19.5294
G01 X14.0881 Y19.5053
G01 X14.1312 Y19.5028
G01 X14.1652 Y19.5020
G01 X15.9040 Y19.5020
G01 X14.2911 Y17.8880
G01 X12.9732 Y17.8880
G01 X13.1506 Y17.9888
G01 X13.1649 Y18.0175
G01 X13.2063 Y18.1053
G01 X13.2204 Y18.1383
G01 X13.2332 Y18.1716
G01 X13.2341 Y18.1741
G01 X13.2607 Y18.2482
G01 X13.2635 Y18.2562
G01 X13.2759 Y18.2947
G01 X13.2859 Y18.3307
G01 X13.3108 Y18.4311
G01 X13.3170 Y18.4607
G01 X13.3220 Y18.4893
G01 X13.3354 Y18.5796
G01 X13.3389 Y18.6065
G01 X13.3414 Y18.6307
G01 X13.3433 Y18.6566
G01 X13.3483 Y18.7597
G01 X13.3488 Y18.7896
G01 X13.3488 Y19.5577
G01 X13.3787 Y19.5466
G01 X13.4082 Y19.5369
G01 X13.6345 Y19.4682
G01 X13.6733 Y19.4575
G01 X13.7134 Y19.4483
G01 X13.7681 Y19.4377
G01 X13.7916 Y19.4340
G01 X13.8149 Y19.4309
G01 X14.0646 Y19.4062
G01 X14.0914 Y19.4039
G01 X14.1310 Y19.4019
G01 X14.1656 Y19.4012
G01 X15.6606 Y19.4012
G01 X14.2493 Y17.9888
G01 X13.1506 Y17.9888
G01 X13.3095 Y18.0897
G01 X13.3193 Y18.1140
G01 X13.3286 Y18.1387
G01 X13.3582 Y18.2217
G01 X13.3701 Y18.2579
G01 X13.3737 Y18.2697
G01 X13.3741 Y18.2711
G01 X13.3742 Y18.2717
G01 X13.3744 Y18.2721
G01 X13.3756 Y18.2765
G01 X13.3772 Y18.2819
G01 X13.3838 Y18.3068
G01 X13.4052 Y18.3922
G01 X13.4128 Y18.4255
G01 X13.4178 Y18.4515
G01 X13.4222 Y18.4777
G01 X13.4354 Y18.5664
G01 X13.4394 Y18.5976
G01 X13.4418 Y18.6219
G01 X13.4438 Y18.6474
G01 X13.4489 Y18.7508
G01 X13.4497 Y18.7895
G01 X13.4497 Y19.4189
G01 X13.6045 Y19.3719
G01 X13.6319 Y19.3641
G01 X13.6557 Y19.3579
G01 X13.6801 Y19.3522
G01 X13.7413 Y19.3400
G01 X13.7782 Y19.3340
G01 X13.8161 Y19.3293
G01 X14.0560 Y19.3057
G01 X14.0936 Y19.3028
G01 X14.1327 Y19.3009
G01 X14.1654 Y19.3003
G01 X15.4173 Y19.3003
G01 X14.2075 Y18.0897
G01 X13.3095 Y18.0897
G01 X13.4541 Y18.1905
G01 X13.4669 Y18.2297
G01 X13.4784 Y18.2699
G01 X13.4823 Y18.2849
G01 X13.4824 Y18.2851
G01 X13.5015 Y18.3617
G01 X13.5033 Y18.3688
G01 X13.5129 Y18.4119
G01 X13.5178 Y18.4379
G01 X13.5224 Y18.4653
G01 X13.5353 Y18.5522
G01 X13.5396 Y18.5864
G01 X13.5422 Y18.6124
G01 X13.5443 Y18.6398
G01 X13.5494 Y18.7401
G01 X13.5502 Y18.7649
G01 X13.5505 Y18.7880
G01 X13.5505 Y19.2829
G01 X13.6023 Y19.2676
G01 X13.6473 Y19.2563
G01 X13.6724 Y19.2508
G01 X13.7113 Y19.2430
G01 X13.7568 Y19.2353
G01 X13.7838 Y19.2315
G01 X13.8125 Y19.2283
G01 X14.0488 Y19.2051
G01 X14.0735 Y19.2030
G01 X14.0973 Y19.2015
G01 X14.1327 Y19.2000
G01 X14.1644 Y19.1995
G01 X15.1740 Y19.1995
G01 X14.1657 Y18.1905
G01 X13.4541 Y18.1905
G01 X13.5879 Y18.2913
G01 X13.6025 Y18.3499
G01 X13.6111 Y18.3889
G01 X13.6137 Y18.4018
G01 X13.6144 Y18.4054
G01 X13.6147 Y18.4071
G01 X13.6149 Y18.4079
G01 X13.6150 Y18.4084
G01 X13.6164 Y18.4160
G01 X13.6210 Y18.4433
G01 X13.6367 Y18.5499
G01 X13.6422 Y18.5981
G01 X13.6458 Y18.6475
G01 X13.6502 Y18.7380
G01 X13.6513 Y18.7778
G01 X13.6513 Y19.1522
G01 X13.6931 Y19.1438
G01 X13.7218 Y19.1387
G01 X13.7533 Y19.1339
G01 X13.7848 Y19.1299
G01 X14.0425 Y19.1044
G01 X14.0760 Y19.1018
G01 X14.1153 Y19.0997
G01 X14.1650 Y19.0987
G01 X14.9306 Y19.0987
G01 X14.1239 Y18.2913
G01 X13.5879 Y18.2913
G01 X13.7145 Y18.3922
G01 X13.7217 Y18.4347
G01 X13.7224 Y18.4394
G01 X13.7340 Y18.5176
G01 X13.7344 Y18.5198
G01 X13.7372 Y18.5404
G01 X13.7425 Y18.5871
G01 X13.7461 Y18.6341
G01 X13.7509 Y18.7311
G01 X13.7520 Y18.7695
G01 X13.7522 Y19.0323
G01 X13.7906 Y19.0278
G01 X14.0333 Y19.0040
G01 X14.0714 Y19.0010
G01 X14.1191 Y18.9987
G01 X14.1649 Y18.9978
G01 X14.6873 Y18.9978
G01 X14.0821 Y18.3922
G01 X13.7145 Y18.3922
G01 X13.8323 Y18.4930
G01 X13.8360 Y18.5181
G01 X13.8377 Y18.5309
G01 X13.8379 Y18.5330
G01 X13.8380 Y18.5337
G01 X13.8381 Y18.5346
G01 X13.8386 Y18.5386
G01 X13.8393 Y18.5438
G01 X13.8442 Y18.5931
G01 X13.8470 Y18.6324
G01 X13.8514 Y18.7208
G01 X13.8524 Y18.7493
G01 X13.8530 Y18.7785
G01 X13.8530 Y18.9203
G01 X14.0302 Y18.9030
G01 X14.0684 Y18.9002
G01 X14.1099 Y18.8981
G01 X14.1629 Y18.8970
G01 X14.4440 Y18.8970
G01 X14.0403 Y18.4930
G01 X13.8323 Y18.4930
G01 X13.9455 Y18.5939
G01 X13.9479 Y18.6314
G01 X13.9527 Y18.7295
G01 X13.9537 Y18.7664
G01 X13.9539 Y18.8091
G01 X14.0265 Y18.8021
G01 X14.0756 Y18.7987
G01 X14.1349 Y18.7965
G01 X14.2006 Y18.7961
G01 X13.9985 Y18.5939
G01 X13.9455 Y18.5939
G01 X12.1575 Y17.5854
G01 X12.2303 Y17.6199
G01 X12.2512 Y17.6305
G01 X12.2706 Y17.6415
G01 X12.3431 Y17.6850
G01 X12.3618 Y17.6970
G01 X12.3785 Y17.7086
G01 X12.3815 Y17.7108
G01 X12.4446 Y17.7576
G01 X12.4470 Y17.7594
G01 X12.4655 Y17.7739
G01 X12.4824 Y17.7885
G01 X12.5454 Y17.8456
G01 X12.5610 Y17.8607
G01 X12.5754 Y17.8758
G01 X12.6315 Y17.9376
G01 X12.6461 Y17.9545
G01 X12.6606 Y17.9730
G01 X12.7103 Y18.0400
G01 X12.7229 Y18.0579
G01 X12.7347 Y18.0763
G01 X12.7785 Y18.1494
G01 X12.7894 Y18.1686
G01 X12.8001 Y18.1897
G01 X12.8364 Y18.2664
G01 X12.8445 Y18.2846
G01 X12.8517 Y18.3030
G01 X12.8813 Y18.3854
G01 X12.8883 Y18.4067
G01 X12.8948 Y18.4295
G01 X12.9147 Y18.5091
G01 X12.9193 Y18.5294
G01 X12.9231 Y18.5498
G01 X12.9378 Y18.6497
G01 X12.9395 Y18.6657
G01 X12.9408 Y18.6832
G01 X12.9449 Y18.7661
G01 X12.9454 Y18.7864
G01 X12.9454 Y19.5986
G01 X12.9409 Y19.6951
G01 X12.9387 Y19.7226
G01 X12.9362 Y19.7427
G01 X12.9242 Y19.8234
G01 X12.9216 Y19.8388
G01 X12.9183 Y19.8554
G01 X12.8954 Y19.9479
G01 X12.8894 Y19.9698
G01 X12.8819 Y19.9930
G01 X12.8532 Y20.0731
G01 X12.8447 Y20.0948
G01 X12.8358 Y20.1150
G01 X12.7994 Y20.1918
G01 X12.7846 Y20.2201
G01 X12.7366 Y20.3005
G01 X12.7244 Y20.3198
G01 X12.7100 Y20.3404
G01 X12.6540 Y20.4156
G01 X12.6439 Y20.4281
G01 X12.6332 Y20.4404
G01 X12.5707 Y20.5093
G01 X12.5502 Y20.5298
G01 X12.5231 Y20.5545
G01 X12.6665 Y20.5546
G01 X12.8914 Y20.3297
G01 X12.9032 Y20.3183
G01 X12.9165 Y20.3063
G01 X13.1244 Y20.1357
G01 X13.1448 Y20.1207
G01 X13.1764 Y20.0995
G01 X13.1937 Y20.0886
G01 X13.2126 Y20.0777
G01 X13.4256 Y19.9639
G01 X13.4530 Y19.9510
G01 X13.4945 Y19.9338
G01 X13.5122 Y19.9273
G01 X13.5307 Y19.9212
G01 X13.7540 Y19.8535
G01 X13.7847 Y19.8455
G01 X13.8306 Y19.8363
G01 X13.8495 Y19.8332
G01 X13.8691 Y19.8308
G01 X14.1044 Y19.8076
G01 X14.1277 Y19.8059
G01 X14.1616 Y19.8046
G01 X16.6340 Y19.8046
G01 X14.4165 Y17.5854
G01 X12.1575 Y17.5854
G00 Z1.0000
G00 X11.2759 Y17.9496
G01 F30.00
G01 Z0.0000
G01 F45.00
G01 X11.2861 Y17.9454
G01 X11.3600 Y17.9189
G01 X11.3705 Y17.9158
G01 X11.4521 Y17.8955
G01 X11.5351 Y17.8830
G01 X11.5461 Y17.8819
G01 X11.6300 Y17.8780
G01 X11.7194 Y17.8823
G01 X11.8079 Y17.8955
G01 X11.8948 Y17.9172
G01 X11.9790 Y17.9474
G01 X12.0550 Y17.9832
G01 X12.0647 Y17.9884
G01 X12.1321 Y18.0287
G01 X12.1412 Y18.0348
G01 X12.2086 Y18.0850
G01 X12.2749 Y18.1451
G01 X12.3350 Y18.2114
G01 X12.3868 Y18.2810
G01 X12.3913 Y18.2879
G01 X12.4344 Y18.3601
G01 X12.4704 Y18.4359
G01 X12.4746 Y18.4461
G01 X12.5028 Y18.5252
G01 X12.5233 Y18.6067
G01 X12.5255 Y18.6175
G01 X12.5377 Y18.7006
G01 X12.5420 Y18.7900
G01 X12.5420 Y19.5900
G01 X12.5377 Y19.6794
G01 X12.5255 Y19.7625
G01 X12.5233 Y19.7733
G01 X12.5042 Y19.8495
G01 X12.5011 Y19.8600
G01 X12.4726 Y19.9390
G01 X12.4344 Y20.0199
G01 X12.3913 Y20.0921
G01 X12.3852 Y20.1012
G01 X12.3350 Y20.1686
G01 X12.2787 Y20.2309
G01 X12.2709 Y20.2387
G01 X12.2086 Y20.2950
G01 X12.1412 Y20.3452
G01 X12.1321 Y20.3513
G01 X12.0599 Y20.3944
G01 X11.9841 Y20.4304
G01 X11.9739 Y20.4346
G01 X11.9000 Y20.4611
G01 X11.8895 Y20.4642
G01 X11.8079 Y20.4845
G01 X11.7249 Y20.4970
G01 X11.7139 Y20.4981
G01 X11.6300 Y20.5020
G01 X11.5406 Y20.4977
G01 X11.4575 Y20.4855
G01 X11.4467 Y20.4833
G01 X11.3652 Y20.4628
G01 X11.2810 Y20.4326
G01 X11.2050 Y20.3968
G01 X11.1953 Y20.3916
G01 X11.1233 Y20.3483
G01 X11.0514 Y20.2950
G01 X10.9891 Y20.2387
G01 X10.9813 Y20.2309
G01 X10.9286 Y20.1728
G01 X10.9233 Y20.1665
G01 X10.8717 Y20.0967
G01 X10.8284 Y20.0247
G01 X10.8232 Y20.0150
G01 X10.7874 Y19.9390
G01 X10.7589 Y19.8600
G01 X10.7558 Y19.8495
G01 X10.7355 Y19.7679
G01 X10.7226 Y19.6821
G01 X10.7219 Y19.6739
G01 X10.7180 Y19.5900
G01 X10.7180 Y18.7900
G01 X10.7223 Y18.7006
G01 X10.7350 Y18.6148
G01 X10.7367 Y18.6067
G01 X10.7572 Y18.5252
G01 X10.7854 Y18.4461
G01 X10.7896 Y18.4359
G01 X10.8256 Y18.3601
G01 X10.8687 Y18.2879
G01 X10.8748 Y18.2788
G01 X10.9216 Y18.2157
G01 X10.9286 Y18.2072
G01 X10.9851 Y18.1451
G01 X11.0472 Y18.0886
G01 X11.0557 Y18.0816
G01 X11.1188 Y18.0348
G01 X11.1279 Y18.0287
G01 X11.2001 Y17.9856
G01 X11.2759 Y17.9496
G01 X11.2328 Y17.8584
G01 X11.2521 Y17.8504
G01 X11.3261 Y17.8240
G01 X11.3398 Y17.8196
G01 X11.4312 Y17.7968
G01 X11.4427 Y17.7948
G01 X11.5203 Y17.7833
G01 X11.5399 Y17.7813
G01 X11.6196 Y17.7774
G01 X11.6312 Y17.7771
G01 X11.7280 Y17.7819
G01 X11.7397 Y17.7833
G01 X11.8185 Y17.7950
G01 X11.8366 Y17.7986
G01 X11.9140 Y17.8179
G01 X11.9339 Y17.8240
G01 X12.0079 Y17.8504
G01 X12.0188 Y17.8547
G01 X12.0981 Y17.8920
G01 X12.1086 Y17.8973
G01 X12.1917 Y17.9471
G01 X12.2013 Y17.9538
G01 X12.2643 Y18.0006
G01 X12.2805 Y18.0138
G01 X12.3396 Y18.0674
G01 X12.3526 Y18.0804
G01 X12.4062 Y18.1395
G01 X12.4138 Y18.1484
G01 X12.4699 Y18.2240
G01 X12.4778 Y18.2361
G01 X12.5181 Y18.3034
G01 X12.5239 Y18.3136
G01 X12.5621 Y18.3940
G01 X12.5696 Y18.4121
G01 X12.5960 Y18.4861
G01 X12.5996 Y18.4972
G01 X12.6211 Y18.5822
G01 X12.6250 Y18.6015
G01 X12.6376 Y18.6868
G01 X12.6388 Y18.7011
G01 X12.6429 Y18.7900
G01 X12.6429 Y19.5900
G01 X12.6388 Y19.6789
G01 X12.6369 Y19.6984
G01 X12.6237 Y19.7864
G01 X12.6211 Y19.7978
G01 X12.6021 Y19.8740
G01 X12.5964 Y19.8928
G01 X12.5663 Y19.9765
G01 X12.5616 Y19.9872
G01 X12.5280 Y20.0581
G01 X12.5188 Y20.0755
G01 X12.4729 Y20.1517
G01 X12.4662 Y20.1613
G01 X12.4194 Y20.2243
G01 X12.4122 Y20.2335
G01 X12.3526 Y20.2996
G01 X12.3387 Y20.3134
G01 X12.2735 Y20.3722
G01 X12.2643 Y20.3794
G01 X12.2013 Y20.4262
G01 X12.1850 Y20.4371
G01 X12.1086 Y20.4827
G01 X12.0981 Y20.4880
G01 X12.0272 Y20.5216
G01 X12.0165 Y20.5263
G01 X11.9328 Y20.5564
G01 X11.9140 Y20.5621
G01 X11.8288 Y20.5832
G01 X11.8173 Y20.5852
G01 X11.7397 Y20.5967
G01 X11.7201 Y20.5987
G01 X11.6404 Y20.6026
G01 X11.6288 Y20.6029
G01 X11.5399 Y20.5987
G01 X11.5203 Y20.5967
G01 X11.4336 Y20.5837
G01 X11.4222 Y20.5811
G01 X11.3460 Y20.5621
G01 X11.3272 Y20.5564
G01 X11.2435 Y20.5263
G01 X11.2328 Y20.5216
G01 X11.1619 Y20.4880
G01 X11.1469 Y20.4802
G01 X11.0761 Y20.4378
G01 X11.0662 Y20.4315
G01 X10.9957 Y20.3794
G01 X10.9865 Y20.3722
G01 X10.9213 Y20.3134
G01 X10.9129 Y20.3053
G01 X10.8538 Y20.2405
G01 X10.8462 Y20.2316
G01 X10.7938 Y20.1613
G01 X10.7871 Y20.1517
G01 X10.7419 Y20.0766
G01 X10.7361 Y20.0664
G01 X10.6947 Y19.9788
G01 X10.6904 Y19.9679
G01 X10.6611 Y19.8852
G01 X10.6579 Y19.8740
G01 X10.6386 Y19.7966
G01 X10.6348 Y19.7773
G01 X10.6233 Y19.6997
G01 X10.6219 Y19.6880
G01 X10.6173 Y19.5992
G01 X10.6171 Y18.7860
G01 X10.6213 Y18.6999
G01 X10.6233 Y18.6803
G01 X10.6363 Y18.5936
G01 X10.6389 Y18.5822
G01 X10.6579 Y18.5060
G01 X10.6636 Y18.4872
G01 X10.6937 Y18.4035
G01 X10.6984 Y18.3928
G01 X10.7320 Y18.3219
G01 X10.7386 Y18.3090
G01 X10.7871 Y18.2283
G01 X10.7938 Y18.2187
G01 X10.8413 Y18.1547
G01 X10.8530 Y18.1404
G01 X10.9066 Y18.0813
G01 X10.9213 Y18.0666
G01 X10.9795 Y18.0138
G01 X10.9884 Y18.0062
G01 X11.0662 Y17.9485
G01 X11.0761 Y17.9422
G01 X11.1514 Y17.8973
G01 X11.1619 Y17.8920
G01 X11.2328 Y17.8584
G01 X11.1897 Y17.7673
G01 X11.2026 Y17.7615
G01 X11.2158 Y17.7563
G01 X11.2927 Y17.7288
G01 X11.3055 Y17.7246
G01 X11.3209 Y17.7203
G01 X11.3995 Y17.7006
G01 X11.4115 Y17.6979
G01 X11.4261 Y17.6953
G01 X11.5062 Y17.6834
G01 X11.5196 Y17.6818
G01 X11.5356 Y17.6805
G01 X11.6152 Y17.6766
G01 X11.6288 Y17.6763
G01 X11.6429 Y17.6765
G01 X11.7367 Y17.6814
G01 X11.7538 Y17.6834
G01 X11.8321 Y17.6950
G01 X11.8497 Y17.6982
G01 X11.9409 Y17.7207
G01 X11.9545 Y17.7246
G01 X11.9679 Y17.7290
G01 X12.0424 Y17.7557
G01 X12.0574 Y17.7615
G01 X12.0697 Y17.7670
G01 X12.1418 Y17.8011
G01 X12.1539 Y17.8072
G01 X12.1663 Y17.8141
G01 X12.2467 Y17.8626
G01 X12.2614 Y17.8728
G01 X12.3249 Y17.9200
G01 X12.3385 Y17.9306
G01 X12.4082 Y17.9935
G01 X12.4184 Y18.0033
G01 X12.4282 Y18.0136
G01 X12.4813 Y18.0723
G01 X12.4917 Y18.0844
G01 X12.5000 Y18.0951
G01 X12.5475 Y18.1591
G01 X12.5553 Y18.1702
G01 X12.5633 Y18.1827
G01 X12.6050 Y18.2521
G01 X12.6116 Y18.2639
G01 X12.6189 Y18.2782
G01 X12.6527 Y18.3497
G01 X12.6599 Y18.3661
G01 X12.6918 Y18.4544
G01 X12.6961 Y18.4679
G01 X12.6999 Y18.4815
G01 X12.7191 Y18.5583
G01 X12.7226 Y18.5739
G01 X12.7249 Y18.5873
G01 X12.7366 Y18.6662
G01 X12.7382 Y18.6796
G01 X12.7394 Y18.6937
G01 X12.7434 Y18.7746
G01 X12.7437 Y18.7881
G01 X12.7437 Y19.5965
G01 X12.7395 Y19.6838
G01 X12.7385 Y19.6979
G01 X12.7366 Y19.7138
G01 X12.7242 Y19.7973
G01 X12.7191 Y19.8217
G01 X12.6997 Y19.8991
G01 X12.6954 Y19.9145
G01 X12.6912 Y19.9273
G01 X12.6639 Y20.0036
G01 X12.6594 Y20.0151
G01 X12.6535 Y20.0286
G01 X12.6189 Y20.1018
G01 X12.6128 Y20.1139
G01 X12.6050 Y20.1279
G01 X12.5643 Y20.1958
G01 X12.5574 Y20.2067
G01 X12.5502 Y20.2171
G01 X12.4965 Y20.2896
G01 X12.4821 Y20.3068
G01 X12.4277 Y20.3668
G01 X12.4184 Y20.3767
G01 X12.4068 Y20.3877
G01 X12.3477 Y20.4413
G01 X12.3356 Y20.4517
G01 X12.3249 Y20.4600
G01 X12.2614 Y20.5072
G01 X12.2498 Y20.5153
G01 X12.2358 Y20.5243
G01 X12.1572 Y20.5711
G01 X12.1418 Y20.5789
G01 X12.0703 Y20.6127
G01 X12.0574 Y20.6185
G01 X12.0436 Y20.6239
G01 X11.9673 Y20.6512
G01 X11.9521 Y20.6561
G01 X11.9391 Y20.6597
G01 X11.8623 Y20.6790
G01 X11.8485 Y20.6821
G01 X11.8327 Y20.6849
G01 X11.7544 Y20.6965
G01 X11.7404 Y20.6982
G01 X11.7257 Y20.6994
G01 X11.6448 Y20.7034
G01 X11.6275 Y20.7037
G01 X11.5362 Y20.6995
G01 X11.5221 Y20.6985
G01 X11.5062 Y20.6966
G01 X11.4261 Y20.6847
G01 X11.4115 Y20.6821
G01 X11.3977 Y20.6790
G01 X11.3165 Y20.6586
G01 X11.2938 Y20.6516
G01 X11.2176 Y20.6243
G01 X11.2049 Y20.6194
G01 X11.1903 Y20.6130
G01 X11.1182 Y20.5789
G01 X11.1061 Y20.5728
G01 X11.0932 Y20.5656
G01 X11.0237 Y20.5240
G01 X11.0102 Y20.5153
G01 X10.9986 Y20.5072
G01 X10.9351 Y20.4600
G01 X10.9244 Y20.4517
G01 X10.9123 Y20.4413
G01 X10.8536 Y20.3882
G01 X10.8433 Y20.3784
G01 X10.8335 Y20.3682
G01 X10.7787 Y20.3077
G01 X10.7699 Y20.2975
G01 X10.7600 Y20.2849
G01 X10.7117 Y20.2199
G01 X10.7033 Y20.2077
G01 X10.6957 Y20.1958
G01 X10.6550 Y20.1279
G01 X10.6472 Y20.1139
G01 X10.6408 Y20.1013
G01 X10.6020 Y20.0185
G01 X10.5957 Y20.0024
G01 X10.5684 Y19.9262
G01 X10.5639 Y19.9121
G01 X10.5606 Y19.9003
G01 X10.5409 Y19.8217
G01 X10.5379 Y19.8085
G01 X10.5351 Y19.7927
G01 X10.5235 Y19.7144
G01 X10.5218 Y19.7004
G01 X10.5206 Y19.6863
G01 X10.5166 Y19.6054
G01 X10.5163 Y19.5919
G01 X10.5164 Y18.7798
G01 X10.5205 Y18.6962
G01 X10.5215 Y18.6821
G01 X10.5234 Y18.6662
G01 X10.5353 Y18.5861
G01 X10.5379 Y18.5715
G01 X10.5410 Y18.5577
G01 X10.5607 Y18.4791
G01 X10.5673 Y18.4570
G01 X10.5957 Y18.3776
G01 X10.6015 Y18.3626
G01 X10.6070 Y18.3503
G01 X10.6408 Y18.2787
G01 X10.6489 Y18.2628
G01 X10.6957 Y18.1842
G01 X10.7053 Y18.1692
G01 X10.7611 Y18.0936
G01 X10.7699 Y18.0825
G01 X10.7791 Y18.0718
G01 X10.8331 Y18.0123
G01 X10.8462 Y17.9988
G01 X10.9136 Y17.9375
G01 X10.9244 Y17.9283
G01 X10.9356 Y17.9196
G01 X11.0029 Y17.8698
G01 X11.0133 Y17.8626
G01 X11.0242 Y17.8557
G01 X11.0921 Y17.8150
G01 X11.1039 Y17.8084
G01 X11.1182 Y17.8011
G01 X11.1897 Y17.7673
G01 X10.6454 Y17.9190
G01 X10.6853 Y17.8750
G01 X10.7025 Y17.8572
G01 X10.7171 Y17.8433
G01 X10.7790 Y17.7873
G01 X10.7936 Y17.7747
G01 X10.8086 Y17.7628
G01 X10.8814 Y17.7087
G01 X10.8974 Y17.6975
G01 X10.9140 Y17.6867
G01 X11.0021 Y17.6342
G01 X11.0285 Y17.6205
G01 X11.1025 Y17.5854
G01 X10.8435 Y17.5854
G01 X10.6454 Y17.7835
G01 X10.6454 Y17.9190
G01 X10.5446 Y18.2464
G01 X10.5550 Y18.2248
G01 X10.5647 Y18.2069
G01 X10.6094 Y18.1321
G01 X10.6184 Y18.1178
G01 X10.6304 Y18.1006
G01 X10.6803 Y18.0333
G01 X10.6919 Y18.0185
G01 X10.7028 Y18.0059
G01 X10.7580 Y17.9450
G01 X10.7720 Y17.9303
G01 X10.7852 Y17.9178
G01 X10.8441 Y17.8644
G01 X10.8450 Y17.8636
G01 X10.8459 Y17.8628
G01 X10.8461 Y17.8625
G01 X10.8489 Y17.8601
G01 X10.8704 Y17.8425
G01 X10.9388 Y17.7916
G01 X10.9542 Y17.7808
G01 X10.9700 Y17.7707
G01 X11.0408 Y17.7282
G01 X11.0585 Y17.7183
G01 X11.0748 Y17.7101
G01 X11.1497 Y17.6747
G01 X11.1663 Y17.6674
G01 X11.1830 Y17.6610
G01 X11.2607 Y17.6332
G01 X11.2836 Y17.6259
G01 X11.3735 Y17.6031
G01 X11.3912 Y17.5991
G01 X11.4119 Y17.5955
G01 X11.4935 Y17.5834
G01 X11.5122 Y17.5811
G01 X11.5309 Y17.5798
G01 X11.6134 Y17.5758
G01 X11.6281 Y17.5754
G01 X11.6433 Y17.5756
G01 X11.7297 Y17.5798
G01 X11.7478 Y17.5811
G01 X11.7680 Y17.5836
G01 X11.8481 Y17.5955
G01 X11.8657 Y17.5985
G01 X11.8841 Y17.6025
G01 X11.9642 Y17.6226
G01 X11.9843 Y17.6283
G01 X12.0019 Y17.6341
G01 X12.0767 Y17.6609
G01 X12.0931 Y17.6672
G01 X12.1123 Y17.6756
G01 X12.1844 Y17.7097
G01 X12.2009 Y17.7180
G01 X12.2173 Y17.7271
G01 X12.2887 Y17.7699
G01 X12.3058 Y17.7808
G01 X12.3207 Y17.7913
G01 X12.3875 Y17.8408
G01 X12.4020 Y17.8523
G01 X12.4159 Y17.8644
G01 X12.4750 Y17.9180
G01 X12.4901 Y17.9325
G01 X12.5022 Y17.9452
G01 X12.5556 Y18.0041
G01 X12.5677 Y18.0180
G01 X12.5807 Y18.0345
G01 X12.6298 Y18.1008
G01 X12.6406 Y18.1162
G01 X12.6501 Y18.1313
G01 X12.6918 Y18.2008
G01 X12.7017 Y18.2185
G01 X12.7099 Y18.2348
G01 X12.7476 Y18.3147
G01 X12.7533 Y18.3281
G01 X12.7586 Y18.3419
G01 X12.7862 Y18.4190
G01 X12.7914 Y18.4345
G01 X12.7975 Y18.4561
G01 X12.8199 Y18.5467
G01 X12.8246 Y18.5722
G01 X12.8364 Y18.6517
G01 X12.8383 Y18.6673
G01 X12.8401 Y18.6888
G01 X12.8441 Y18.7700
G01 X12.8446 Y18.7900
G01 X12.8445 Y19.5989
G01 X12.8402 Y19.6897
G01 X12.8384 Y19.7121
G01 X12.8364 Y19.7283
G01 X12.8244 Y19.8094
G01 X12.8218 Y19.8239
G01 X12.8187 Y19.8387
G01 X12.7971 Y19.9254
G01 X12.7904 Y19.9487
G01 X12.7572 Y20.0419
G01 X12.7509 Y20.0577
G01 X12.7440 Y20.0731
G01 X12.7072 Y20.1507
G01 X12.6997 Y20.1653
G01 X12.6911 Y20.1803
G01 X12.6503 Y20.2484
G01 X12.6406 Y20.2638
G01 X12.6289 Y20.2804
G01 X12.5814 Y20.3445
G01 X12.5701 Y20.3591
G01 X12.5581 Y20.3732
G01 X12.5022 Y20.4348
G01 X12.4915 Y20.4462
G01 X12.4748 Y20.4622
G01 X12.4055 Y20.5247
G01 X12.3852 Y20.5409
G01 X12.3207 Y20.5887
G01 X12.3074 Y20.5982
G01 X12.2887 Y20.6101
G01 X12.2129 Y20.6554
G01 X12.7083 Y20.6554
G01 X12.9621 Y20.4016
G01 X12.9780 Y20.3866
G01 X12.9920 Y20.3745
G01 X13.1821 Y20.2186
G01 X13.2034 Y20.2028
G01 X13.2396 Y20.1788
G01 X13.2635 Y20.1648
G01 X13.4699 Y20.0546
G01 X13.4933 Y20.0435
G01 X13.5300 Y20.0282
G01 X13.5453 Y20.0225
G01 X13.5605 Y20.0175
G01 X13.7847 Y19.9496
G01 X13.8117 Y19.9428
G01 X13.8582 Y19.9339
G01 X13.8818 Y19.9308
G01 X14.1149 Y19.9079
G01 X14.1339 Y19.9065
G01 X14.1636 Y19.9054
G01 X16.8436 Y19.9054
G01 X16.8575 Y19.9057
G01 X16.8804 Y19.9068
G01 X14.4583 Y17.4846
G01 X10.8017 Y17.4846
G01 X10.5446 Y17.7417
G01 X10.5446 Y18.2464
G00 Z1.0000
G00 X10.3543 Y20.5546
G01 F30.00
G01 Z0.0000
G01 F45.00
G01 X10.7369 Y20.5546
G01 X10.7105 Y20.5305
G01 X10.6919 Y20.5120
G01 X10.6293 Y20.4432
G01 X10.6155 Y20.4274
G01 X10.5994 Y20.4070
G01 X10.5457 Y20.3345
G01 X10.5315 Y20.3136
G01 X10.5173 Y20.2903
G01 X10.4456 Y20.4245
G01 X10.4300 Y20.4514
G01 X10.4063 Y20.4875
G01 X10.3939 Y20.5051
G01 X10.3800 Y20.5232
G01 X10.3543 Y20.5546
G01 X10.1248 Y20.6554
G01 X11.0471 Y20.6554
G01 X10.9713 Y20.6101
G01 X10.9537 Y20.5989
G01 X10.9393 Y20.5887
G01 X10.8755 Y20.5414
G01 X10.8604 Y20.5297
G01 X10.8441 Y20.5156
G01 X10.7852 Y20.4622
G01 X10.7725 Y20.4501
G01 X10.7580 Y20.4350
G01 X10.7001 Y20.3711
G01 X10.6899 Y20.3591
G01 X10.6806 Y20.3472
G01 X10.6237 Y20.2701
G01 X10.6107 Y20.2500
G01 X10.5684 Y20.1795
G01 X10.5603 Y20.1653
G01 X10.5528 Y20.1507
G01 X10.5161 Y20.0734
G01 X10.5074 Y20.0537
G01 X10.5005 Y20.0357
G01 X10.4618 Y20.1626
G01 X10.4542 Y20.1835
G01 X10.4412 Y20.2151
G01 X10.4346 Y20.2300
G01 X10.4262 Y20.2468
G01 X10.3535 Y20.3826
G01 X10.3456 Y20.3962
G01 X10.3368 Y20.4100
G01 X10.3184 Y20.4373
G01 X10.3060 Y20.4542
G01 X10.2066 Y20.5755
G01 X10.1962 Y20.5876
G01 X10.1854 Y20.5991
G01 X10.1517 Y20.6324
G01 X10.1399 Y20.6429
G01 X10.1248 Y20.6554
G01 X9.7986 Y20.7563
G01 X12.7500 Y20.7563
G01 X13.0332 Y20.4732
G01 X13.0452 Y20.4617
G01 X13.0560 Y20.4525
G01 X13.2456 Y20.2970
G01 X13.2599 Y20.2863
G01 X13.2860 Y20.2688
G01 X13.2974 Y20.2616
G01 X13.3103 Y20.2542
G01 X13.5122 Y20.1462
G01 X13.5266 Y20.1391
G01 X13.5395 Y20.1334
G01 X13.5680 Y20.1216
G01 X13.5860 Y20.1152
G01 X13.8078 Y20.0479
G01 X13.8214 Y20.0441
G01 X13.8352 Y20.0409
G01 X13.8666 Y20.0347
G01 X13.8831 Y20.0322
G01 X14.1235 Y20.0084
G01 X14.1389 Y20.0072
G01 X14.1664 Y20.0063
G01 X16.8461 Y20.0063
G01 X16.8711 Y20.0072
G01 X16.8846 Y20.0082
G01 X17.1181 Y20.0312
G01 X17.1358 Y20.0334
G01 X17.1529 Y20.0366
G01 X14.5000 Y17.3837
G01 X10.7600 Y17.3837
G01 X10.4437 Y17.7000
G01 X10.4437 Y19.7156
G01 X10.4418 Y19.7514
G01 X10.4263 Y19.9080
G01 X10.4237 Y19.9257
G01 X10.4178 Y19.9559
G01 X10.4150 Y19.9685
G01 X10.4118 Y19.9807
G01 X10.3669 Y20.1286
G01 X10.3604 Y20.1466
G01 X10.3451 Y20.1833
G01 X10.3363 Y20.2012
G01 X10.2643 Y20.3356
G01 X10.2556 Y20.3498
G01 X10.2389 Y20.3749
G01 X10.2242 Y20.3951
G01 X10.1237 Y20.5173
G01 X10.1133 Y20.5287
G01 X10.0920 Y20.5500
G01 X10.0736 Y20.5669
G01 X9.9586 Y20.6613
G01 X9.9387 Y20.6763
G01 X9.9098 Y20.6956
G01 X9.8956 Y20.7043
G01 X9.7986 Y20.7563
G00 Z1.0000
G00 X8.8407 Y22.3290
G01 F30.00
G01 Z0.0000
G01 F45.00
G01 X8.8412 Y22.3333
G01 X8.8489 Y22.3501
G01 X8.8877 Y22.4309
G01 X8.8887 Y22.4324
G01 X8.9377 Y22.4837
G01 X9.0343 Y22.5339
G01 X9.0376 Y22.5352
G01 X9.0546 Y22.5357
G01 X9.0638 Y22.5355
G01 X9.2297 Y22.5373
G01 X9.2440 Y22.5368
G01 X9.2523 Y22.5373
G01 X9.2605 Y22.5384
G01 X9.2686 Y22.5401
G01 X9.2792 Y22.5434
G01 X9.2918 Y22.5488
G01 X9.2991 Y22.5529
G01 X9.3060 Y22.5574
G01 X9.3168 Y22.5661
G01 X9.3227 Y22.5719
G01 X9.3281 Y22.5781
G01 X9.3362 Y22.5894
G01 X9.3403 Y22.5965
G01 X9.3439 Y22.6040
G01 X9.3486 Y22.6170
G01 X9.3517 Y22.6304
G01 X9.3528 Y22.6387
G01 X9.3532 Y22.6497
G01 X9.3528 Y22.6580
G01 X9.3514 Y22.6689
G01 X9.3489 Y22.6797
G01 X9.3463 Y22.6876
G01 X9.3431 Y22.6952
G01 X9.3381 Y22.7051
G01 X9.3336 Y22.7121
G01 X9.2742 Y22.7990
G01 X9.2695 Y22.8053
G01 X9.2607 Y22.8151
G01 X9.2355 Y22.8391
G01 X9.2294 Y22.8445
G01 X9.2207 Y22.8509
G01 X9.2091 Y22.8577
G01 X9.1532 Y22.8844
G01 X9.1432 Y22.8883
G01 X9.1302 Y22.8919
G01 X9.1196 Y22.8935
G01 X9.1088 Y22.8942
G01 X8.9520 Y22.8927
G01 X8.9429 Y22.8964
G01 X8.9399 Y22.8994
G01 X8.9383 Y22.9033
G01 X8.9383 Y22.9075
G01 X8.9399 Y22.9114
G01 X8.9429 Y22.9143
G01 X8.9474 Y22.9162
G01 X9.1345 Y22.9183
G01 X9.1387 Y22.9179
G01 X9.1555 Y22.9101
G01 X9.2378 Y22.8703
G01 X9.2895 Y22.8207
G01 X9.2929 Y22.8142
G01 X9.2976 Y22.8069
G01 X9.3863 Y22.6769
G01 X9.4364 Y22.4845
G01 X9.4367 Y22.4829
G01 X9.4358 Y22.4684
G01 X9.4380 Y22.1010
G01 X9.4375 Y22.0965
G01 X9.4298 Y22.0797
G01 X9.3900 Y21.9974
G01 X9.3409 Y21.9462
G01 X9.2443 Y21.8959
G01 X9.2411 Y21.8946
G01 X9.2241 Y21.8941
G01 X9.2149 Y21.8943
G01 X9.0490 Y21.8925
G01 X9.0447 Y21.8929
G01 X9.0280 Y21.9006
G01 X8.9457 Y21.9404
G01 X8.8950 Y21.9887
G01 X8.8441 Y22.0861
G01 X8.8429 Y22.0893
G01 X8.8423 Y22.1059
G01 X8.8427 Y22.1156
G01 X8.8407 Y22.3290
G01 X8.8756 Y22.3500
G01 X8.8715 Y22.3401
G01 X8.8683 Y22.3299
G01 X8.8661 Y22.3194
G01 X8.8648 Y22.3061
G01 X8.8663 Y22.1218
G01 X8.8670 Y22.1106
G01 X8.8687 Y22.0996
G01 X8.8725 Y22.0862
G01 X8.8766 Y22.0759
G01 X8.9056 Y22.0201
G01 X8.9099 Y22.0127
G01 X8.9163 Y22.0034
G01 X8.9238 Y21.9948
G01 X8.9479 Y21.9717
G01 X8.9540 Y21.9663
G01 X8.9627 Y21.9599
G01 X8.9744 Y21.9530
G01 X9.0278 Y21.9275
G01 X9.0352 Y21.9243
G01 X9.0454 Y21.9208
G01 X9.0559 Y21.9184
G01 X9.0666 Y21.9170
G01 X9.0773 Y21.9166
G01 X9.2116 Y21.9181
G01 X9.2199 Y21.9187
G01 X9.2308 Y21.9205
G01 X9.2442 Y21.9242
G01 X9.2570 Y21.9295
G01 X9.3128 Y21.9587
G01 X9.3201 Y21.9631
G01 X9.3292 Y21.9699
G01 X9.3376 Y21.9775
G01 X9.3606 Y22.0017
G01 X9.3675 Y22.0100
G01 X9.3721 Y22.0167
G01 X9.3786 Y22.0286
G01 X9.4044 Y22.0827
G01 X9.4076 Y22.0905
G01 X9.4108 Y22.1013
G01 X9.4134 Y22.1151
G01 X9.4141 Y22.1263
G01 X9.4131 Y22.3090
G01 X9.4125 Y22.3174
G01 X9.4107 Y22.3285
G01 X9.4079 Y22.3394
G01 X9.4050 Y22.3473
G01 X9.4003 Y22.3575
G01 X9.3703 Y22.4146
G01 X9.3623 Y22.4264
G01 X9.3529 Y22.4370
G01 X9.3288 Y22.4600
G01 X9.3225 Y22.4652
G01 X9.3160 Y22.4700
G01 X9.3043 Y22.4768
G01 X9.2460 Y22.5045
G01 X9.2384 Y22.5074
G01 X9.2307 Y22.5097
G01 X9.2175 Y22.5123
G01 X9.2094 Y22.5130
G01 X9.2014 Y22.5132
G01 X9.0671 Y22.5117
G01 X9.0560 Y22.5108
G01 X9.0424 Y22.5080
G01 X9.0319 Y22.5047
G01 X9.0217 Y22.5003
G01 X8.9659 Y22.4711
G01 X8.9539 Y22.4634
G01 X8.9431 Y22.4543
G01 X8.9181 Y22.4281
G01 X8.9129 Y22.4219
G01 X8.9066 Y22.4131
G01 X8.9001 Y22.4012
G01 X8.8756 Y22.3500
G00 Z1.0000
G00 X7.8431 Y22.2408
G01 F30.00
G01 Z0.0000
G01 F45.00
G01 X7.8447 Y22.2447
G01 X7.8476 Y22.2477
G01 X7.8517 Y22.2493
G01 X7.8781 Y22.2496
G01 X7.8863 Y22.2503
G01 X7.8945 Y22.2517
G01 X7.9051 Y22.2544
G01 X7.9129 Y22.2571
G01 X7.9205 Y22.2604
G01 X7.9278 Y22.2642
G01 X7.9348 Y22.2685
G01 X7.9415 Y22.2734
G01 X7.9498 Y22.2806
G01 X7.9555 Y22.2865
G01 X7.9624 Y22.2950
G01 X7.9671 Y22.3019
G01 X7.9712 Y22.3090
G01 X7.9748 Y22.3164
G01 X7.9778 Y22.3241
G01 X7.9810 Y22.3346
G01 X7.9831 Y22.3454
G01 X7.9841 Y22.3564
G01 X7.9835 Y22.5667
G01 X7.9838 Y22.5689
G01 X7.9875 Y22.5780
G01 X7.9905 Y22.5810
G01 X7.9944 Y22.5826
G01 X7.9986 Y22.5826
G01 X8.0025 Y22.5810
G01 X8.0054 Y22.5780
G01 X8.0071 Y22.5740
G01 X8.0078 Y22.3620
G01 X8.0084 Y22.3510
G01 X8.0101 Y22.3402
G01 X8.0128 Y22.3295
G01 X8.0165 Y22.3192
G01 X8.0213 Y22.3092
G01 X8.0269 Y22.2998
G01 X8.0335 Y22.2910
G01 X8.0409 Y22.2829
G01 X8.0491 Y22.2755
G01 X8.0580 Y22.2690
G01 X8.0650 Y22.2647
G01 X8.0724 Y22.2609
G01 X8.0851 Y22.2559
G01 X8.0984 Y22.2524
G01 X8.1121 Y22.2506
G01 X8.1203 Y22.2503
G01 X8.3018 Y22.2510
G01 X8.3155 Y22.2519
G01 X8.3290 Y22.2545
G01 X8.3421 Y22.2587
G01 X8.3546 Y22.2645
G01 X8.3640 Y22.2702
G01 X8.3728 Y22.2768
G01 X8.3829 Y22.2862
G01 X8.3917 Y22.2968
G01 X8.3991 Y22.3083
G01 X8.4040 Y22.3182
G01 X8.4070 Y22.3259
G01 X8.4102 Y22.3364
G01 X8.4123 Y22.3472
G01 X8.4133 Y22.3582
G01 X8.4132 Y22.3692
G01 X8.4125 Y22.3774
G01 X8.4105 Y22.3882
G01 X8.4075 Y22.3988
G01 X8.2240 Y22.9439
G01 X8.2235 Y22.9460
G01 X8.2242 Y22.9558
G01 X8.2261 Y22.9596
G01 X8.2292 Y22.9623
G01 X8.2332 Y22.9637
G01 X8.2374 Y22.9634
G01 X8.2412 Y22.9615
G01 X8.2440 Y22.9582
G01 X8.4833 Y22.2479
G01 X8.4837 Y22.2457
G01 X8.4832 Y22.2362
G01 X8.4815 Y22.2324
G01 X8.4784 Y22.2295
G01 X8.4743 Y22.2280
G01 X8.1148 Y22.2266
G01 X8.1066 Y22.2259
G01 X8.0985 Y22.2245
G01 X8.0905 Y22.2226
G01 X8.0826 Y22.2201
G01 X8.0700 Y22.2146
G01 X8.0628 Y22.2106
G01 X8.0559 Y22.2061
G01 X8.0494 Y22.2011
G01 X8.0412 Y22.1937
G01 X8.0339 Y22.1855
G01 X8.0274 Y22.1766
G01 X8.0217 Y22.1672
G01 X8.0171 Y22.1572
G01 X8.0134 Y22.1469
G01 X8.0108 Y22.1362
G01 X8.0092 Y22.1253
G01 X8.0087 Y22.1143
G01 X8.0094 Y21.9107
G01 X8.0092 Y21.9085
G01 X8.0054 Y21.8994
G01 X8.0025 Y21.8964
G01 X7.9986 Y21.8948
G01 X7.9944 Y21.8948
G01 X7.9905 Y21.8964
G01 X7.9875 Y21.8994
G01 X7.9859 Y21.9035
G01 X7.9850 Y22.1197
G01 X7.9842 Y22.1279
G01 X7.9823 Y22.1387
G01 X7.9793 Y22.1493
G01 X7.9753 Y22.1596
G01 X7.9717 Y22.1670
G01 X7.9675 Y22.1741
G01 X7.9628 Y22.1809
G01 X7.9577 Y22.1873
G01 X7.9520 Y22.1933
G01 X7.9460 Y22.1989
G01 X7.9395 Y22.2040
G01 X7.9327 Y22.2087
G01 X7.9231 Y22.2141
G01 X7.9156 Y22.2175
G01 X7.9078 Y22.2203
G01 X7.8972 Y22.2232
G01 X7.8891 Y22.2247
G01 X7.8809 Y22.2256
G01 X7.8568 Y22.2260
G01 X7.8476 Y22.2298
G01 X7.8447 Y22.2327
G01 X7.8431 Y22.2366
G01 X7.8431 Y22.2408
G00 Z1.0000
G00 X6.8883 Y22.3288
G01 F30.00
G01 Z0.0000
G01 F45.00
G01 X6.8885 Y22.3308
G01 X6.8923 Y22.3399
G01 X6.8953 Y22.3429
G01 X6.8997 Y22.3447
G01 X7.0868 Y22.3468
G01 X7.0886 Y22.3467
G01 X7.0977 Y22.3429
G01 X7.1007 Y22.3399
G01 X7.1023 Y22.3361
G01 X7.1023 Y22.3319
G01 X7.1007 Y22.3280
G01 X7.0977 Y22.3250
G01 X7.0932 Y22.3232
G01 X7.0236 Y22.3224
G01 X7.0154 Y22.3220
G01 X7.0072 Y22.3210
G01 X6.9965 Y22.3187
G01 X6.9860 Y22.3154
G01 X6.9784 Y22.3123
G01 X6.9687 Y22.3073
G01 X6.9617 Y22.3029
G01 X6.9530 Y22.2963
G01 X6.9449 Y22.2889
G01 X6.9376 Y22.2807
G01 X6.9311 Y22.2718
G01 X6.9256 Y22.2624
G01 X6.9210 Y22.2524
G01 X6.9174 Y22.2421
G01 X6.9153 Y22.2341
G01 X6.9135 Y22.2233
G01 X6.9128 Y22.2123
G01 X6.9138 Y22.0567
G01 X6.9148 Y22.0430
G01 X6.9167 Y22.0321
G01 X6.9197 Y22.0215
G01 X6.9238 Y22.0113
G01 X6.9288 Y22.0014
G01 X6.9348 Y21.9922
G01 X6.9417 Y21.9835
G01 X6.9474 Y21.9775
G01 X6.9556 Y21.9702
G01 X6.9646 Y21.9637
G01 X6.9716 Y21.9594
G01 X6.9816 Y21.9546
G01 X6.9919 Y21.9507
G01 X7.0870 Y21.9206
G01 X7.1009 Y21.9179
G01 X7.1094 Y21.9171
G01 X7.1178 Y21.9169
G01 X7.1789 Y21.9183
G01 X7.1897 Y21.9195
G01 X7.2003 Y21.9219
G01 X7.2081 Y21.9243
G01 X7.3070 Y21.9589
G01 X7.3145 Y21.9623
G01 X7.3218 Y21.9662
G01 X7.3287 Y21.9706
G01 X7.3353 Y21.9755
G01 X7.3454 Y21.9847
G01 X7.4058 Y22.0469
G01 X7.4114 Y22.0532
G01 X7.4165 Y22.0598
G01 X7.4212 Y22.0669
G01 X7.4252 Y22.0742
G01 X7.4597 Y22.1462
G01 X7.4646 Y22.1584
G01 X7.4675 Y22.1685
G01 X7.5060 Y22.3299
G01 X7.5077 Y22.3381
G01 X7.5087 Y22.3464
G01 X7.5091 Y22.3575
G01 X7.5074 Y22.4704
G01 X7.5070 Y22.4785
G01 X7.5060 Y22.4865
G01 X7.5038 Y22.4971
G01 X7.4615 Y22.6588
G01 X7.4581 Y22.6695
G01 X7.4549 Y22.6773
G01 X7.4186 Y22.7469
G01 X7.4112 Y22.7585
G01 X7.4043 Y22.7670
G01 X7.3986 Y22.7730
G01 X7.3386 Y22.8312
G01 X7.3325 Y22.8367
G01 X7.3261 Y22.8417
G01 X7.3169 Y22.8476
G01 X7.3072 Y22.8527
G01 X7.2971 Y22.8567
G01 X7.1936 Y22.8897
G01 X7.1800 Y22.8927
G01 X7.1717 Y22.8937
G01 X7.1634 Y22.8941
G01 X7.0697 Y22.8928
G01 X7.0614 Y22.8924
G01 X7.0532 Y22.8914
G01 X7.0451 Y22.8897
G01 X7.0372 Y22.8875
G01 X7.0243 Y22.8825
G01 X6.9574 Y22.8478
G01 X6.9475 Y22.8471
G01 X6.9435 Y22.8484
G01 X6.9404 Y22.8512
G01 X6.9385 Y22.8549
G01 X6.9382 Y22.8591
G01 X6.9395 Y22.8631
G01 X6.9430 Y22.8671
G01 X7.0343 Y22.9149
G01 X7.0378 Y22.9162
G01 X7.0553 Y22.9168
G01 X7.0638 Y22.9166
G01 X7.1839 Y22.9181
G01 X7.1916 Y22.9153
G01 X7.3294 Y22.8715
G01 X7.3330 Y22.8699
G01 X7.3459 Y22.8578
G01 X7.3516 Y22.8518
G01 X7.4319 Y22.7737
G01 X7.4828 Y22.6753
G01 X7.4839 Y22.6679
G01 X7.4857 Y22.6604
G01 X7.5317 Y22.4845
G01 X7.5319 Y22.4827
G01 X7.5313 Y22.4691
G01 X7.5330 Y22.3369
G01 X7.5289 Y22.3235
G01 X7.4864 Y22.1451
G01 X7.4855 Y22.1427
G01 X7.4784 Y22.1301
G01 X7.4385 Y22.0465
G01 X7.4378 Y22.0453
G01 X7.4321 Y22.0398
G01 X7.3422 Y21.9472
G01 X7.3393 Y21.9448
G01 X7.3229 Y21.9387
G01 X7.3147 Y21.9362
G01 X7.1938 Y21.8943
G01 X7.0961 Y21.8925
G01 X7.0948 Y21.8927
G01 X7.0871 Y21.8954
G01 X6.9493 Y21.9393
G01 X6.9452 Y21.9411
G01 X6.8950 Y21.9887
G01 X6.8905 Y21.9989
G01 X6.8883 Y22.3288
G00 Z1.0000
G00 X5.8907 Y22.9074
G01 F30.00
G01 Z0.0000
G01 F45.00
G01 X5.8922 Y22.9112
G01 X5.8952 Y22.9142
G01 X5.8990 Y22.9159
G01 X5.9206 Y22.9162
G01 X6.5626 Y22.9183
G01 X6.5648 Y22.9181
G01 X6.5739 Y22.9143
G01 X6.5768 Y22.9114
G01 X6.5785 Y22.9075
G01 X6.5785 Y22.9033
G01 X6.5768 Y22.8994
G01 X6.5739 Y22.8964
G01 X6.5698 Y22.8948
G01 X6.0880 Y22.8931
G01 X6.0770 Y22.8925
G01 X6.0688 Y22.8913
G01 X6.0607 Y22.8896
G01 X6.0527 Y22.8872
G01 X6.0450 Y22.8843
G01 X6.0374 Y22.8808
G01 X6.0302 Y22.8768
G01 X6.0233 Y22.8722
G01 X6.0125 Y22.8635
G01 X6.0067 Y22.8576
G01 X6.0012 Y22.8514
G01 X5.9962 Y22.8447
G01 X5.9918 Y22.8378
G01 X5.9879 Y22.8304
G01 X5.9845 Y22.8229
G01 X5.9817 Y22.8151
G01 X5.9794 Y22.8071
G01 X5.9778 Y22.7989
G01 X5.9768 Y22.7907
G01 X5.9764 Y22.7797
G01 X5.9768 Y22.7714
G01 X5.9778 Y22.7632
G01 X5.9794 Y22.7550
G01 X5.9816 Y22.7470
G01 X5.9845 Y22.7392
G01 X6.3396 Y21.9154
G01 X6.3403 Y21.9133
G01 X6.3404 Y21.9034
G01 X6.3388 Y21.8995
G01 X6.3359 Y21.8965
G01 X6.3320 Y21.8949
G01 X6.3278 Y21.8948
G01 X6.3239 Y21.8964
G01 X6.3209 Y21.8994
G01 X5.8915 Y22.8953
G01 X5.8908 Y22.8975
G01 X5.8907 Y22.9074
G00 Z1.0000
G00 X7.0486 Y20.7563
G01 F30.00
G01 Z0.0000
G01 F45.00
G01 X7.1456 Y20.7043
G01 X7.1598 Y20.6956
G01 X7.1887 Y20.6763
G01 X7.2086 Y20.6613
G01 X7.3245 Y20.5661
G01 X7.3424 Y20.5496
G01 X7.3633 Y20.5287
G01 X7.3745 Y20.5164
G01 X7.4709 Y20.3991
G01 X7.4797 Y20.3880
G01 X7.4879 Y20.3764
G01 X7.5038 Y20.3526
G01 X7.5161 Y20.3324
G01 X7.5868 Y20.2001
G01 X7.5934 Y20.1869
G01 X7.5991 Y20.1739
G01 X7.6108 Y20.1455
G01 X7.6169 Y20.1286
G01 X7.6608 Y19.9839
G01 X7.6667 Y19.9610
G01 X7.6750 Y19.9181
G01 X7.6770 Y19.9016
G01 X7.6917 Y19.7526
G01 X7.6927 Y19.7385
G01 X7.6937 Y19.7168
G01 X7.6937 Y19.0700
G01 X7.6924 Y19.0366
G01 X7.6714 Y18.7691
G01 X7.6700 Y18.7554
G01 X7.6645 Y18.7199
G01 X7.6595 Y18.6967
G01 X7.6585 Y18.6821
G01 X7.6568 Y18.6680
G01 X7.6428 Y18.5752
G01 X7.6391 Y18.5583
G01 X7.6199 Y18.4815
G01 X7.6138 Y18.4605
G01 X7.5843 Y18.3776
G01 X7.5769 Y18.3590
G01 X7.5381 Y18.2765
G01 X7.5316 Y18.2639
G01 X7.5249 Y18.2520
G01 X7.4747 Y18.1310
G01 X7.4674 Y18.1156
G01 X7.4517 Y18.0855
G01 X7.3078 Y17.8503
G01 X7.2984 Y17.8360
G01 X7.2833 Y17.8152
G01 X7.2685 Y17.7964
G01 X7.0945 Y17.5927
G01 X7.0748 Y17.5712
G01 X2.9440 Y13.4403
G01 X2.9440 Y12.9363
G01 X2.9549 Y12.9527
G01 X2.9667 Y12.9681
G01 X2.9811 Y12.9845
G01 X2.9946 Y12.9981
G01 X3.0091 Y13.0109
G01 X3.0241 Y13.0227
G01 X3.0401 Y13.0337
G01 X3.0575 Y13.0442
G01 X3.0747 Y13.0531
G01 X3.0922 Y13.0608
G01 X3.1128 Y13.0683
G01 X3.1314 Y13.0737
G01 X3.1512 Y13.0782
G01 X3.1704 Y13.0812
G01 X3.1894 Y13.0831
G01 X3.2100 Y13.0837
G01 X4.8100 Y13.0837
G01 X4.8343 Y13.0828
G01 X4.8509 Y13.0811
G01 X4.8700 Y13.0779
G01 X4.8886 Y13.0737
G01 X4.9061 Y13.0687
G01 X4.9218 Y13.0632
G01 X4.9394 Y13.0558
G01 X4.9557 Y13.0478
G01 X4.9724 Y13.0385
G01 X4.9864 Y13.0295
G01 X5.0020 Y13.0181
G01 X5.0168 Y13.0059
G01 X5.0301 Y12.9936
G01 X5.0416 Y12.9816
G01 X5.0541 Y12.9671
G01 X5.0651 Y12.9527
G01 X5.0757 Y12.9368
G01 X5.0861 Y12.9190
G01 X5.0958 Y12.8994
G01 X5.1036 Y12.8806
G01 X5.1106 Y12.8599
G01 X5.1158 Y12.8399
G01 X5.1200 Y12.8185
G01 X5.1225 Y12.7983
G01 X5.1237 Y12.7765
G01 X5.1237 Y10.3635
G01 X5.1228 Y10.3457
G01 X5.1212 Y10.3304
G01 X5.1189 Y10.3151
G01 X5.1156 Y10.2988
G01 X5.1109 Y10.2813
G01 X5.1062 Y10.2666
G01 X5.1003 Y10.2511
G01 X5.0941 Y10.2370
G01 X5.0861 Y10.2210
G01 X5.0785 Y10.2076
G01 X5.0702 Y10.1947
G01 X5.0605 Y10.1811
G01 X5.0509 Y10.1691
G01 X5.0389 Y10.1555
G01 X5.0281 Y10.1445
G01 X5.0167 Y10.1340
G01 X5.9609 Y10.1340
G01 X5.8644 Y10.1857
G01 X5.8502 Y10.1944
G01 X5.8213 Y10.2137
G01 X5.8014 Y10.2287
G01 X5.6855 Y10.3239
G01 X5.6676 Y10.3404
G01 X5.6467 Y10.3613
G01 X5.6355 Y10.3736
G01 X5.5391 Y10.4909
G01 X5.5289 Y10.5040
G01 X5.5044 Y10.5402
G01 X5.4923 Y10.5606
G01 X5.4211 Y10.6940
G01 X5.4134 Y10.7101
G01 X5.4013 Y10.7391
G01 X5.3965 Y10.7517
G01 X5.3917 Y10.7657
G01 X5.3479 Y10.9105
G01 X5.3422 Y10.9342
G01 X5.3363 Y10.9643
G01 X5.3337 Y10.9820
G01 X5.3181 Y11.1392
G01 X5.3166 Y11.1643
G01 X5.3163 Y11.1790
G01 X5.3163 Y14.0767
G01 X5.3176 Y14.1034
G01 X5.3386 Y14.3709
G01 X5.3415 Y14.3953
G01 X5.3457 Y14.4213
G01 X5.3492 Y14.4381
G01 X5.4109 Y14.6951
G01 X5.4174 Y14.7181
G01 X5.4252 Y14.7419
G01 X5.4312 Y14.7579
G01 X5.5334 Y15.0045
G01 X5.5429 Y15.0250
G01 X5.5543 Y15.0473
G01 X5.5628 Y15.0622
G01 X5.7022 Y15.2897
G01 X5.7116 Y15.3040
G01 X5.7263 Y15.3243
G01 X5.7415 Y15.3436
G01 X5.9182 Y15.5504
G01 X5.9388 Y15.5725
G01 X7.8163 Y17.4500
G01 X7.8163 Y19.7122
G01 X7.8172 Y19.7379
G01 X7.8184 Y19.7533
G01 X7.8332 Y19.9034
G01 X7.8350 Y19.9181
G01 X7.8374 Y19.9314
G01 X7.8436 Y19.9622
G01 X7.8479 Y19.9795
G01 X7.8912 Y20.1225
G01 X7.8983 Y20.1432
G01 X7.9116 Y20.1756
G01 X7.9166 Y20.1869
G01 X7.9232 Y20.2001
G01 X7.9945 Y20.3335
G01 X8.0062 Y20.3527
G01 X8.0221 Y20.3765
G01 X8.0311 Y20.3890
G01 X8.0391 Y20.3991
G01 X8.1355 Y20.5164
G01 X8.1467 Y20.5287
G01 X8.1676 Y20.5496
G01 X8.1855 Y20.5661
G01 X8.3014 Y20.6613
G01 X8.3213 Y20.6763
G01 X8.3502 Y20.6956
G01 X8.3644 Y20.7043
G01 X8.4614 Y20.7563
G01 X7.0486 Y20.7563
G01 X7.6043 Y20.5546
G01 X7.6300 Y20.5232
G01 X7.6437 Y20.5054
G01 X7.6560 Y20.4879
G01 X7.6787 Y20.4535
G01 X7.6948 Y20.4260
G01 X7.7550 Y20.3134
G01 X7.8152 Y20.4260
G01 X7.8313 Y20.4536
G01 X7.8540 Y20.4879
G01 X7.8663 Y20.5054
G01 X7.8800 Y20.5232
G01 X7.9057 Y20.5546
G01 X7.6043 Y20.5546
G01 X7.7550 Y20.0209
G01 X7.7974 Y20.1603
G01 X7.8053 Y20.1824
G01 X7.8187 Y20.2148
G01 X7.8265 Y20.2322
G01 X7.8339 Y20.2471
G01 X7.9026 Y20.3756
G01 X7.9119 Y20.3920
G01 X7.9213 Y20.4071
G01 X7.9376 Y20.4315
G01 X7.9536 Y20.4537
G01 X8.0563 Y20.5790
G01 X8.0733 Y20.5978
G01 X8.1013 Y20.6259
G01 X8.1172 Y20.6405
G01 X8.1352 Y20.6554
G01 X7.3748 Y20.6554
G01 X7.3928 Y20.6405
G01 X7.4087 Y20.6259
G01 X7.4091 Y20.6254
G01 X7.4111 Y20.6235
G01 X7.4113 Y20.6233
G01 X7.4135 Y20.6211
G01 X7.4309 Y20.6037
G01 X7.4367 Y20.5978
G01 X7.4537 Y20.5790
G01 X7.5564 Y20.4537
G01 X7.5724 Y20.4315
G01 X7.5887 Y20.4071
G01 X7.5981 Y20.3920
G01 X7.6074 Y20.3756
G01 X7.6761 Y20.2471
G01 X7.6835 Y20.2322
G01 X7.6913 Y20.2148
G01 X7.7047 Y20.1823
G01 X7.7126 Y20.1603
G01 X7.7550 Y20.0209
G00 Z1.0000
G00 X5.1315 Y20.4537
G01 F30.00
G01 Z0.0000
G01 F45.00
G01 X5.2157 Y20.4537
G01 X5.1803 Y20.3875
G01 X5.1315 Y20.4537
G01 X4.9031 Y20.5546
G01 X5.4057 Y20.5546
G01 X5.3766 Y20.5189
G01 X5.3595 Y20.4959
G01 X5.3320 Y20.4546
G01 X5.3236 Y20.4409
G01 X5.3151 Y20.4257
G01 X5.2455 Y20.2956
G01 X5.2337 Y20.2720
G01 X5.2250 Y20.2523
G01 X5.2091 Y20.2132
G01 X5.2013 Y20.1910
G01 X5.1929 Y20.1634
G01 X5.1754 Y20.2000
G01 X5.1615 Y20.2255
G01 X5.1126 Y20.3071
G01 X5.1015 Y20.3241
G01 X5.0892 Y20.3415
G01 X5.0378 Y20.4107
G01 X5.0278 Y20.4233
G01 X5.0171 Y20.4360
G01 X4.9473 Y20.5129
G01 X4.9295 Y20.5305
G01 X4.9031 Y20.5546
G01 X4.5929 Y20.6554
G01 X5.6352 Y20.6554
G01 X5.6172 Y20.6405
G01 X5.6027 Y20.6271
G01 X5.5767 Y20.6013
G01 X5.5630 Y20.5867
G01 X5.5520 Y20.5738
G01 X5.4609 Y20.4629
G01 X5.4464 Y20.4441
G01 X5.4213 Y20.4071
G01 X5.4068 Y20.3832
G01 X5.3347 Y20.2485
G01 X5.3230 Y20.2247
G01 X5.3058 Y20.1835
G01 X5.2968 Y20.1585
G01 X5.2525 Y20.0126
G01 X5.2482 Y19.9972
G01 X5.2448 Y19.9825
G01 X5.2370 Y19.9435
G01 X5.2334 Y19.9185
G01 X5.2179 Y19.7619
G01 X5.2159 Y19.7313
G01 X5.2045 Y19.8081
G01 X5.2010 Y19.8282
G01 X5.1970 Y19.8459
G01 X5.1776 Y19.9233
G01 X5.1732 Y19.9396
G01 X5.1682 Y19.9552
G01 X5.1383 Y20.0390
G01 X5.1326 Y20.0537
G01 X5.1253 Y20.0703
G01 X5.0899 Y20.1452
G01 X5.0826 Y20.1598
G01 X5.0711 Y20.1803
G01 X5.0301 Y20.2487
G01 X5.0189 Y20.2663
G01 X5.0087 Y20.2807
G01 X4.9612 Y20.3447
G01 X4.9465 Y20.3634
G01 X4.9362 Y20.3752
G01 X4.8804 Y20.4368
G01 X4.8675 Y20.4501
G01 X4.8548 Y20.4622
G01 X4.7952 Y20.5162
G01 X4.7815 Y20.5281
G01 X4.7655 Y20.5407
G01 X4.7012 Y20.5884
G01 X4.6874 Y20.5982
G01 X4.6731 Y20.6074
G01 X4.5929 Y20.6554
G00 Z1.0000
G00 X3.6559 Y17.9496
G01 F30.00
G01 Z0.0000
G01 F45.00
G01 X3.6661 Y17.9454
G01 X3.7400 Y17.9189
G01 X3.7505 Y17.9158
G01 X3.8321 Y17.8955
G01 X3.9206 Y17.8823
G01 X4.0100 Y17.8780
G01 X4.0939 Y17.8819
G01 X4.1049 Y17.8830
G01 X4.1825 Y17.8945
G01 X4.1933 Y17.8967
G01 X4.2748 Y17.9172
G01 X4.3590 Y17.9474
G01 X4.4399 Y17.9856
G01 X4.5121 Y18.0287
G01 X4.5212 Y18.0348
G01 X4.5843 Y18.0816
G01 X4.5928 Y18.0886
G01 X4.6549 Y18.1451
G01 X4.7114 Y18.2072
G01 X4.7167 Y18.2135
G01 X4.7652 Y18.2788
G01 X4.7713 Y18.2879
G01 X4.8144 Y18.3601
G01 X4.8504 Y18.4359
G01 X4.8546 Y18.4461
G01 X4.8828 Y18.5252
G01 X4.9033 Y18.6067
G01 X4.9055 Y18.6175
G01 X4.9177 Y18.7006
G01 X4.9220 Y18.7873
G01 X4.9220 Y19.5927
G01 X4.9181 Y19.6739
G01 X4.9170 Y19.6849
G01 X4.9045 Y19.7679
G01 X4.8842 Y19.8495
G01 X4.8811 Y19.8600
G01 X4.8526 Y19.9390
G01 X4.8144 Y20.0199
G01 X4.7713 Y20.0921
G01 X4.7652 Y20.1012
G01 X4.7150 Y20.1686
G01 X4.6587 Y20.2309
G01 X4.6509 Y20.2387
G01 X4.5886 Y20.2950
G01 X4.5212 Y20.3452
G01 X4.5121 Y20.3513
G01 X4.4399 Y20.3944
G01 X4.3641 Y20.4304
G01 X4.3539 Y20.4346
G01 X4.2748 Y20.4628
G01 X4.1933 Y20.4833
G01 X4.1825 Y20.4855
G01 X4.0994 Y20.4977
G01 X4.0155 Y20.5019
G01 X4.0045 Y20.5019
G01 X3.9206 Y20.4977
G01 X3.8375 Y20.4855
G01 X3.8267 Y20.4833
G01 X3.7505 Y20.4642
G01 X3.7400 Y20.4611
G01 X3.6610 Y20.4326
G01 X3.5850 Y20.3968
G01 X3.5753 Y20.3916
G01 X3.5033 Y20.3483
G01 X3.4357 Y20.2984
G01 X3.4272 Y20.2914
G01 X3.3651 Y20.2349
G01 X3.3086 Y20.1728
G01 X3.3016 Y20.1643
G01 X3.2517 Y20.0967
G01 X3.2056 Y20.0199
G01 X3.1696 Y19.9441
G01 X3.1654 Y19.9339
G01 X3.1372 Y19.8548
G01 X3.1167 Y19.7733
G01 X3.1145 Y19.7625
G01 X3.1026 Y19.6821
G01 X3.1019 Y19.6739
G01 X3.0980 Y19.5900
G01 X3.0980 Y18.7900
G01 X3.1019 Y18.7061
G01 X3.1030 Y18.6951
G01 X3.1155 Y18.6121
G01 X3.1358 Y18.5305
G01 X3.1389 Y18.5200
G01 X3.1674 Y18.4410
G01 X3.2032 Y18.3650
G01 X3.2084 Y18.3553
G01 X3.2517 Y18.2833
G01 X3.3033 Y18.2135
G01 X3.3086 Y18.2072
G01 X3.3651 Y18.1451
G01 X3.4272 Y18.0886
G01 X3.4357 Y18.0816
G01 X3.4988 Y18.0348
G01 X3.5079 Y18.0287
G01 X3.5801 Y17.9856
G01 X3.6559 Y17.9496
G01 X3.6128 Y17.8584
G01 X3.6140 Y17.8579
G01 X3.6310 Y17.8509
G01 X3.7061 Y17.8240
G01 X3.7260 Y17.8179
G01 X3.8022 Y17.7989
G01 X3.8136 Y17.7963
G01 X3.9095 Y17.7821
G01 X3.9211 Y17.7812
G01 X4.0088 Y17.7771
G01 X4.0204 Y17.7774
G01 X4.0989 Y17.7812
G01 X4.1197 Y17.7833
G01 X4.1973 Y17.7948
G01 X4.2115 Y17.7974
G01 X4.3028 Y17.8204
G01 X4.3139 Y17.8240
G01 X4.3879 Y17.8504
G01 X4.4060 Y17.8579
G01 X4.4781 Y17.8920
G01 X4.4886 Y17.8973
G01 X4.5717 Y17.9471
G01 X4.5813 Y17.9538
G01 X4.6443 Y18.0006
G01 X4.6596 Y18.0130
G01 X4.7187 Y18.0666
G01 X4.7271 Y18.0747
G01 X4.7870 Y18.1404
G01 X4.7994 Y18.1557
G01 X4.8462 Y18.2187
G01 X4.8529 Y18.2283
G01 X4.9027 Y18.3114
G01 X4.9080 Y18.3219
G01 X4.9421 Y18.3940
G01 X4.9496 Y18.4121
G01 X4.9760 Y18.4861
G01 X4.9796 Y18.4972
G01 X5.0032 Y18.5912
G01 X5.0052 Y18.6027
G01 X5.0179 Y18.6895
G01 X5.0188 Y18.7011
G01 X5.0229 Y18.7860
G01 X5.0227 Y19.5992
G01 X5.0188 Y19.6789
G01 X5.0179 Y19.6905
G01 X5.0052 Y19.7773
G01 X5.0032 Y19.7888
G01 X4.9796 Y19.8828
G01 X4.9760 Y19.8939
G01 X4.9473 Y19.9739
G01 X4.9416 Y19.9872
G01 X4.9080 Y20.0581
G01 X4.9027 Y20.0686
G01 X4.8571 Y20.1450
G01 X4.8462 Y20.1613
G01 X4.7938 Y20.2316
G01 X4.7862 Y20.2405
G01 X4.7334 Y20.2987
G01 X4.7196 Y20.3126
G01 X4.6535 Y20.3722
G01 X4.6443 Y20.3794
G01 X4.5813 Y20.4262
G01 X4.5717 Y20.4329
G01 X4.4955 Y20.4788
G01 X4.4781 Y20.4880
G01 X4.4072 Y20.5216
G01 X4.3965 Y20.5263
G01 X4.3139 Y20.5560
G01 X4.2952 Y20.5618
G01 X4.2088 Y20.5832
G01 X4.1973 Y20.5852
G01 X4.1105 Y20.5979
G01 X4.0989 Y20.5988
G01 X4.0112 Y20.6029
G01 X3.9996 Y20.6026
G01 X3.9120 Y20.5981
G01 X3.9003 Y20.5967
G01 X3.8136 Y20.5837
G01 X3.8022 Y20.5811
G01 X3.7172 Y20.5596
G01 X3.7061 Y20.5560
G01 X3.6235 Y20.5263
G01 X3.6128 Y20.5216
G01 X3.5336 Y20.4839
G01 X3.5234 Y20.4781
G01 X3.4483 Y20.4329
G01 X3.4387 Y20.4262
G01 X3.3684 Y20.3738
G01 X3.3595 Y20.3662
G01 X3.2947 Y20.3071
G01 X3.2866 Y20.2987
G01 X3.2278 Y20.2335
G01 X3.2206 Y20.2243
G01 X3.1685 Y20.1538
G01 X3.1622 Y20.1439
G01 X3.1173 Y20.0686
G01 X3.1120 Y20.0581
G01 X3.0747 Y19.9788
G01 X3.0704 Y19.9679
G01 X3.0411 Y19.8852
G01 X3.0379 Y19.8740
G01 X3.0174 Y19.7915
G01 X3.0148 Y19.7773
G01 X3.0021 Y19.6905
G01 X3.0012 Y19.6789
G01 X2.9971 Y19.5940
G01 X2.9971 Y18.7860
G01 X3.0019 Y18.6920
G01 X3.0033 Y18.6803
G01 X3.0148 Y18.6027
G01 X3.0186 Y18.5834
G01 X3.0379 Y18.5060
G01 X3.0411 Y18.4948
G01 X3.0704 Y18.4121
G01 X3.0747 Y18.4012
G01 X3.1120 Y18.3219
G01 X3.1173 Y18.3114
G01 X3.1622 Y18.2361
G01 X3.1685 Y18.2262
G01 X3.2213 Y18.1547
G01 X3.2338 Y18.1395
G01 X3.2866 Y18.0813
G01 X3.2947 Y18.0729
G01 X3.3604 Y18.0130
G01 X3.3757 Y18.0006
G01 X3.4397 Y17.9531
G01 X3.4561 Y17.9422
G01 X3.5314 Y17.8973
G01 X3.5419 Y17.8920
G01 X3.6128 Y17.8584
G01 X2.2508 Y17.9665
G01 X2.2508 Y18.0204
G01 X2.2701 Y17.9792
G01 X2.2508 Y17.9665
G01 X2.1499 Y17.7594
G01 X2.1499 Y18.6479
G01 X2.1939 Y18.6919
G01 X2.1968 Y18.6393
G01 X2.2007 Y18.5964
G01 X2.2048 Y18.5652
G01 X2.2195 Y18.4667
G01 X2.2256 Y18.4338
G01 X2.2322 Y18.4029
G01 X2.2612 Y18.2878
G01 X2.2707 Y18.2553
G01 X2.2811 Y18.2237
G01 X2.3124 Y18.1361
G01 X2.3250 Y18.1030
G01 X2.3358 Y18.0772
G01 X2.3472 Y18.0520
G01 X2.3854 Y17.9714
G01 X2.3925 Y17.9568
G01 X2.3930 Y17.9558
G01 X2.3942 Y17.9533
G01 X2.3949 Y17.9520
G01 X2.3968 Y17.9484
G01 X2.4005 Y17.9412
G01 X2.3251 Y17.8947
G01 X2.3012 Y17.8788
G01 X2.2775 Y17.8621
G01 X2.2464 Y17.8393
G01 X2.2212 Y17.8197
G01 X2.2015 Y17.8035
G01 X2.1499 Y17.7594
G01 X2.0491 Y17.5381
G01 X2.0491 Y18.6897
G01 X2.2912 Y18.9318
G01 X2.2914 Y18.7693
G01 X2.2922 Y18.7468
G01 X2.2962 Y18.6661
G01 X2.2979 Y18.6393
G01 X2.3001 Y18.6150
G01 X2.3031 Y18.5905
G01 X2.3173 Y18.4936
G01 X2.3238 Y18.4571
G01 X2.3320 Y18.4193
G01 X2.3552 Y18.3268
G01 X2.3666 Y18.2866
G01 X2.3789 Y18.2496
G01 X2.4071 Y18.1706
G01 X2.4172 Y18.1442
G01 X2.4271 Y18.1203
G01 X2.4367 Y18.0986
G01 X2.4831 Y18.0011
G01 X2.4947 Y17.9787
G01 X2.5058 Y17.9586
G01 X2.5098 Y17.9516
G01 X2.5126 Y17.9469
G01 X2.5128 Y17.9466
G01 X2.5131 Y17.9460
G01 X2.5133 Y17.9456
G01 X2.5149 Y17.9430
G01 X2.5368 Y17.9064
G01 X2.3796 Y17.8098
G01 X2.3483 Y17.7888
G01 X2.3071 Y17.7588
G01 X2.2866 Y17.7428
G01 X2.2672 Y17.7269
G01 X2.0948 Y17.5797
G01 X2.0737 Y17.5611
G01 X2.0491 Y17.5381
G01 X1.9482 Y17.2950
G01 X1.9482 Y18.7314
G01 X2.3920 Y19.1753
G01 X2.3920 Y18.7887
G01 X2.3930 Y18.7505
G01 X2.3975 Y18.6598
G01 X2.3991 Y18.6390
G01 X2.4012 Y18.6182
G01 X2.4044 Y18.5940
G01 X2.4173 Y18.5069
G01 X2.4216 Y18.4821
G01 X2.4264 Y18.4587
G01 X2.4315 Y18.4367
G01 X2.4522 Y18.3542
G01 X2.4576 Y18.3343
G01 X2.4634 Y18.3147
G01 X2.4731 Y18.2857
G01 X2.5018 Y18.2054
G01 X2.5099 Y18.1840
G01 X2.5185 Y18.1630
G01 X2.5300 Y18.1372
G01 X2.5664 Y18.0604
G01 X2.5764 Y18.0402
G01 X2.5868 Y18.0205
G01 X2.6012 Y17.9953
G01 X2.6027 Y17.9926
G01 X2.6432 Y17.9250
G01 X2.6471 Y17.9186
G01 X2.6615 Y17.8959
G01 X2.6775 Y17.8726
G01 X2.6567 Y17.8611
G01 X2.6373 Y17.8497
G01 X2.4442 Y17.7314
G01 X2.4120 Y17.7103
G01 X2.3777 Y17.6856
G01 X2.3562 Y17.6694
G01 X2.3340 Y17.6513
G01 X2.1603 Y17.5030
G01 X2.1372 Y17.4825
G01 X2.1092 Y17.4560
G01 X1.9482 Y17.2950
G01 X1.8474 Y17.0515
G01 X1.8474 Y18.7732
G01 X2.4929 Y19.4187
G01 X2.4929 Y18.7897
G01 X2.4933 Y18.7666
G01 X2.4979 Y18.6710
G01 X2.5009 Y18.6342
G01 X2.5041 Y18.6091
G01 X2.5167 Y18.5244
G01 X2.5201 Y18.5043
G01 X2.5243 Y18.4832
G01 X2.5294 Y18.4609
G01 X2.5518 Y18.3722
G01 X2.5592 Y18.3464
G01 X2.5677 Y18.3204
G01 X2.5972 Y18.2382
G01 X2.6078 Y18.2109
G01 X2.6204 Y18.1820
G01 X2.6563 Y18.1060
G01 X2.6694 Y18.0798
G01 X2.6831 Y18.0549
G01 X2.7303 Y17.9760
G01 X2.7421 Y17.9570
G01 X2.7544 Y17.9385
G01 X2.7603 Y17.9302
G01 X2.7626 Y17.9268
G01 X2.7628 Y17.9266
G01 X2.7644 Y17.9243
G01 X2.7649 Y17.9237
G01 X2.7662 Y17.9220
G01 X2.8172 Y17.8532
G01 X2.8323 Y17.8337
G01 X2.7907 Y17.8159
G01 X2.7688 Y17.8058
G01 X2.7317 Y17.7871
G01 X2.7077 Y17.7741
G01 X2.6874 Y17.7622
G01 X2.5010 Y17.6479
G01 X2.4719 Y17.6291
G01 X2.4299 Y17.5988
G01 X2.4008 Y17.5757
G01 X2.2242 Y17.4250
G01 X2.1918 Y17.3955
G01 X2.1776 Y17.3818
G01 X1.8474 Y17.0515
G01 X1.7465 Y16.8081
G01 X1.7465 Y18.8150
G01 X2.5967 Y19.6651
G01 X2.5943 Y19.6157
G01 X2.5937 Y19.5916
G01 X2.5939 Y18.7766
G01 X2.5984 Y18.6790
G01 X2.6010 Y18.6464
G01 X2.6039 Y18.6234
G01 X2.6161 Y18.5411
G01 X2.6192 Y18.5229
G01 X2.6231 Y18.5033
G01 X2.6272 Y18.4858
G01 X2.6468 Y18.4072
G01 X2.6539 Y18.3817
G01 X2.6627 Y18.3543
G01 X2.6912 Y18.2746
G01 X2.7006 Y18.2503
G01 X2.7112 Y18.2260
G01 X2.7490 Y18.1460
G01 X2.7615 Y18.1213
G01 X2.7747 Y18.0980
G01 X2.8210 Y18.0210
G01 X2.8348 Y17.9996
G01 X2.8493 Y17.9792
G01 X2.8966 Y17.9154
G01 X2.8967 Y17.9152
G01 X2.8971 Y17.9147
G01 X2.8979 Y17.9136
G01 X2.8992 Y17.9119
G01 X2.9172 Y17.8891
G01 X2.9345 Y17.8691
G01 X2.9889 Y17.8091
G01 X3.0025 Y17.7947
G01 X2.8338 Y17.7247
G01 X2.8094 Y17.7134
G01 X2.7778 Y17.6974
G01 X2.7588 Y17.6872
G01 X2.7417 Y17.6771
G01 X2.5462 Y17.5572
G01 X2.5301 Y17.5467
G01 X2.5148 Y17.5359
G01 X2.4893 Y17.5173
G01 X2.4703 Y17.5023
G01 X2.2911 Y17.3495
G01 X2.2735 Y17.3338
G01 X2.2490 Y17.3106
G01 X1.7465 Y16.8081
G01 X1.6457 Y16.5419
G01 X1.6457 Y18.8568
G01 X2.7473 Y19.9584
G01 X2.7251 Y19.8701
G01 X2.7203 Y19.8487
G01 X2.7160 Y19.8249
G01 X2.7040 Y19.7439
G01 X2.7013 Y19.7229
G01 X2.6995 Y19.7023
G01 X2.6947 Y19.6002
G01 X2.6947 Y18.7786
G01 X2.6991 Y18.6846
G01 X2.7012 Y18.6586
G01 X2.7038 Y18.6376
G01 X2.7156 Y18.5578
G01 X2.7203 Y18.5309
G01 X2.7250 Y18.5103
G01 X2.7445 Y18.4324
G01 X2.7516 Y18.4070
G01 X2.7591 Y18.3841
G01 X2.7862 Y18.3086
G01 X2.7938 Y18.2889
G01 X2.8047 Y18.2640
G01 X2.8391 Y18.1913
G01 X2.8482 Y18.1732
G01 X2.8608 Y18.1506
G01 X2.9067 Y18.0740
G01 X2.9171 Y18.0579
G01 X2.9280 Y18.0424
G01 X2.9780 Y17.9749
G01 X2.9881 Y17.9617
G01 X3.0068 Y17.9396
G01 X3.0097 Y17.9363
G01 X3.0624 Y17.8782
G01 X3.0637 Y17.8768
G01 X3.0772 Y17.8625
G01 X3.0916 Y17.8485
G01 X3.1573 Y17.7889
G01 X3.1774 Y17.7716
G01 X3.1993 Y17.7548
G01 X3.1690 Y17.7474
G01 X3.1477 Y17.7414
G01 X3.1117 Y17.7297
G01 X3.0872 Y17.7205
G01 X2.8730 Y17.6317
G01 X2.8454 Y17.6187
G01 X2.8201 Y17.6057
G01 X2.8028 Y17.5961
G01 X2.6032 Y17.4740
G01 X2.5826 Y17.4604
G01 X2.5573 Y17.4422
G01 X2.5427 Y17.4312
G01 X2.5269 Y17.4183
G01 X2.3567 Y17.2729
G01 X2.3419 Y17.2597
G01 X2.3203 Y17.2392
G01 X1.7905 Y16.7093
G01 X1.7640 Y16.6804
G01 X1.6457 Y16.5419
G01 X1.5448 Y16.2259
G01 X1.5448 Y18.8985
G01 X3.3017 Y20.6554
G01 X3.4271 Y20.6554
G01 X3.3513 Y20.6101
G01 X3.3337 Y20.5989
G01 X3.3193 Y20.5887
G01 X3.2553 Y20.5412
G01 X3.2371 Y20.5269
G01 X3.2248 Y20.5162
G01 X3.1657 Y20.4627
G01 X3.1499 Y20.4475
G01 X3.1378 Y20.4348
G01 X3.0838 Y20.3752
G01 X3.0671 Y20.3555
G01 X3.0113 Y20.2807
G01 X2.9991 Y20.2632
G01 X2.9897 Y20.2484
G01 X2.9487 Y20.1800
G01 X2.9371 Y20.1593
G01 X2.9301 Y20.1452
G01 X2.8960 Y20.0731
G01 X2.8865 Y20.0514
G01 X2.8809 Y20.0367
G01 X2.8529 Y19.9584
G01 X2.8474 Y19.9414
G01 X2.8426 Y19.9242
G01 X2.8230 Y19.8459
G01 X2.8190 Y19.8282
G01 X2.8155 Y19.8081
G01 X2.8037 Y19.7289
G01 X2.8016 Y19.7121
G01 X2.8001 Y19.6952
G01 X2.7957 Y19.6039
G01 X2.7954 Y18.7891
G01 X2.7959 Y18.7709
G01 X2.7998 Y18.6909
G01 X2.8011 Y18.6728
G01 X2.8032 Y18.6544
G01 X2.8154 Y18.5722
G01 X2.8185 Y18.5543
G01 X2.8229 Y18.5344
G01 X2.8430 Y18.4543
G01 X2.8474 Y18.4386
G01 X2.8530 Y18.4213
G01 X2.8809 Y18.3433
G01 X2.8874 Y18.3263
G01 X2.8956 Y18.3077
G01 X2.9302 Y18.2345
G01 X2.9383 Y18.2185
G01 X2.9471 Y18.2027
G01 X2.9897 Y18.1316
G01 X2.9994 Y18.1162
G01 X3.0111 Y18.0996
G01 X3.0603 Y18.0333
G01 X3.0719 Y18.0185
G01 X3.0828 Y18.0059
G01 X3.1380 Y17.9450
G01 X3.1520 Y17.9303
G01 X3.1652 Y17.9178
G01 X3.1659 Y17.9171
G01 X3.2241 Y17.8644
G01 X3.2261 Y17.8625
G01 X3.2404 Y17.8503
G01 X3.2533 Y17.8403
G01 X3.3196 Y17.7911
G01 X3.3362 Y17.7794
G01 X3.3516 Y17.7697
G01 X3.4227 Y17.7271
G01 X3.4385 Y17.7183
G01 X3.4545 Y17.7102
G01 X3.4320 Y17.7064
G01 X3.4130 Y17.7024
G01 X3.2001 Y17.6512
G01 X3.1843 Y17.6470
G01 X3.1704 Y17.6428
G01 X3.1426 Y17.6337
G01 X3.1223 Y17.6259
G01 X2.9191 Y17.5418
G01 X2.9041 Y17.5352
G01 X2.8911 Y17.5288
G01 X2.8650 Y17.5154
G01 X2.8462 Y17.5046
G01 X2.6589 Y17.3899
G01 X2.6473 Y17.3824
G01 X2.6338 Y17.3731
G01 X2.6099 Y17.3556
G01 X2.5924 Y17.3416
G01 X2.4217 Y17.1958
G01 X2.3984 Y17.1745
G01 X1.8597 Y16.6358
G01 X1.8393 Y16.6133
G01 X1.6631 Y16.4071
G01 X1.6492 Y16.3896
G01 X1.6278 Y16.3600
G01 X1.6157 Y16.3416
G01 X1.5448 Y16.2259
G01 X1.4440 Y15.7887
G01 X1.4440 Y18.9403
G01 X3.2600 Y20.7563
G01 X5.9614 Y20.7563
G01 X5.8633 Y20.7037
G01 X5.8474 Y20.6938
G01 X5.8150 Y20.6719
G01 X5.8009 Y20.6609
G01 X5.6855 Y20.5661
G01 X5.6693 Y20.5513
G01 X5.6415 Y20.5231
G01 X5.6297 Y20.5096
G01 X5.5358 Y20.3951
G01 X5.5237 Y20.3787
G01 X5.5037 Y20.3488
G01 X5.4917 Y20.3283
G01 X5.4216 Y20.1971
G01 X5.4129 Y20.1787
G01 X5.3992 Y20.1455
G01 X5.3914 Y20.1231
G01 X5.3497 Y19.9857
G01 X5.3459 Y19.9721
G01 X5.3422 Y19.9558
G01 X5.3363 Y19.9257
G01 X5.3335 Y19.9068
G01 X5.3184 Y19.7533
G01 X5.3173 Y19.7398
G01 X5.3163 Y19.7104
G01 X5.3163 Y18.7000
G01 X5.0723 Y18.4560
G01 X5.0793 Y18.4791
G01 X5.0990 Y18.5577
G01 X5.1021 Y18.5715
G01 X5.1046 Y18.5854
G01 X5.1166 Y18.6662
G01 X5.1185 Y18.6821
G01 X5.1195 Y18.6962
G01 X5.1236 Y18.7798
G01 X5.1237 Y19.5919
G01 X5.1234 Y19.6054
G01 X5.1194 Y19.6857
G01 X5.1182 Y19.7004
G01 X5.1168 Y19.7126
G01 X5.1049 Y19.7927
G01 X5.1021 Y19.8085
G01 X5.0990 Y19.8223
G01 X5.0797 Y19.8991
G01 X5.0761 Y19.9121
G01 X5.0710 Y19.9279
G01 X5.0443 Y20.0024
G01 X5.0394 Y20.0151
G01 X5.0330 Y20.0297
G01 X4.9989 Y20.1018
G01 X4.9916 Y20.1161
G01 X4.9846 Y20.1284
G01 X4.9430 Y20.1979
G01 X4.9353 Y20.2098
G01 X4.9286 Y20.2194
G01 X4.8800 Y20.2849
G01 X4.8701 Y20.2975
G01 X4.8609 Y20.3082
G01 X4.8012 Y20.3738
G01 X4.7868 Y20.3877
G01 X4.7277 Y20.4413
G01 X4.7175 Y20.4501
G01 X4.7044 Y20.4604
G01 X4.6409 Y20.5075
G01 X4.6298 Y20.5153
G01 X4.6158 Y20.5243
G01 X4.5479 Y20.5650
G01 X4.5361 Y20.5716
G01 X4.5213 Y20.5792
G01 X4.4497 Y20.6130
G01 X4.4374 Y20.6185
G01 X4.4218 Y20.6245
G01 X4.3473 Y20.6512
G01 X4.3345 Y20.6554
G01 X4.3185 Y20.6599
G01 X4.2417 Y20.6791
G01 X4.2285 Y20.6821
G01 X4.2121 Y20.6850
G01 X4.1338 Y20.6966
G01 X4.1204 Y20.6982
G01 X4.1044 Y20.6995
G01 X4.0254 Y20.7034
G01 X4.0088 Y20.7037
G01 X3.9952 Y20.7034
G01 X3.9162 Y20.6995
G01 X3.8996 Y20.6982
G01 X3.8862 Y20.6966
G01 X3.8079 Y20.6850
G01 X3.7915 Y20.6821
G01 X3.7783 Y20.6791
G01 X3.7015 Y20.6599
G01 X3.6855 Y20.6554
G01 X3.6727 Y20.6512
G01 X3.5982 Y20.6245
G01 X3.5815 Y20.6180
G01 X3.4987 Y20.5792
G01 X3.4839 Y20.5716
G01 X3.4721 Y20.5650
G01 X3.4042 Y20.5243
G01 X3.3892 Y20.5147
G01 X3.3156 Y20.4604
G01 X3.3015 Y20.4494
G01 X3.2318 Y20.3865
G01 X3.2216 Y20.3767
G01 X3.2118 Y20.3664
G01 X3.1587 Y20.3077
G01 X3.1475 Y20.2946
G01 X3.0928 Y20.2214
G01 X3.0833 Y20.2077
G01 X3.0760 Y20.1963
G01 X3.0354 Y20.1284
G01 X3.0284 Y20.1161
G01 X3.0211 Y20.1018
G01 X2.9870 Y20.0297
G01 X2.9806 Y20.0151
G01 X2.9755 Y20.0018
G01 X2.9482 Y19.9256
G01 X2.9439 Y19.9121
G01 X2.9407 Y19.9009
G01 X2.9209 Y19.8217
G01 X2.9174 Y19.8061
G01 X2.9150 Y19.7921
G01 X2.9022 Y19.7044
G01 X2.9005 Y19.6838
G01 X2.8966 Y19.6048
G01 X2.8963 Y19.5900
G01 X2.8963 Y18.7894
G01 X2.8966 Y18.7752
G01 X2.9006 Y18.6937
G01 X2.9015 Y18.6821
G01 X2.9032 Y18.6680
G01 X2.9150 Y18.5879
G01 X2.9174 Y18.5739
G01 X2.9209 Y18.5583
G01 X2.9403 Y18.4809
G01 X2.9450 Y18.4643
G01 X2.9757 Y18.3776
G01 X2.9831 Y18.3590
G01 X3.0208 Y18.2787
G01 X3.0284 Y18.2639
G01 X3.0350 Y18.2521
G01 X3.0757 Y18.1842
G01 X3.0847 Y18.1702
G01 X3.0928 Y18.1586
G01 X3.1400 Y18.0951
G01 X3.1483 Y18.0844
G01 X3.1591 Y18.0718
G01 X3.2123 Y18.0132
G01 X3.2216 Y18.0033
G01 X3.2336 Y17.9918
G01 X3.2923 Y17.9387
G01 X3.3025 Y17.9299
G01 X3.3156 Y17.9196
G01 X3.3786 Y17.8728
G01 X3.3892 Y17.8653
G01 X3.4042 Y17.8557
G01 X3.4828 Y17.8089
G01 X3.4982 Y17.8011
G01 X3.5714 Y17.7665
G01 X3.5826 Y17.7615
G01 X3.5958 Y17.7563
G01 X3.6817 Y17.7258
G01 X3.6997 Y17.7206
G01 X3.7777 Y17.7010
G01 X3.7915 Y17.6979
G01 X3.8079 Y17.6950
G01 X3.8907 Y17.6828
G01 X3.9033 Y17.6814
G01 X3.9162 Y17.6805
G01 X3.9952 Y17.6766
G01 X4.0125 Y17.6763
G01 X4.1038 Y17.6805
G01 X4.1216 Y17.6819
G01 X4.2121 Y17.6950
G01 X4.2297 Y17.6982
G01 X4.3203 Y17.7206
G01 X4.3440 Y17.7277
G01 X4.2500 Y17.6337
G01 X3.7481 Y17.6337
G01 X3.7304 Y17.6328
G01 X3.5041 Y17.6150
G01 X3.4802 Y17.6122
G01 X3.4549 Y17.6081
G01 X3.4417 Y17.6055
G01 X3.2183 Y17.5518
G01 X3.2066 Y17.5485
G01 X3.1821 Y17.5406
G01 X3.1621 Y17.5333
G01 X2.9589 Y17.4491
G01 X2.9415 Y17.4413
G01 X2.9143 Y17.4274
G01 X2.8994 Y17.4190
G01 X2.7125 Y17.3044
G01 X2.7009 Y17.2970
G01 X2.6741 Y17.2777
G01 X2.6584 Y17.2653
G01 X2.4869 Y17.1188
G01 X2.4631 Y17.0968
G01 X1.9338 Y16.5674
G01 X1.9158 Y16.5476
G01 X1.7398 Y16.3416
G01 X1.7296 Y16.3287
G01 X1.7149 Y16.3085
G01 X1.7026 Y16.2903
G01 X1.5638 Y16.0638
G01 X1.5549 Y16.0485
G01 X1.5404 Y16.0200
G01 X1.5336 Y16.0051
G01 X1.4440 Y15.7887
G00 Z1.0000
G00 X3.1458 Y13.2814
G01 F30.00
G01 Z0.0000
G01 F45.00
G01 X3.1457 Y13.3568
G01 X7.2223 Y17.4335
G01 X7.2470 Y17.4607
G01 X7.4218 Y17.6654
G01 X7.4335 Y17.6796
G01 X7.4448 Y17.6944
G01 X7.4646 Y17.7218
G01 X7.4783 Y17.7425
G01 X7.6146 Y17.9649
G01 X7.6146 Y17.5335
G01 X5.7962 Y15.7151
G01 X5.7839 Y15.7024
G01 X5.7628 Y15.6790
G01 X5.5869 Y15.4731
G01 X5.5704 Y15.4526
G01 X5.5517 Y15.4271
G01 X5.5409 Y15.4117
G01 X5.5293 Y15.3936
G01 X5.3910 Y15.1680
G01 X5.3825 Y15.1533
G01 X5.3742 Y15.1382
G01 X5.3580 Y15.1060
G01 X5.3463 Y15.0800
G01 X5.2441 Y14.8332
G01 X5.2354 Y14.8101
G01 X5.2255 Y14.7800
G01 X5.2202 Y14.7625
G01 X5.2151 Y14.7433
G01 X5.1525 Y14.4826
G01 X5.1469 Y14.4552
G01 X5.1406 Y14.4148
G01 X5.1376 Y14.3874
G01 X5.1165 Y14.1193
G01 X5.1147 Y14.0809
G01 X5.1146 Y13.1858
G01 X5.0994 Y13.1965
G01 X5.0837 Y13.2068
G01 X5.0675 Y13.2165
G01 X5.0511 Y13.2256
G01 X5.0340 Y13.2342
G01 X5.0169 Y13.2421
G01 X4.9992 Y13.2494
G01 X4.9825 Y13.2557
G01 X4.9643 Y13.2618
G01 X4.9487 Y13.2664
G01 X4.9307 Y13.2711
G01 X4.9118 Y13.2753
G01 X4.8935 Y13.2786
G01 X4.8746 Y13.2814
G01 X4.8559 Y13.2834
G01 X4.8368 Y13.2847
G01 X4.8100 Y13.2854
G01 X3.2100 Y13.2854
G01 X3.2057 Y13.2854
G01 X3.2023 Y13.2854
G01 X3.2020 Y13.2854
G01 X3.2014 Y13.2854
G01 X3.2011 Y13.2853
G01 X3.1736 Y13.2841
G01 X3.1458 Y13.2814
G01 X3.0450 Y13.1503
G01 X3.0449 Y13.3985
G01 X7.1425 Y17.4962
G01 X7.1538 Y17.5079
G01 X7.1710 Y17.5271
G01 X7.3451 Y17.7309
G01 X7.3546 Y17.7423
G01 X7.3647 Y17.7557
G01 X7.3819 Y17.7794
G01 X7.3933 Y17.7967
G01 X7.5341 Y18.0266
G01 X7.5463 Y18.0483
G01 X7.5634 Y18.0825
G01 X7.5704 Y18.0985
G01 X7.6155 Y18.2071
G01 X7.6226 Y18.2202
G01 X7.6291 Y18.2331
G01 X7.6696 Y18.3192
G01 X7.6785 Y18.3416
G01 X7.7060 Y18.4184
G01 X7.7112 Y18.4339
G01 X7.7154 Y18.4483
G01 X7.7154 Y17.4917
G01 X5.8675 Y15.6438
G01 X5.8569 Y15.6328
G01 X5.8390 Y15.6129
G01 X5.6631 Y15.4071
G01 X5.6500 Y15.3907
G01 X5.6312 Y15.3649
G01 X5.6157 Y15.3416
G01 X5.4759 Y15.1134
G01 X5.4631 Y15.0905
G01 X5.4513 Y15.0673
G01 X5.4443 Y15.0524
G01 X5.3377 Y14.7956
G01 X5.3299 Y14.7749
G01 X5.3195 Y14.7427
G01 X5.3128 Y14.7183
G01 X5.2504 Y14.4584
G01 X5.2451 Y14.4313
G01 X5.2409 Y14.4043
G01 X5.2390 Y14.3883
G01 X5.2170 Y14.1111
G01 X5.2155 Y14.0762
G01 X5.2154 Y12.8567
G01 X5.2117 Y12.8725
G01 X5.2076 Y12.8874
G01 X5.2027 Y12.9030
G01 X5.1975 Y12.9175
G01 X5.1918 Y12.9315
G01 X5.1853 Y12.9461
G01 X5.1786 Y12.9597
G01 X5.1701 Y12.9754
G01 X5.1619 Y12.9892
G01 X5.1537 Y13.0019
G01 X5.1441 Y13.0155
G01 X5.1345 Y13.0280
G01 X5.1231 Y13.0417
G01 X5.1128 Y13.0532
G01 X5.1018 Y13.0645
G01 X5.0912 Y13.0747
G01 X5.0794 Y13.0851
G01 X5.0665 Y13.0957
G01 X5.0545 Y13.1048
G01 X5.0414 Y13.1140
G01 X5.0287 Y13.1222
G01 X5.0133 Y13.1313
G01 X4.9992 Y13.1389
G01 X4.9856 Y13.1456
G01 X4.9715 Y13.1518
G01 X4.9563 Y13.1579
G01 X4.9418 Y13.1631
G01 X4.9268 Y13.1678
G01 X4.9095 Y13.1725
G01 X4.8945 Y13.1759
G01 X4.8790 Y13.1788
G01 X4.8644 Y13.1810
G01 X4.8374 Y13.1837
G01 X4.8103 Y13.1846
G01 X3.2029 Y13.1845
G01 X3.1826 Y13.1837
G01 X3.1623 Y13.1818
G01 X3.1422 Y13.1790
G01 X3.1222 Y13.1752
G01 X3.1024 Y13.1704
G01 X3.0829 Y13.1646
G01 X3.0637 Y13.1579
G01 X3.0450 Y13.1503
G01 X3.3178 Y13.3863
G01 X7.2865 Y17.3549
G01 X7.3019 Y17.3710
G01 X7.3233 Y17.3948
G01 X7.4989 Y17.6004
G01 X7.5137 Y17.6185
G01 X7.5137 Y17.5753
G01 X5.7249 Y15.7864
G01 X5.7010 Y15.7613
G01 X5.6858 Y15.7442
G01 X5.5103 Y15.5386
G01 X5.4951 Y15.5201
G01 X5.4820 Y15.5027
G01 X5.4618 Y15.4747
G01 X5.4458 Y15.4503
G01 X5.2992 Y15.2109
G01 X5.2874 Y15.1898
G01 X5.2731 Y15.1618
G01 X5.2648 Y15.1449
G01 X5.2568 Y15.1272
G01 X5.1517 Y14.8737
G01 X5.1443 Y14.8548
G01 X5.1371 Y14.8342
G01 X5.1253 Y14.7975
